luts/luts/agfa_apx_100_emulation.cube
TITLE "Agfa APX 100 (B&W emulation)"
LUT_3D_SIZE 9
DOMAIN_MIN 0.0 0.0 0.0
DOMAIN_MAX 1.0 1.0 1.0
0.016253 0.020000 0.029368
0.037757 0.041242 0.049956
0.089227 0.092115 0.099334
0.155541 0.157723 0.163176
0.232994 0.234448 0.238081
0.338023 0.338677 0.340314
0.453889 0.453977 0.454197
0.569361 0.569276 0.569108
0.677721 0.677343 0.676587
0.053048 0.056352 0.064610
0.073266 0.076334 0.084006
0.115716 0.118313 0.124805
0.176040 0.178018 0.182963
0.252054 0.253345 0.256573
0.355012 0.355560 0.356932
0.468181 0.468229 0.468351
0.580399 0.580293 0.580079
0.686364 0.685956 0.685140
0.125565 0.128057 0.134286
0.139542 0.141887 0.147749
0.172142 0.174158 0.179199
0.223083 0.224624 0.228474
0.300580 0.301492 0.303773
0.396447 0.396768 0.397569
0.502519 0.502518 0.502518
0.607320 0.607151 0.606813
0.707599 0.707114 0.706145
0.217109 0.218703 0.222686
0.227595 0.229096 0.232847
0.256413 0.257669 0.260807
0.308117 0.308975 0.311120
0.378541 0.378954 0.379988
0.464841 0.464898 0.465040
0.557847 0.557784 0.557658
0.651596 0.651302 0.650715
0.742973 0.742351 0.741106
0.342350 0.342977 0.344544
0.352593 0.353156 0.354564
0.377987 0.378404 0.379445
0.421151 0.421358 0.421877
0.481142 0.481163 0.481216
0.552186 0.552133 0.552026
0.630006 0.629777 0.629317
0.710698 0.710202 0.709209
0.789041 0.788220 0.786579
0.486087 0.486100 0.486132
0.494143 0.494146 0.494154
0.513997 0.513991 0.513978
0.547382 0.547336 0.547244
0.593352 0.593217 0.592946
0.649536 0.649248 0.648674
0.712864 0.712359 0.711351
0.780109 0.779329 0.777767
0.833517 0.832486 0.830425
0.625223 0.625007 0.624574
0.631132 0.630899 0.630433
0.645823 0.645547 0.644995
0.670850 0.670494 0.669784
0.705954 0.705475 0.704519
0.749759 0.749108 0.747807
0.796183 0.795329 0.793622
0.838456 0.837401 0.835291
0.881642 0.880365 0.877810
0.752767 0.752104 0.750778
0.757142 0.756460 0.755097
0.768064 0.767336 0.765880
0.785829 0.785023 0.783410
0.806501 0.805600 0.803798
0.832594 0.831568 0.829515
0.862902 0.861723 0.859365
0.895798 0.894445 0.891738
0.929289 0.927748 0.924668
0.847689 0.846587 0.844384
0.850179 0.849065 0.846837
0.856407 0.855261 0.852970
0.867129 0.865928 0.863526
0.882374 0.881093 0.878530
0.901652 0.900266 0.897495
0.923979 0.922469 0.919449
0.947882 0.946235 0.942940
0.971267 0.969480 0.965908
0.024022 0.027674 0.036803
0.048884 0.052237 0.060618
0.097091 0.099891 0.106892
0.161488 0.163609 0.168913
0.237751 0.239163 0.242694
0.342876 0.343499 0.345058
0.457983 0.458059 0.458248
0.572513 0.572422 0.572241
0.680185 0.679798 0.679025
0.062894 0.066082 0.074053
0.081870 0.084840 0.092267
0.122647 0.125169 0.131476
0.181602 0.183526 0.188336
0.257665 0.258910 0.262023
0.359743 0.360263 0.361564
0.472140 0.472179 0.472277
0.583475 0.583361 0.583135
0.688778 0.688362 0.687529
0.132215 0.134637 0.140690
0.145839 0.148119 0.153819
0.177772 0.179734 0.184637
0.227959 0.229456 0.233199
0.305730 0.306605 0.308793
0.400910 0.401209 0.401955
0.506173 0.506171 0.506168
0.610215 0.610038 0.609685
0.709895 0.709402 0.708416
0.222060 0.223609 0.227483
0.232416 0.233874 0.237520
0.261980 0.263190 0.266214
0.313204 0.314026 0.316081
0.383115 0.383503 0.384476
0.468831 0.468878 0.468995
0.561081 0.561012 0.560874
0.654213 0.653912 0.653308
0.745081 0.744450 0.743187
0.347171 0.347768 0.349259
0.357340 0.357875 0.359211
0.382565 0.382956 0.383936
0.425469 0.425659 0.426133
0.484982 0.484997 0.485033
0.555461 0.555402 0.555284
0.632756 0.632518 0.632043
0.712977 0.712472 0.711463
0.790492 0.789664 0.788009
0.489882 0.489890 0.489910
0.497866 0.497867 0.497869
0.517561 0.517552 0.517533
0.550692 0.550641 0.550538
0.596339 0.596197 0.595912
0.652165 0.651870 0.651279
0.715131 0.714618 0.713592
0.782028 0.781239 0.779660
0.834754 0.833717 0.831643
0.628003 0.627779 0.627330
0.633875 0.633634 0.633152
0.648475 0.648191 0.647623
0.673353 0.672990 0.672262
0.708259 0.707772 0.706798
0.751831 0.751172 0.749854
0.797598 0.796738 0.795018
0.839670 0.838609 0.836486
0.882654 0.881371 0.878806
0.754823 0.754152 0.752808
0.759176 0.758486 0.757106
0.770043 0.769307 0.767833
0.787295 0.786482 0.784857
0.807867 0.806959 0.805144
0.833836 0.832803 0.830738
0.864001 0.862817 0.860447
0.896743 0.895384 0.892667
0.930068 0.928523 0.925434
0.848859 0.847752 0.845537
0.851338 0.850218 0.847978
0.857537 0.856385 0.854082
0.868209 0.867002 0.864589
0.883383 0.882096 0.879523
0.902569 0.901178 0.898397
0.924785 0.923271 0.920242
0.948559 0.946908 0.943605
0.971789 0.970000 0.966421
0.053172 0.056474 0.064729
0.073372 0.076440 0.084108
0.115801 0.118397 0.124887
0.176107 0.178085 0.183028
0.252122 0.253412 0.256639
0.355069 0.355617 0.356988
0.468229 0.468277 0.468399
0.580437 0.580330 0.580116
0.686393 0.685985 0.685169
0.085289 0.088221 0.095551
0.102023 0.104769 0.111633
0.139426 0.141772 0.147638
0.195348 0.197141 0.201625
0.271690 0.272823 0.275653
0.371639 0.372091 0.373220
0.482053 0.482072 0.482121
0.591208 0.591077 0.590816
0.694863 0.694425 0.693549
0.148391 0.150645 0.156279
0.161241 0.163366 0.168676
0.191675 0.193503 0.198073
0.240450 0.241839 0.245312
0.318647 0.319431 0.321391
0.412149 0.412395 0.413011
0.515345 0.515337 0.515322
0.617499 0.617303 0.616912
0.715683 0.715168 0.714138
0.234385 0.235827 0.239430
0.245760 0.247104 0.250464
0.275896 0.276995 0.279742
0.325967 0.326701 0.328536
0.394627 0.394956 0.395780
0.478821 0.478846 0.478909
0.569209 0.569125 0.568957
0.660805 0.660483 0.659837
0.750396 0.749742 0.748436
0.359287 0.359810 0.361118
0.369278 0.369743 0.370906
0.394086 0.394418 0.395248
0.436355 0.436502 0.436870
0.494601 0.494604 0.494611
0.563691 0.563617 0.563470
0.639678 0.639421 0.638905
0.718723 0.718196 0.717143
0.794152 0.793308 0.791619
0.499391 0.499391 0.499391
0.507203 0.507201 0.507197
0.526509 0.526490 0.526454
0.559009 0.558944 0.558813
0.603853 0.603693 0.603371
0.658788 0.658472 0.657840
0.720847 0.720313 0.719243
0.785870 0.785063 0.783450
0.837876 0.836824 0.834719
0.635000 0.634756 0.634268
0.640780 0.640519 0.639997
0.655154 0.654849 0.654240
0.679660 0.679276 0.678506
0.714070 0.713561 0.712543
0.757058 0.756377 0.755014
0.801170 0.800294 0.798541
0.842734 0.841657 0.839504
0.885208 0.883912 0.881319
0.760011 0.759318 0.757930
0.764307 0.763595 0.762172
0.775036 0.774277 0.772760
0.790995 0.790166 0.788506
0.811313 0.810389 0.808542
0.836969 0.835921 0.833825
0.866777 0.865578 0.863180
0.899128 0.897756 0.895013
0.932032 0.930476 0.927365
0.851814 0.850691 0.848447
0.854263 0.853128 0.850859
0.860389 0.859223 0.856890
0.870934 0.869713 0.867272
0.885928 0.884628 0.882027
0.904882 0.903479 0.900673
0.926819 0.925293 0.922241
0.950265 0.948603 0.945280
0.973101 0.971304 0.967709
0.093368 0.096209 0.103313
0.109443 0.112107 0.118769
0.145764 0.148044 0.153746
0.200632 0.202376 0.206737
0.277137 0.278226 0.280949
0.376286 0.376712 0.377776
0.485908 0.485921 0.485954
0.594227 0.594090 0.593815
0.697244 0.696797 0.695904
0.119355 0.121913 0.128307
0.133683 0.136089 0.142104
0.166935 0.169002 0.174171
0.218598 0.220178 0.224129
0.295859 0.296806 0.299174
0.392368 0.392709 0.393561
0.499173 0.499173 0.499173
0.604673 0.604510 0.604185
0.705501 0.705024 0.704070
0.175090 0.177077 0.182045
0.186876 0.188750 0.193434
0.215156 0.216767 0.220795
0.266005 0.267182 0.270126
0.341040 0.341676 0.343264
0.431787 0.431952 0.432363
0.531256 0.531232 0.531185
0.630196 0.629966 0.629505
0.725810 0.725256 0.724148
0.259322 0.260554 0.263633
0.271066 0.272203 0.275045
0.299892 0.300809 0.303102
0.348112 0.348702 0.350179
0.414720 0.414955 0.415543
0.496070 0.496072 0.496076
0.583346 0.583233 0.583007
0.672317 0.671956 0.671236
0.759702 0.759010 0.757626
0.380377 0.380781 0.381789
0.390075 0.390427 0.391309
0.414193 0.414430 0.415024
0.455344 0.455427 0.455636
0.511241 0.511236 0.511227
0.578001 0.577900 0.577696
0.651757 0.651463 0.650875
0.728776 0.728210 0.727079
0.800566 0.799693 0.797946
0.515859 0.515851 0.515835
0.523398 0.523383 0.523353
0.542036 0.541999 0.541923
0.573468 0.573375 0.573190
0.616944 0.616750 0.616362
0.670353 0.669999 0.669292
0.730849 0.730276 0.729128
0.792467 0.791631 0.789958
0.843353 0.842273 0.840114
0.647207 0.646927 0.646367
0.652828 0.652531 0.651936
0.666815 0.666473 0.665789
0.690682 0.690259 0.689413
0.724235 0.723688 0.722592
0.766211 0.765491 0.764051
0.807431 0.806526 0.804715
0.848107 0.847004 0.844797
0.889687 0.888367 0.885726
0.769097 0.768365 0.766900
0.773296 0.772545 0.771043
0.783469 0.782673 0.781081
0.797480 0.796620 0.794902
0.817355 0.816402 0.814497
0.842464 0.841389 0.839239
0.871645 0.870421 0.867972
0.903309 0.901914 0.899125
0.935470 0.933895 0.930744
0.856997 0.855848 0.853551
0.859395 0.858234 0.855912
0.865391 0.864199 0.861816
0.875715 0.874469 0.871977
0.890392 0.889068 0.886419
0.908938 0.907512 0.904661
0.930381 0.928835 0.925742
0.953243 0.951564 0.948206
0.975374 0.973563 0.969941
0.141165 0.143493 0.149314
0.154347 0.156540 0.162024
0.185431 0.187318 0.192037
0.234632 0.236071 0.239669
0.312811 0.313636 0.315698
0.407063 0.407332 0.408006
0.511200 0.511196 0.511186
0.614204 0.614017 0.613643
0.713063 0.712558 0.711548
0.162672 0.164781 0.170056
0.174925 0.176914 0.181886
0.204161 0.205872 0.210151
0.253985 0.255260 0.258449
0.330469 0.331173 0.332934
0.422493 0.422695 0.423200
0.523745 0.523730 0.523700
0.624193 0.623979 0.623552
0.721016 0.720481 0.719410
0.211469 0.213113 0.217225
0.222109 0.223658 0.227530
0.250090 0.251398 0.254667
0.302351 0.303251 0.305499
0.373367 0.373809 0.374914
0.460313 0.460382 0.460555
0.554186 0.554129 0.554015
0.648637 0.648352 0.647783
0.740593 0.739980 0.738754
0.296086 0.297032 0.299395
0.307103 0.307968 0.310131
0.334282 0.334961 0.336659
0.380113 0.380518 0.381530
0.443992 0.444112 0.444412
0.520807 0.520794 0.520770
0.603808 0.603647 0.603326
0.689077 0.688659 0.687824
0.773307 0.772556 0.771055
0.410985 0.411237 0.411866
0.420291 0.420502 0.421030
0.443484 0.443606 0.443910
0.482463 0.482481 0.482528
0.535186 0.535158 0.535101
0.598705 0.598557 0.598261
0.669323 0.668972 0.668272
0.743454 0.742829 0.741580
0.809957 0.809039 0.807205
0.539567 0.539533 0.539464
0.546722 0.546677 0.546587
0.564435 0.564360 0.564210
0.594379 0.594241 0.593965
0.635939 0.635692 0.635199
0.687189 0.686778 0.685956
0.745454 0.744821 0.743556
0.802122 0.801241 0.799480
0.851377 0.850257 0.848016
0.664955 0.664619 0.663947
0.670351 0.669998 0.669290
0.683788 0.683389 0.682591
0.706746 0.706264 0.705302
0.739075 0.738468 0.737254
0.779595 0.778817 0.777260
0.816599 0.815650 0.813753
0.855982 0.854838 0.852551
0.896248 0.894892 0.892180
0.782382 0.781591 0.780009
0.785537 0.784732 0.783122
0.793421 0.792580 0.790899
0.806970 0.806067 0.804260
0.826204 0.825208 0.823218
0.850516 0.849400 0.847169
0.878779 0.877517 0.874993
0.909429 0.908001 0.905144
0.940488 0.938884 0.935675
0.864591 0.863404 0.861028
0.866914 0.865714 0.863314
0.872722 0.871492 0.869032
0.882721 0.881438 0.878871
0.896931 0.895571 0.892852
0.914874 0.913415 0.910497
0.935583 0.934006 0.930854
0.957572 0.955868 0.952459
0.978631 0.976800 0.973138
0.195138 0.196933 0.201422
0.206257 0.207949 0.212179
0.233136 0.234588 0.238218
0.285844 0.286866 0.289421
0.358622 0.359149 0.360466
0.447327 0.447436 0.447708
0.543736 0.543696 0.543615
0.640213 0.639954 0.639435
0.733829 0.733243 0.732072
0.213371 0.214998 0.219067
0.223959 0.225491 0.229322
0.252220 0.253510 0.256735
0.304292 0.305178 0.307391
0.375108 0.375540 0.376621
0.461838 0.461903 0.462065
0.555418 0.555359 0.555241
0.649632 0.649344 0.648769
0.741393 0.740777 0.739545
0.260226 0.261450 0.264511
0.271950 0.273080 0.275905
0.300733 0.301644 0.303922
0.348891 0.349477 0.350942
0.415430 0.415661 0.416241
0.496675 0.496676 0.496680
0.583844 0.583730 0.583502
0.672723 0.672362 0.671639
0.760032 0.759338 0.757951
0.343076 0.343699 0.345254
0.353308 0.353867 0.355264
0.378677 0.379089 0.380121
0.421801 0.422006 0.422517
0.481721 0.481741 0.481791
0.552680 0.552625 0.552517
0.630420 0.630189 0.629728
0.711041 0.710543 0.709549
0.789259 0.788438 0.786794
0.451034 0.451131 0.451373
0.459779 0.459850 0.460027
0.481256 0.481277 0.481329
0.517067 0.517058 0.517040
0.566088 0.566010 0.565854
0.625618 0.625401 0.624966
0.692306 0.691877 0.691020
0.762757 0.762052 0.760642
0.822346 0.821370 0.819417
0.570178 0.570092 0.569920
0.576863 0.576764 0.576565
0.593441 0.593305 0.593034
0.621549 0.621342 0.620930
0.660721 0.660399 0.659754
0.709249 0.708758 0.707777
0.764663 0.763950 0.762523
0.814857 0.813916 0.812035
0.861975 0.860800 0.858452
0.688168 0.687754 0.686925
0.693281 0.692849 0.691984
0.706022 0.705544 0.704586
0.727823 0.727261 0.726137
0.758585 0.757898 0.756523
0.793928 0.793085 0.791399
0.828698 0.827691 0.825676
0.866382 0.865185 0.862791
0.904907 0.903503 0.900697
0.795998 0.795146 0.793441
0.799012 0.798145 0.796413
0.806542 0.805641 0.803838
0.819491 0.818528 0.816603
0.837885 0.836833 0.834728
0.861151 0.859981 0.857641
0.888200 0.886887 0.884263
0.917499 0.916025 0.913078
0.947070 0.945427 0.942141
0.874623 0.873383 0.870902
0.876846 0.875594 0.873090
0.882404 0.881123 0.878560
0.891971 0.890638 0.887972
0.905559 0.904152 0.901338
0.922694 0.921192 0.918186
0.942413 0.940797 0.937566
0.963211 0.961473 0.957997
0.982768 0.980912 0.977199
0.257995 0.259237 0.262343
0.269767 0.270914 0.273783
0.298657 0.299583 0.301899
0.346968 0.347566 0.349061
0.413679 0.413919 0.414518
0.495183 0.495185 0.495191
0.582615 0.582504 0.582281
0.671720 0.671362 0.670646
0.759219 0.758529 0.757149
0.277357 0.278445 0.281164
0.288730 0.289730 0.292231
0.316719 0.317517 0.319510
0.363734 0.364231 0.365473
0.428978 0.429153 0.429592
0.508169 0.508167 0.508161
0.593334 0.593199 0.592928
0.680484 0.680096 0.679320
0.766324 0.765603 0.764162
0.323882 0.324630 0.326501
0.334418 0.335096 0.336791
0.360491 0.361007 0.362296
0.404678 0.404958 0.405660
0.466372 0.466425 0.466558
0.539644 0.539610 0.539541
0.619503 0.619302 0.618900
0.702008 0.701545 0.700617
0.783518 0.782722 0.781130
0.399310 0.399616 0.400382
0.408761 0.409023 0.409677
0.432297 0.432460 0.432866
0.472189 0.472229 0.472327
0.526084 0.526067 0.526031
0.590820 0.590690 0.590431
0.662620 0.662292 0.661635
0.737845 0.737243 0.736040
0.806365 0.805465 0.803664
0.498495 0.498495 0.498496
0.506322 0.506320 0.506317
0.525664 0.525647 0.525612
0.558223 0.558160 0.558032
0.603143 0.602984 0.602666
0.658162 0.657848 0.657220
0.720306 0.719774 0.718708
0.785513 0.784708 0.783098
0.837581 0.836530 0.834428
0.606907 0.606739 0.606403
0.613065 0.612882 0.612514
0.628363 0.628138 0.627688
0.654386 0.654084 0.653479
0.690813 0.690390 0.689543
0.736167 0.735571 0.734381
0.786908 0.786097 0.784474
0.830510 0.829494 0.827462
0.875018 0.873775 0.871291
0.716437 0.715919 0.714883
0.721218 0.720682 0.719610
0.733144 0.732561 0.731395
0.753582 0.752916 0.751583
0.782460 0.781669 0.780086
0.810766 0.809845 0.808002
0.843579 0.842498 0.840337
0.879182 0.877918 0.875389
0.915541 0.914079 0.911154
0.812718 0.811788 0.809927
0.815560 0.814616 0.812728
0.822663 0.821685 0.819729
0.834885 0.833847 0.831772
0.852257 0.851133 0.848884
0.874239 0.873001 0.870525
0.899785 0.898410 0.895660
0.927393 0.925864 0.922805
0.955071 0.953382 0.950002
0.886966 0.885660 0.883049
0.889066 0.887748 0.885114
0.894314 0.892969 0.890278
0.903344 0.901949 0.899159
0.916156 0.914690 0.911758
0.932275 0.930718 0.927603
0.950735 0.949070 0.945742
0.969989 0.968211 0.964653
0.987517 0.985631 0.981861
0.336445 0.337110 0.338772
0.346779 0.347378 0.348876
0.372386 0.372833 0.373952
0.415871 0.416101 0.416676
0.476429 0.476459 0.476534
0.548175 0.548128 0.548034
0.626642 0.626422 0.625981
0.707912 0.707426 0.706455
0.787269 0.786456 0.784831
0.353474 0.354032 0.355426
0.363550 0.364048 0.365292
0.388555 0.388915 0.389816
0.431127 0.431294 0.431711
0.489992 0.490000 0.490019
0.559743 0.559676 0.559543
0.636355 0.636107 0.635611
0.715963 0.715447 0.714415
0.792393 0.791557 0.789885
0.394998 0.395325 0.396145
0.404503 0.404785 0.405489
0.428170 0.428348 0.428795
0.468373 0.468421 0.468541
0.522712 0.522698 0.522670
0.587903 0.587780 0.587534
0.660145 0.659825 0.659184
0.735776 0.735183 0.733996
0.805042 0.804147 0.802359
0.463541 0.463602 0.463753
0.472034 0.472074 0.472173
0.492913 0.492917 0.492928
0.527830 0.527810 0.527771
0.575749 0.575652 0.575457
0.634075 0.633834 0.633351
0.699561 0.699106 0.698196
0.768872 0.768141 0.766678
0.826279 0.825284 0.823293
0.551121 0.551070 0.550966
0.558096 0.558032 0.557905
0.575372 0.575276 0.575084
0.604612 0.604450 0.604125
0.645260 0.644986 0.644437
0.695474 0.695034 0.694153
0.752659 0.751996 0.750671
0.806894 0.805991 0.804185
0.855346 0.854206 0.851925
0.648681 0.648397 0.647827
0.654283 0.653981 0.653377
0.668224 0.667877 0.667184
0.692015 0.691587 0.690731
0.725465 0.724912 0.723807
0.767319 0.766594 0.765145
0.808190 0.807281 0.805463
0.848759 0.847652 0.845438
0.890230 0.888907 0.886260
0.749086 0.748438 0.747143
0.753501 0.752835 0.751503
0.764524 0.763811 0.762385
0.783206 0.782411 0.780822
0.804059 0.803169 0.801390
0.830374 0.829359 0.827328
0.860936 0.859767 0.857429
0.894108 0.892764 0.890075
0.927894 0.926362 0.923298
0.832191 0.831167 0.829118
0.834836 0.833799 0.831724
0.841450 0.840380 0.838240
0.852835 0.851707 0.849452
0.869023 0.867812 0.865390
0.889505 0.888186 0.885547
0.913275 0.911826 0.908926
0.938854 0.937259 0.934069
0.964210 0.962466 0.958978
0.901354 0.899970 0.897203
0.903308 0.901913 0.899124
0.908190 0.906768 0.903925
0.916581 0.915112 0.912176
0.928463 0.926928 0.923857
0.943355 0.941734 0.938492
0.960271 0.958550 0.955109
0.977579 0.975754 0.972105
0.992338 0.990423 0.986593
0.420009 0.420221 0.420752
0.429207 0.429381 0.429818
0.452114 0.452208 0.452442
0.490342 0.490350 0.490368
0.542193 0.542154 0.542078
0.604788 0.604625 0.604299
0.674503 0.674136 0.673401
0.747795 0.747153 0.745868
0.812739 0.811809 0.809948
0.435184 0.435336 0.435715
0.444205 0.444325 0.444623
0.466465 0.466518 0.466650
0.503471 0.503470 0.503469
0.553914 0.553858 0.553745
0.614990 0.614801 0.614423
0.683210 0.682813 0.682019
0.755105 0.754432 0.753086
0.817430 0.816477 0.814571
0.472139 0.472178 0.472276
0.480463 0.480485 0.480541
0.500937 0.500937 0.500937
0.535263 0.535234 0.535177
0.582433 0.582322 0.582100
0.639938 0.639680 0.639163
0.704600 0.704127 0.703180
0.773125 0.772375 0.770875
0.829017 0.828008 0.825991
0.531120 0.531096 0.531049
0.538409 0.538377 0.538311
0.556448 0.556387 0.556266
0.586915 0.586794 0.586552
0.629151 0.628923 0.628469
0.681165 0.680775 0.679995
0.740222 0.739611 0.738388
0.798661 0.797796 0.796066
0.848499 0.847393 0.845182
0.607384 0.607214 0.606876
0.613536 0.613350 0.612980
0.628817 0.628591 0.628138
0.654814 0.654510 0.653903
0.691206 0.690781 0.689931
0.736519 0.735922 0.734730
0.787148 0.786336 0.784711
0.830715 0.829698 0.827664
0.875189 0.873946 0.871459
0.694282 0.693846 0.692974
0.699322 0.698868 0.697959
0.711884 0.711383 0.710382
0.733386 0.732802 0.731634
0.763742 0.763032 0.761613
0.797557 0.796698 0.794978
0.831903 0.830880 0.828835
0.869139 0.867928 0.865505
0.907199 0.905783 0.902951
0.784613 0.783813 0.782211
0.787746 0.786931 0.785301
0.795571 0.794721 0.793019
0.809022 0.808109 0.806282
0.828117 0.827112 0.825103
0.852257 0.851133 0.848884
0.880322 0.879052 0.876511
0.910752 0.909316 0.906445
0.941570 0.939959 0.936738
0.853926 0.852793 0.850527
0.856354 0.855209 0.852918
0.862427 0.861251 0.858897
0.872882 0.871651 0.869189
0.887747 0.886437 0.883817
0.906535 0.905123 0.902298
0.928272 0.926737 0.923669
0.951481 0.949812 0.946475
0.974032 0.972229 0.968623
0.917384 0.915911 0.912965
0.919170 0.917687 0.914721
0.923631 0.922123 0.919107
0.931284 0.929733 0.926630
0.942086 0.940472 0.937245
0.955530 0.953838 0.950453
0.970582 0.968800 0.965236
0.985431 0.983559 0.979814
0.995809 0.993873 0.990000
