luts/luts/agfa_apx_100_emulation.cube
TITLE "Agfa APX 100 (B&W emulation)"
LUT_3D_SIZE 33
DOMAIN_MIN 0.0 0.0 0.0
DOMAIN_MAX 1.0 1.0 1.0
0.016253 0.020000 0.029368
0.018071 0.021796 0.031107
0.021578 0.025260 0.034464
0.028148 0.031750 0.040753
0.037757 0.041242 0.049956
0.048877 0.052230 0.060612
0.061261 0.064468 0.072486
0.074749 0.077800 0.085429
0.089227 0.092115 0.099334
0.104609 0.107326 0.114120
0.120825 0.123367 0.129722
0.137818 0.140181 0.146088
0.155541 0.157723 0.163176
0.173954 0.175952 0.180948
0.193020 0.194836 0.199374
0.212710 0.214343 0.218426
0.232994 0.234448 0.238081
0.257316 0.258564 0.261684
0.283582 0.284621 0.287220
0.310492 0.311333 0.313435
0.338023 0.338677 0.340314
0.366153 0.366636 0.367843
0.394862 0.395190 0.396011
0.424128 0.424323 0.424811
0.453889 0.453977 0.454197
0.483422 0.483439 0.483482
0.512471 0.512466 0.512455
0.541124 0.541088 0.541015
0.569361 0.569276 0.569108
0.597157 0.597012 0.596724
0.624494 0.624279 0.623851
0.651355 0.651062 0.650476
0.677721 0.677343 0.676587
0.019975 0.023676 0.032929
0.023532 0.027189 0.036334
0.028300 0.031900 0.040899
0.035531 0.039044 0.047824
0.044518 0.047922 0.056433
0.055027 0.058307 0.066508
0.066866 0.070008 0.077864
0.079880 0.082874 0.090357
0.093950 0.096785 0.103873
0.108978 0.111648 0.118323
0.124887 0.127386 0.133632
0.141611 0.143935 0.149744
0.159097 0.161243 0.166607
0.177300 0.179266 0.184180
0.196179 0.197965 0.202429
0.215700 0.217307 0.221322
0.235834 0.237263 0.240834
0.260633 0.261854 0.264906
0.286745 0.287760 0.290298
0.313515 0.314334 0.316384
0.340917 0.341553 0.343144
0.368929 0.369396 0.370563
0.397528 0.397844 0.398631
0.426693 0.426878 0.427339
0.456332 0.456413 0.456614
0.485701 0.485714 0.485748
0.514604 0.514597 0.514583
0.543126 0.543087 0.543008
0.571241 0.571153 0.570977
0.598923 0.598774 0.598477
0.626154 0.625935 0.625497
0.652916 0.652618 0.652023
0.679190 0.678807 0.678041
0.027155 0.030768 0.039802
0.031671 0.035230 0.044126
0.036609 0.040108 0.048856
0.043306 0.046725 0.055272
0.051705 0.055024 0.063323
0.061643 0.064846 0.072853
0.072957 0.076029 0.083709
0.085502 0.088431 0.095755
0.099155 0.101933 0.108876
0.113816 0.116434 0.122977
0.129401 0.131852 0.137979
0.145838 0.148118 0.153818
0.163069 0.165175 0.170440
0.181044 0.182974 0.187797
0.199719 0.201471 0.205853
0.219056 0.220632 0.224573
0.239121 0.240521 0.244022
0.264361 0.265552 0.268528
0.290303 0.291291 0.293763
0.316917 0.317713 0.319703
0.344177 0.344792 0.346331
0.372057 0.372506 0.373630
0.400534 0.400835 0.401586
0.429586 0.429759 0.430191
0.459079 0.459152 0.459334
0.488265 0.488275 0.488299
0.517006 0.516997 0.516979
0.545381 0.545338 0.545253
0.573358 0.573266 0.573082
0.600913 0.600760 0.600453
0.628026 0.627801 0.627353
0.654676 0.654373 0.653767
0.680847 0.680458 0.679680
0.038951 0.042422 0.051099
0.043038 0.046460 0.055016
0.047487 0.050856 0.059279
0.053583 0.056880 0.065123
0.061326 0.064533 0.072549
0.070606 0.073706 0.081454
0.081293 0.084271 0.091714
0.093259 0.096102 0.103209
0.106386 0.109084 0.115829
0.120572 0.123117 0.129479
0.135731 0.138115 0.144077
0.151786 0.154005 0.159553
0.168673 0.170723 0.175849
0.186338 0.188217 0.192914
0.204733 0.206440 0.210705
0.223817 0.225351 0.229186
0.244681 0.246034 0.249417
0.269662 0.270811 0.273681
0.295368 0.296318 0.298695
0.321764 0.322527 0.324434
0.348823 0.349410 0.350876
0.376518 0.376942 0.378004
0.404823 0.405103 0.405803
0.433714 0.433871 0.434264
0.462988 0.463050 0.463205
0.491914 0.491919 0.491933
0.520428 0.520416 0.520392
0.548594 0.548547 0.548451
0.576377 0.576279 0.576082
0.603751 0.603591 0.603270
0.630695 0.630463 0.630000
0.657188 0.656877 0.656255
0.683210 0.682813 0.682019
0.053048 0.056352 0.064610
0.056675 0.059936 0.068088
0.060659 0.063874 0.071909
0.066176 0.069326 0.077201
0.073266 0.076334 0.084006
0.081864 0.084835 0.092262
0.091876 0.094734 0.101879
0.103194 0.105927 0.112760
0.115716 0.118313 0.124805
0.129344 0.131795 0.137924
0.143990 0.146289 0.152037
0.159578 0.161718 0.167070
0.176040 0.178018 0.182963
0.193317 0.195130 0.199661
0.211359 0.213005 0.217119
0.230120 0.231599 0.235294
0.252054 0.253345 0.256573
0.276702 0.277795 0.280526
0.302100 0.303002 0.305255
0.328214 0.328933 0.330731
0.355012 0.355560 0.356932
0.382464 0.382856 0.383837
0.410543 0.410797 0.411431
0.439224 0.439360 0.439702
0.468181 0.468229 0.468351
0.496765 0.496766 0.496769
0.524982 0.524965 0.524932
0.552873 0.552819 0.552709
0.580399 0.580293 0.580079
0.607534 0.607364 0.607025
0.634254 0.634012 0.633528
0.660538 0.660216 0.659573
0.686364 0.685956 0.685140
0.068979 0.072097 0.079891
0.072214 0.075295 0.082996
0.075794 0.078834 0.086433
0.080791 0.083774 0.091231
0.087275 0.090184 0.097459
0.095215 0.098036 0.105089
0.104551 0.107269 0.114064
0.115201 0.117803 0.124309
0.127077 0.129553 0.135742
0.140094 0.142433 0.148281
0.154168 0.156363 0.161851
0.169224 0.171269 0.176381
0.185195 0.187084 0.191808
0.202019 0.203750 0.208078
0.219643 0.221214 0.225141
0.238019 0.239429 0.242953
0.261310 0.262526 0.265564
0.285555 0.286580 0.289141
0.310581 0.311421 0.313522
0.336348 0.337014 0.338678
0.362825 0.363327 0.364582
0.389977 0.390331 0.391213
0.417777 0.417999 0.418554
0.446196 0.446308 0.446590
0.474713 0.474747 0.474831
0.502872 0.502872 0.502871
0.530725 0.530702 0.530656
0.558273 0.558209 0.558081
0.585478 0.585360 0.585125
0.612313 0.612131 0.611767
0.638752 0.638497 0.637988
0.664773 0.664438 0.663767
0.690353 0.689931 0.689087
0.086486 0.089405 0.096701
0.089396 0.092282 0.099497
0.092633 0.095483 0.102607
0.097179 0.099978 0.106976
0.103119 0.105852 0.112687
0.110451 0.113105 0.119739
0.119142 0.121702 0.128102
0.129133 0.131587 0.137722
0.140357 0.142694 0.148535
0.152740 0.154950 0.160474
0.166208 0.168282 0.173469
0.180690 0.182623 0.187456
0.196121 0.197908 0.202373
0.212441 0.214077 0.218166
0.229595 0.231078 0.234785
0.249564 0.250876 0.254156
0.272486 0.273611 0.276426
0.296264 0.297208 0.299568
0.320855 0.321624 0.323546
0.346219 0.346821 0.348328
0.372317 0.372765 0.373884
0.399116 0.399424 0.400192
0.426585 0.426770 0.427233
0.454642 0.454728 0.454942
0.482615 0.482634 0.482680
0.510278 0.510274 0.510266
0.537693 0.537661 0.537597
0.564828 0.564752 0.564601
0.591648 0.591516 0.591253
0.618122 0.617925 0.617531
0.644224 0.643953 0.643411
0.669928 0.669576 0.668872
0.695210 0.694771 0.693892
0.105393 0.108102 0.114874
0.108032 0.110712 0.117412
0.110979 0.113627 0.120247
0.115135 0.117738 0.124246
0.120597 0.123141 0.129502
0.127380 0.129852 0.136033
0.135472 0.137859 0.143827
0.144837 0.147127 0.152853
0.155424 0.157606 0.163063
0.167174 0.169239 0.174402
0.180024 0.181964 0.186812
0.193911 0.195718 0.200235
0.208773 0.210443 0.214615
0.224554 0.226081 0.229899
0.241789 0.243167 0.246611
0.263215 0.264415 0.267415
0.285583 0.286607 0.289168
0.308842 0.309695 0.311826
0.332946 0.333633 0.335353
0.357852 0.358383 0.359712
0.383521 0.383907 0.384874
0.409917 0.410173 0.410815
0.437006 0.437151 0.437513
0.464544 0.464601 0.464746
0.491890 0.491896 0.491910
0.518994 0.518984 0.518962
0.545899 0.545856 0.545768
0.572556 0.572465 0.572284
0.598928 0.598779 0.598482
0.624982 0.624766 0.624335
0.650690 0.650399 0.649818
0.676023 0.675651 0.674906
0.700955 0.700495 0.699575
0.125565 0.128057 0.134286
0.127978 0.130444 0.136609
0.130678 0.133116 0.139210
0.134500 0.136897 0.142891
0.139542 0.141887 0.147749
0.145835 0.148115 0.153815
0.153381 0.155584 0.161092
0.162162 0.164276 0.169564
0.172142 0.174158 0.179199
0.183278 0.185186 0.189956
0.195516 0.197308 0.201788
0.208803 0.210472 0.214644
0.223083 0.224624 0.228474
0.238304 0.239711 0.243230
0.258007 0.259249 0.262355
0.278806 0.279882 0.282573
0.300580 0.301492 0.303773
0.323276 0.324029 0.325910
0.346849 0.347447 0.348944
0.371253 0.371706 0.372841
0.396447 0.396768 0.397569
0.422395 0.422598 0.423103
0.449052 0.449155 0.449413
0.475875 0.475906 0.475984
0.502519 0.502518 0.502518
0.529012 0.528991 0.528949
0.555341 0.555283 0.555165
0.581457 0.581348 0.581130
0.607320 0.607151 0.606813
0.632897 0.632659 0.632183
0.658156 0.657842 0.657214
0.683066 0.682670 0.681877
0.707599 0.707114 0.706145
0.146901 0.149170 0.154843
0.149120 0.151367 0.156983
0.151611 0.153832 0.159384
0.155143 0.157328 0.162792
0.159818 0.161956 0.167302
0.165675 0.167755 0.172954
0.172727 0.174738 0.179764
0.180971 0.182901 0.187727
0.190383 0.192223 0.196824
0.200932 0.202674 0.207027
0.212577 0.214212 0.218298
0.225273 0.226794 0.230596
0.239057 0.240458 0.243961
0.257040 0.258290 0.261415
0.276134 0.277231 0.279974
0.296284 0.297227 0.299587
0.317435 0.318227 0.320208
0.339537 0.340182 0.341795
0.362543 0.363047 0.364307
0.386409 0.386780 0.387709
0.411091 0.411343 0.411971
0.436552 0.436699 0.437065
0.462583 0.462646 0.462803
0.488588 0.488597 0.488621
0.514484 0.514477 0.514464
0.540306 0.540271 0.540200
0.565998 0.565921 0.565765
0.591515 0.591383 0.591121
0.616814 0.616620 0.616233
0.641860 0.641595 0.641067
0.666617 0.666276 0.665593
0.691054 0.690629 0.689780
0.715139 0.714626 0.713600
0.169314 0.171358 0.176468
0.171369 0.173393 0.178452
0.173678 0.175679 0.180682
0.176959 0.178928 0.183851
0.181312 0.183239 0.188057
0.186782 0.188656 0.193342
0.193390 0.195202 0.199732
0.201142 0.202881 0.207230
0.210028 0.211685 0.215829
0.220025 0.221592 0.225511
0.231103 0.232573 0.236247
0.244278 0.245635 0.249026
0.260387 0.261610 0.264667
0.277676 0.278761 0.281474
0.296091 0.297036 0.299399
0.315580 0.316385 0.318398
0.336092 0.336759 0.338427
0.357579 0.358112 0.359445
0.379993 0.380399 0.381413
0.403292 0.403579 0.404297
0.427432 0.427613 0.428067
0.452344 0.452437 0.452668
0.477486 0.477514 0.477584
0.502615 0.502615 0.502614
0.527740 0.527721 0.527682
0.552833 0.552778 0.552669
0.577835 0.577734 0.577531
0.602700 0.602542 0.602227
0.627384 0.627161 0.626717
0.651848 0.651554 0.650965
0.676056 0.675684 0.674938
0.699972 0.699516 0.698603
0.723563 0.723018 0.721927
0.192737 0.194555 0.199100
0.194649 0.196449 0.200949
0.196800 0.198580 0.203030
0.199861 0.201613 0.205991
0.203931 0.205644 0.209928
0.209056 0.210722 0.214888
0.215264 0.216875 0.220900
0.222569 0.224114 0.227976
0.230969 0.232440 0.236117
0.240873 0.242259 0.245722
0.253811 0.255087 0.258279
0.268014 0.269175 0.272079
0.283442 0.284482 0.287084
0.300050 0.300966 0.303257
0.317791 0.318581 0.320556
0.336619 0.337282 0.338942
0.356485 0.357024 0.358374
0.377344 0.377764 0.378813
0.399150 0.399457 0.400225
0.421861 0.422066 0.422577
0.445435 0.445550 0.445838
0.469497 0.469542 0.469656
0.493669 0.493673 0.493682
0.517909 0.517899 0.517879
0.542220 0.542182 0.542106
0.566537 0.566458 0.566300
0.590803 0.590673 0.590414
0.614970 0.614781 0.614404
0.638994 0.638738 0.638227
0.662832 0.662503 0.661845
0.686446 0.686037 0.685221
0.709797 0.709305 0.708319
0.732851 0.732269 0.731106
0.217109 0.218703 0.222686
0.218897 0.220474 0.224418
0.220909 0.222469 0.226368
0.223777 0.225311 0.229147
0.227595 0.229096 0.232847
0.232413 0.233871 0.237517
0.238262 0.239670 0.243189
0.246653 0.247989 0.251330
0.256413 0.257669 0.260807
0.267462 0.268628 0.271542
0.279781 0.280849 0.283521
0.293343 0.294309 0.296723
0.308117 0.308975 0.311120
0.324065 0.324812 0.326680
0.341147 0.341781 0.343368
0.359319 0.359842 0.361149
0.378541 0.378954 0.379988
0.398768 0.399077 0.399849
0.419957 0.420170 0.420701
0.442068 0.442195 0.442512
0.464841 0.464898 0.465040
0.487854 0.487865 0.487891
0.511035 0.511031 0.511022
0.534388 0.534361 0.534306
0.557847 0.557784 0.557658
0.581350 0.581241 0.581023
0.604841 0.604678 0.604352
0.628272 0.628048 0.627598
0.651596 0.651302 0.650715
0.674768 0.674400 0.673663
0.697748 0.697300 0.696403
0.720496 0.719962 0.718896
0.742973 0.742351 0.741106
0.243239 0.244604 0.248018
0.245299 0.246646 0.250016
0.247619 0.248947 0.252268
0.250928 0.252229 0.255481
0.255339 0.256603 0.259764
0.260913 0.262132 0.265178
0.267693 0.268857 0.271766
0.275705 0.276805 0.279557
0.284963 0.285991 0.288564
0.295466 0.296416 0.298791
0.307206 0.308071 0.310232
0.320164 0.320938 0.322872
0.334315 0.334993 0.336690
0.349627 0.350209 0.351662
0.366068 0.366552 0.367760
0.383600 0.383986 0.384952
0.402184 0.402477 0.403208
0.421782 0.421986 0.422498
0.442352 0.442478 0.442792
0.463663 0.463723 0.463873
0.485337 0.485351 0.485386
0.507291 0.507289 0.507284
0.529519 0.529497 0.529454
0.551955 0.551902 0.551796
0.574534 0.574439 0.574250
0.597194 0.597050 0.596761
0.619881 0.619679 0.619276
0.642544 0.642278 0.641746
0.665134 0.664798 0.664125
0.687607 0.687194 0.686370
0.709918 0.709425 0.708438
0.732026 0.731448 0.730291
0.753892 0.753224 0.751889
0.275297 0.276401 0.279160
0.277237 0.278326 0.281047
0.279424 0.280496 0.283175
0.282546 0.283593 0.286212
0.286711 0.287726 0.290265
0.291980 0.292956 0.295396
0.298399 0.299327 0.301648
0.305997 0.306870 0.309053
0.314793 0.315604 0.317631
0.324793 0.325535 0.327390
0.335993 0.336661 0.338331
0.348383 0.348972 0.350445
0.361942 0.362450 0.363718
0.376648 0.377071 0.378131
0.392471 0.392811 0.393662
0.409379 0.409638 0.410286
0.427339 0.427521 0.427976
0.446313 0.446426 0.446706
0.466023 0.466077 0.466212
0.486206 0.486219 0.486251
0.506784 0.506781 0.506777
0.527738 0.527718 0.527679
0.549003 0.548954 0.548857
0.570507 0.570421 0.570248
0.592188 0.592055 0.591790
0.613986 0.613800 0.613427
0.635846 0.635599 0.635106
0.657715 0.657402 0.656777
0.679545 0.679161 0.678392
0.701289 0.700827 0.699905
0.722901 0.722359 0.721273
0.744340 0.743712 0.742455
0.765562 0.764845 0.763410
0.308349 0.309205 0.311346
0.310183 0.311026 0.313134
0.312250 0.313079 0.315151
0.315204 0.316012 0.318031
0.319147 0.319928 0.321879
0.324141 0.324888 0.326754
0.330232 0.330938 0.332702
0.337453 0.338111 0.339757
0.345825 0.346430 0.347943
0.355359 0.355906 0.357272
0.366057 0.366541 0.367749
0.377913 0.378330 0.379372
0.390914 0.391262 0.392133
0.405041 0.405320 0.406018
0.420271 0.420482 0.421010
0.436577 0.436723 0.437089
0.453885 0.453973 0.454193
0.471889 0.471929 0.472029
0.490469 0.490476 0.490493
0.509549 0.509545 0.509538
0.529108 0.529087 0.529045
0.549073 0.549024 0.548927
0.569371 0.569287 0.569118
0.589938 0.589810 0.589555
0.610712 0.610534 0.610179
0.631635 0.631401 0.630932
0.652652 0.652355 0.651761
0.673709 0.673345 0.672615
0.694758 0.694320 0.693445
0.715750 0.715235 0.714204
0.736639 0.736042 0.734848
0.757381 0.756699 0.755334
0.777933 0.777161 0.775619
0.342350 0.342977 0.344544
0.344087 0.344703 0.346243
0.346048 0.346652 0.348161
0.348849 0.349436 0.350901
0.352593 0.353156 0.354564
0.357337 0.357872 0.359208
0.363130 0.363630 0.364881
0.370005 0.370466 0.371618
0.377987 0.378404 0.379445
0.387090 0.387458 0.388378
0.397321 0.397637 0.398428
0.408677 0.408939 0.409595
0.421151 0.421358 0.421877
0.434728 0.434882 0.435265
0.449380 0.449482 0.449738
0.464895 0.464952 0.465094
0.481142 0.481163 0.481216
0.498044 0.498045 0.498046
0.515552 0.515544 0.515529
0.533624 0.533598 0.533545
0.552186 0.552133 0.552026
0.571169 0.571081 0.570906
0.590508 0.590379 0.590121
0.610140 0.609964 0.609611
0.630006 0.629777 0.629317
0.650049 0.649760 0.649182
0.670213 0.669859 0.669153
0.690446 0.690023 0.689179
0.710698 0.710202 0.709209
0.730920 0.730346 0.729198
0.751066 0.750410 0.749098
0.771089 0.770348 0.768866
0.789041 0.788220 0.786579
0.377258 0.377678 0.378730
0.378909 0.379320 0.380349
0.380773 0.381174 0.382177
0.383436 0.383823 0.384791
0.386998 0.387366 0.388287
0.391515 0.391860 0.392723
0.397035 0.397353 0.398146
0.403593 0.403879 0.404594
0.411215 0.411466 0.412093
0.419919 0.420132 0.420663
0.429714 0.429886 0.430318
0.440601 0.440733 0.441063
0.452547 0.452639 0.452869
0.465402 0.465458 0.465597
0.479101 0.479126 0.479188
0.493582 0.493586 0.493595
0.508786 0.508783 0.508777
0.524686 0.524669 0.524637
0.541212 0.541176 0.541102
0.558301 0.558237 0.558109
0.575887 0.575789 0.575595
0.593907 0.593770 0.593497
0.612300 0.612118 0.611754
0.631007 0.630774 0.630309
0.649969 0.649680 0.649103
0.669131 0.668781 0.668082
0.688439 0.688024 0.687193
0.707840 0.707355 0.706384
0.727285 0.726726 0.725606
0.746725 0.746087 0.744811
0.766112 0.765392 0.763953
0.784727 0.783925 0.782322
0.799615 0.798745 0.797007
0.413034 0.413277 0.413883
0.414607 0.414842 0.415431
0.416382 0.416610 0.417179
0.418920 0.419137 0.419679
0.422316 0.422518 0.423024
0.426625 0.426810 0.427272
0.431894 0.432058 0.432469
0.438160 0.438301 0.438652
0.445449 0.445564 0.445852
0.453740 0.453829 0.454050
0.462990 0.463052 0.463207
0.473174 0.473211 0.473303
0.484257 0.484273 0.484312
0.496197 0.496199 0.496203
0.508953 0.508950 0.508943
0.522499 0.522486 0.522458
0.536780 0.536749 0.536688
0.551737 0.551684 0.551578
0.567313 0.567232 0.567072
0.583449 0.583336 0.583110
0.600088 0.599936 0.599633
0.617169 0.616974 0.616585
0.634636 0.634393 0.633907
0.652431 0.652135 0.651542
0.670499 0.670145 0.669437
0.688786 0.688370 0.687537
0.707239 0.706756 0.705790
0.725807 0.725253 0.724145
0.744439 0.743811 0.742554
0.763087 0.762381 0.760967
0.781704 0.780916 0.779340
0.796270 0.795416 0.793708
0.810588 0.809668 0.807827
0.449629 0.449731 0.449984
0.451121 0.451217 0.451459
0.452802 0.452894 0.453122
0.455202 0.455286 0.455496
0.458403 0.458477 0.458664
0.462451 0.462514 0.462673
0.467379 0.467430 0.467556
0.473208 0.473245 0.473338
0.479948 0.479971 0.480029
0.487596 0.487607 0.487634
0.496141 0.496143 0.496147
0.505566 0.505565 0.505562
0.515861 0.515853 0.515838
0.526994 0.526975 0.526938
0.538924 0.538891 0.538824
0.551611 0.551558 0.551453
0.565008 0.564931 0.564779
0.579064 0.578960 0.578753
0.593730 0.593593 0.593321
0.608951 0.608777 0.608431
0.624674 0.624459 0.624029
0.640844 0.640582 0.640060
0.657407 0.657095 0.656471
0.674309 0.673942 0.673208
0.691497 0.691071 0.690219
0.708918 0.708429 0.707450
0.726522 0.725965 0.724852
0.744258 0.743630 0.742374
0.762076 0.761373 0.759969
0.779927 0.779147 0.777587
0.794344 0.793499 0.791809
0.808169 0.807260 0.805442
0.821908 0.820934 0.818985
0.486087 0.486100 0.486132
0.487456 0.487467 0.487494
0.488999 0.489008 0.489030
0.491202 0.491209 0.491224
0.494143 0.494146 0.494154
0.497864 0.497865 0.497866
0.502398 0.502397 0.502396
0.507771 0.507769 0.507763
0.513997 0.513991 0.513978
0.521080 0.521068 0.521042
0.529015 0.528994 0.528952
0.537788 0.537756 0.537692
0.547382 0.547336 0.547244
0.557769 0.557706 0.557580
0.568918 0.568834 0.568667
0.580792 0.580685 0.580469
0.593352 0.593217 0.592946
0.606554 0.606386 0.606052
0.620350 0.620147 0.619741
0.634694 0.634451 0.633965
0.649536 0.649248 0.648674
0.664824 0.664489 0.663818
0.680509 0.680121 0.679346
0.696539 0.696095 0.695207
0.712864 0.712359 0.711351
0.729433 0.728864 0.727728
0.746196 0.745560 0.744288
0.763104 0.762398 0.760984
0.780109 0.779329 0.777767
0.793876 0.793033 0.791347
0.807139 0.806235 0.804426
0.820365 0.819398 0.817464
0.833517 0.832486 0.830425
0.521828 0.521814 0.521788
0.523090 0.523076 0.523047
0.524515 0.524499 0.524467
0.526550 0.526532 0.526495
0.529268 0.529247 0.529204
0.532712 0.532687 0.532636
0.536913 0.536882 0.536821
0.541895 0.541857 0.541781
0.547670 0.547624 0.547531
0.554246 0.554189 0.554075
0.561620 0.561550 0.561411
0.569784 0.569699 0.569528
0.578721 0.578618 0.578412
0.588412 0.588288 0.588039
0.598828 0.598680 0.598383
0.609939 0.609763 0.609412
0.621710 0.621503 0.621089
0.634101 0.633859 0.633376
0.647071 0.646791 0.646232
0.660576 0.660254 0.659610
0.674571 0.674203 0.673468
0.689009 0.688591 0.687757
0.703842 0.703371 0.702430
0.719023 0.718495 0.717440
0.734503 0.733915 0.732738
0.750235 0.749582 0.748277
0.766169 0.765449 0.764009
0.782258 0.781468 0.779887
0.794880 0.794033 0.792338
0.807523 0.806617 0.804805
0.820174 0.819208 0.817276
0.832798 0.831771 0.829716
0.845357 0.844267 0.842088
0.556961 0.556899 0.556776
0.558129 0.558065 0.557938
0.559447 0.559381 0.559249
0.561330 0.561260 0.561122
0.563846 0.563772 0.563624
0.567035 0.566955 0.566795
0.570927 0.570840 0.570665
0.575546 0.575449 0.575256
0.580905 0.580798 0.580582
0.587013 0.586892 0.586649
0.593868 0.593732 0.593458
0.601466 0.601312 0.601002
0.609795 0.609619 0.609268
0.618835 0.618636 0.618238
0.628566 0.628341 0.627889
0.638960 0.638705 0.638194
0.649986 0.649698 0.649121
0.661610 0.661285 0.660635
0.673794 0.673429 0.672699
0.686498 0.686089 0.685272
0.699681 0.699225 0.698315
0.713300 0.712794 0.711782
0.727310 0.726750 0.725630
0.741665 0.741048 0.739814
0.756322 0.755644 0.754288
0.771232 0.770491 0.769007
0.785467 0.784662 0.783052
0.797350 0.796492 0.794774
0.809322 0.808408 0.806579
0.821346 0.820374 0.818431
0.833386 0.832356 0.830295
0.845405 0.844315 0.842135
0.857367 0.856216 0.853915
0.591439 0.591308 0.591045
0.592520 0.592386 0.592119
0.593740 0.593603 0.593331
0.595484 0.595343 0.595062
0.597814 0.597668 0.597376
0.600770 0.600617 0.600311
0.604379 0.604217 0.603894
0.608665 0.608492 0.608147
0.613641 0.613455 0.613084
0.619316 0.619115 0.618714
0.625692 0.625474 0.625039
0.632765 0.632528 0.632052
0.640527 0.640266 0.639746
0.648962 0.648676 0.648105
0.658051 0.657737 0.657109
0.667771 0.667426 0.666736
0.678095 0.677715 0.676956
0.688992 0.688575 0.687740
0.700428 0.699970 0.699054
0.712368 0.711866 0.710861
0.724773 0.724223 0.723123
0.737604 0.737003 0.735801
0.750818 0.750163 0.748853
0.764373 0.763661 0.762237
0.778227 0.777455 0.775910
0.790121 0.789295 0.787644
0.801255 0.800379 0.798625
0.812517 0.811587 0.809728
0.823870 0.822886 0.820919
0.835279 0.834240 0.832161
0.846709 0.845613 0.843420
0.858123 0.856968 0.854659
0.869484 0.868270 0.865844
0.625223 0.625007 0.624574
0.626225 0.626005 0.625567
0.627355 0.627133 0.626688
0.628971 0.628744 0.628291
0.631132 0.630899 0.630433
0.633873 0.633632 0.633151
0.637222 0.636972 0.636471
0.641200 0.640938 0.640414
0.645823 0.645547 0.644995
0.651098 0.650806 0.650222
0.657030 0.656720 0.656099
0.663616 0.663285 0.662622
0.670850 0.670494 0.669784
0.678718 0.678337 0.677573
0.687206 0.686795 0.685973
0.696293 0.695849 0.694963
0.705954 0.705475 0.704519
0.716163 0.715646 0.714612
0.726889 0.726330 0.725214
0.738099 0.737496 0.736291
0.749759 0.749108 0.747807
0.761831 0.761130 0.759727
0.774277 0.773522 0.772011
0.786016 0.785208 0.783594
0.796183 0.795329 0.793622
0.806544 0.805642 0.803839
0.817066 0.816114 0.814212
0.827715 0.826712 0.824707
0.838456 0.837401 0.835291
0.849256 0.848146 0.845928
0.860077 0.858913 0.856584
0.870885 0.869665 0.867223
0.881642 0.880365 0.877810
0.658281 0.657967 0.657338
0.659210 0.658892 0.658257
0.660258 0.659937 0.659296
0.661757 0.661431 0.660780
0.663761 0.663429 0.662765
0.666305 0.665964 0.665284
0.669413 0.669063 0.668362
0.673108 0.672745 0.672020
0.677403 0.677026 0.676272
0.682308 0.681914 0.681126
0.687827 0.687414 0.686588
0.693960 0.693525 0.692655
0.700700 0.700241 0.699323
0.708039 0.707552 0.706580
0.715962 0.715446 0.714414
0.724451 0.723903 0.722805
0.733487 0.732902 0.731734
0.743043 0.742420 0.741174
0.753093 0.752428 0.751100
0.763607 0.762898 0.761480
0.774552 0.773796 0.772283
0.785112 0.784309 0.782703
0.794215 0.793371 0.791682
0.803569 0.802681 0.800906
0.813143 0.812211 0.810346
0.822907 0.821928 0.819970
0.832829 0.831801 0.829746
0.842875 0.841798 0.839643
0.853013 0.851884 0.849627
0.863207 0.862026 0.859665
0.873423 0.872189 0.869721
0.883625 0.882337 0.879761
0.893775 0.892432 0.889747
0.690581 0.690158 0.689312
0.691442 0.691016 0.690164
0.692414 0.691985 0.691126
0.693805 0.693370 0.692502
0.695665 0.695224 0.694342
0.698025 0.697576 0.696677
0.700912 0.700452 0.699532
0.704343 0.703871 0.702926
0.708335 0.707848 0.706873
0.712895 0.712391 0.711382
0.718030 0.717506 0.716458
0.723739 0.723193 0.722101
0.730017 0.729447 0.728306
0.736859 0.736261 0.735065
0.744250 0.743622 0.742367
0.752176 0.751516 0.750195
0.760619 0.759923 0.758531
0.769556 0.768821 0.767352
0.778962 0.778186 0.776635
0.787379 0.786566 0.784939
0.795359 0.794509 0.792810
0.803634 0.802746 0.800971
0.812178 0.811250 0.809395
0.820964 0.819994 0.818054
0.829962 0.828949 0.826922
0.839143 0.838084 0.835967
0.848476 0.847371 0.845160
