luts/luts/agfa_apx_100_emulation.cube
TITLE "Agfa APX 100 (B&W emulation)"
LUT_3D_SIZE 5
DOMAIN_MIN 0.0 0.0 0.0
DOMAIN_MAX 1.0 1.0 1.0
0.016253 0.020000 0.029368
0.089227 0.092115 0.099334
0.232994 0.234448 0.238081
0.453889 0.453977 0.454197
0.677721 0.677343 0.676587
0.125565 0.128057 0.134286
0.172142 0.174158 0.179199
0.300580 0.301492 0.303773
0.502519 0.502518 0.502518
0.707599 0.707114 0.706145
0.342350 0.342977 0.344544
0.377987 0.378404 0.379445
0.481142 0.481163 0.481216
0.630006 0.629777 0.629317
0.789041 0.788220 0.786579
0.625223 0.625007 0.624574
0.645823 0.645547 0.644995
0.705954 0.705475 0.704519
0.796183 0.795329 0.793622
0.881642 0.880365 0.877810
0.847689 0.846587 0.844384
0.856407 0.855261 0.852970
0.882374 0.881093 0.878530
0.923979 0.922469 0.919449
0.971267 0.969480 0.965908
0.053172 0.056474 0.064729
0.115801 0.118397 0.124887
0.252122 0.253412 0.256639
0.468229 0.468277 0.468399
0.686393 0.685985 0.685169
0.148391 0.150645 0.156279
0.191675 0.193503 0.198073
0.318647 0.319431 0.321391
0.515345 0.515337 0.515322
0.715683 0.715168 0.714138
0.359287 0.359810 0.361118
0.394086 0.394418 0.395248
0.494601 0.494604 0.494611
0.639678 0.639421 0.638905
0.794152 0.793308 0.791619
0.635000 0.634756 0.634268
0.655154 0.654849 0.654240
0.714070 0.713561 0.712543
0.801170 0.800294 0.798541
0.885208 0.883912 0.881319
0.851814 0.850691 0.848447
0.860389 0.859223 0.856890
0.885928 0.884628 0.882027
0.926819 0.925293 0.922241
0.973101 0.971304 0.967709
0.141165 0.143493 0.149314
0.185431 0.187318 0.192037
0.312811 0.313636 0.315698
0.511200 0.511196 0.511186
0.713063 0.712558 0.711548
0.211469 0.213113 0.217225
0.250090 0.251398 0.254667
0.373367 0.373809 0.374914
0.554186 0.554129 0.554015
0.740593 0.739980 0.738754
0.410985 0.411237 0.411866
0.443484 0.443606 0.443910
0.535186 0.535158 0.535101
0.669323 0.668972 0.668272
0.809957 0.809039 0.807205
0.664955 0.664619 0.663947
0.683788 0.683389 0.682591
0.739075 0.738468 0.737254
0.816599 0.815650 0.813753
0.896248 0.894892 0.892180
0.864591 0.863404 0.861028
0.872722 0.871492 0.869032
0.896931 0.895571 0.892852
0.935583 0.934006 0.930854
0.978631 0.976800 0.973138
0.257995 0.259237 0.262343
0.298657 0.299583 0.301899
0.413679 0.413919 0.414518
0.582615 0.582504 0.582281
0.759219 0.758529 0.757149
0.323882 0.324630 0.326501
0.360491 0.361007 0.362296
0.466372 0.466425 0.466558
0.619503 0.619302 0.618900
0.783518 0.782722 0.781130
0.498495 0.498495 0.498496
0.525664 0.525647 0.525612
0.603143 0.602984 0.602666
0.720306 0.719774 0.718708
0.837581 0.836530 0.834428
0.716437 0.715919 0.714883
0.733144 0.732561 0.731395
0.782460 0.781669 0.780086
0.843579 0.842498 0.840337
0.915541 0.914079 0.911154
0.886966 0.885660 0.883049
0.894314 0.892969 0.890278
0.916156 0.914690 0.911758
0.950735 0.949070 0.945742
0.987517 0.985631 0.981861
0.420009 0.420221 0.420752
0.452114 0.452208 0.452442
0.542193 0.542154 0.542078
0.674503 0.674136 0.673401
0.812739 0.811809 0.809948
0.472139 0.472178 0.472276
0.500937 0.500937 0.500937
0.582433 0.582322 0.582100
0.704600 0.704127 0.703180
0.829017 0.828008 0.825991
0.607384 0.607214 0.606876
0.628817 0.628591 0.628138
0.691206 0.690781 0.689931
0.787148 0.786336 0.784711
0.875189 0.873946 0.871459
0.784613 0.783813 0.782211
0.795571 0.794721 0.793019
0.828117 0.827112 0.825103
0.880322 0.879052 0.876511
0.941570 0.939959 0.936738
0.917384 0.915911 0.912965
0.923631 0.922123 0.919107
0.942086 0.940472 0.937245
0.970582 0.968800 0.965236
0.995809 0.993873 0.990000
