luts/luts/bleach_bypass.cube
TITLE "Bleach Bypass"
LUT_3D_SIZE 33
DOMAIN_MIN 0.0 0.0 0.0
DOMAIN_MAX 1.0 1.0 1.0
0.008673 0.014334 0.024375
0.010264 0.014687 0.024731
0.014441 0.015611 0.025658
0.020971 0.017042 0.027095
0.029760 0.018956 0.029012
0.040752 0.021337 0.031390
0.053907 0.024173 0.034219
0.069189 0.027458 0.037488
0.086570 0.031185 0.041191
0.106028 0.035349 0.045322
0.127539 0.039946 0.049875
0.151084 0.044973 0.054848
0.176648 0.050426 0.060236
0.204213 0.056303 0.066036
0.233765 0.062602 0.072247
0.263887 0.069020 0.078571
0.292646 0.075148 0.084604
0.319995 0.080975 0.090339
0.345902 0.086494 0.095769
0.370336 0.091700 0.100889
0.393266 0.096586 0.105694
0.414663 0.101146 0.110177
0.434497 0.105374 0.114333
0.452738 0.109262 0.118155
0.469352 0.112804 0.121637
0.484305 0.115992 0.124770
0.497556 0.118818 0.127547
0.509060 0.121271 0.129958
0.518766 0.123341 0.131993
0.526608 0.125014 0.133637
0.532499 0.126271 0.134872
0.536310 0.127084 0.135671
0.537774 0.127396 0.135978
0.009887 0.016763 0.025573
0.011484 0.017119 0.025929
0.015673 0.018047 0.026858
0.022216 0.019487 0.028297
0.031018 0.021410 0.030216
0.042022 0.023801 0.032598
0.055187 0.026648 0.035430
0.070479 0.029944 0.038703
0.087869 0.033681 0.042409
0.107334 0.037856 0.046543
0.128852 0.042464 0.051101
0.152405 0.047500 0.056076
0.177974 0.052964 0.061468
0.205545 0.058850 0.067272
0.235103 0.065157 0.073486
0.265230 0.071584 0.079813
0.293993 0.077719 0.085850
0.321346 0.083552 0.091587
0.347256 0.089077 0.097020
0.371692 0.094288 0.102143
0.394624 0.099179 0.106950
0.416024 0.103743 0.111435
0.435860 0.107974 0.115592
0.454103 0.111865 0.119416
0.470718 0.115410 0.122899
0.485672 0.118601 0.126034
0.498924 0.121429 0.128812
0.510430 0.123884 0.131224
0.520136 0.125956 0.133260
0.527979 0.127629 0.134904
0.533870 0.128887 0.136140
0.537682 0.129700 0.136939
0.539145 0.130013 0.137246
0.013070 0.023151 0.028702
0.014679 0.023511 0.029059
0.018896 0.024451 0.029992
0.025470 0.025907 0.031436
0.034303 0.027849 0.033362
0.045336 0.030262 0.035751
0.058527 0.033133 0.038591
0.073842 0.036452 0.041872
0.091255 0.040214 0.045587
0.110740 0.044413 0.049730
0.132276 0.049045 0.054296
0.155846 0.054105 0.059281
0.181431 0.059591 0.064681
0.209017 0.065500 0.070494
0.238588 0.071829 0.076718
0.268728 0.078276 0.083054
0.297502 0.084429 0.089098
0.324864 0.090278 0.094843
0.350782 0.095817 0.100282
0.375226 0.101041 0.105411
0.398164 0.105943 0.110223
0.419569 0.110517 0.114713
0.439411 0.114757 0.118875
0.457658 0.118656 0.122703
0.474277 0.122208 0.126190
0.489234 0.125405 0.129328
0.502489 0.128238 0.132109
0.513997 0.130698 0.134524
0.523706 0.132773 0.136561
0.531550 0.134450 0.138208
0.537442 0.135710 0.139444
0.541255 0.136525 0.140244
0.542718 0.136838 0.140552
0.018035 0.033152 0.033560
0.019660 0.033517 0.033920
0.023910 0.034469 0.034857
0.030524 0.035942 0.036308
0.039399 0.037906 0.038242
0.050473 0.040344 0.040641
0.063701 0.043243 0.043492
0.079052 0.046592 0.046785
0.096496 0.050384 0.050513
0.116011 0.054614 0.054668
0.137575 0.059277 0.059247
0.161171 0.064369 0.064245
0.186780 0.069886 0.069659
0.214388 0.075825 0.075486
0.243981 0.082184 0.081722
0.274139 0.088659 0.088072
0.302930 0.094837 0.094128
0.330306 0.100708 0.099883
0.356237 0.106267 0.105333
0.380691 0.111509 0.110470
0.403640 0.116427 0.115291
0.425053 0.121016 0.119789
0.444902 0.125269 0.123958
0.463155 0.129180 0.127792
0.479781 0.132742 0.131285
0.494743 0.135948 0.134428
0.508002 0.138789 0.137213
0.519514 0.141256 0.139632
0.529226 0.143337 0.141673
0.537072 0.145018 0.143321
0.542967 0.146281 0.144560
0.546780 0.147099 0.145362
0.548244 0.147412 0.145669
0.024712 0.046631 0.040064
0.026351 0.047001 0.040426
0.030635 0.047963 0.041368
0.037294 0.049453 0.042827
0.046217 0.051439 0.044770
0.057338 0.053902 0.047181
0.070612 0.056828 0.050045
0.086005 0.060208 0.053352
0.103490 0.064032 0.057094
0.123042 0.068295 0.061265
0.144642 0.072992 0.065860
0.168270 0.078118 0.070875
0.193910 0.083670 0.076305
0.221547 0.089644 0.082149
0.251167 0.096038 0.088403
0.281351 0.102547 0.094768
0.310162 0.108754 0.100840
0.337557 0.114652 0.106609
0.363504 0.120235 0.112072
0.387973 0.125499 0.117221
0.410934 0.130437 0.122053
0.432359 0.135043 0.126561
0.452218 0.139312 0.130739
0.470480 0.143238 0.134582
0.487113 0.146812 0.138081
0.502082 0.150030 0.141231
0.515347 0.152880 0.144023
0.526863 0.155355 0.146446
0.536579 0.157443 0.148491
0.544429 0.159130 0.150144
0.550326 0.160398 0.151385
0.554141 0.161217 0.152188
0.555605 0.161532 0.152496
0.033055 0.063505 0.048163
0.034708 0.063879 0.048527
0.039026 0.064851 0.049475
0.045729 0.066356 0.050941
0.054701 0.068361 0.052895
0.065873 0.070847 0.055318
0.079197 0.073800 0.058196
0.094639 0.077209 0.061518
0.112170 0.081065 0.065276
0.131766 0.085361 0.069465
0.153406 0.090092 0.074078
0.177073 0.095254 0.079111
0.202750 0.100842 0.084561
0.230422 0.106853 0.090424
0.260075 0.113284 0.096698
0.290288 0.119828 0.103084
0.319126 0.126068 0.109174
0.346543 0.131995 0.114960
0.372510 0.137605 0.120438
0.396996 0.142893 0.125602
0.419973 0.147853 0.130447
0.441411 0.152479 0.134967
0.461282 0.156766 0.139156
0.479555 0.160708 0.143009
0.496197 0.164297 0.146518
0.511174 0.167527 0.149676
0.524446 0.170389 0.152474
0.535969 0.172874 0.154904
0.545690 0.174970 0.156954
0.553543 0.176663 0.158611
0.559443 0.177935 0.159855
0.563260 0.178758 0.160661
0.564725 0.179074 0.160970
0.043032 0.083711 0.057824
0.044699 0.084088 0.058189
0.049047 0.085069 0.059142
0.055794 0.086588 0.060616
0.064815 0.088611 0.062581
0.076040 0.091119 0.065016
0.089417 0.094096 0.067909
0.104910 0.097532 0.071247
0.122491 0.101418 0.075023
0.142135 0.105746 0.079230
0.163822 0.110511 0.083863
0.187532 0.115708 0.088917
0.213250 0.121332 0.094388
0.240962 0.127381 0.100273
0.270652 0.133850 0.106570
0.300900 0.140431 0.112978
0.329767 0.146704 0.119089
0.357211 0.152662 0.124894
0.383200 0.158301 0.130390
0.407706 0.163614 0.135571
0.430701 0.168597 0.140431
0.452155 0.173245 0.144965
0.472040 0.177551 0.149167
0.490325 0.181510 0.153032
0.506979 0.185115 0.156551
0.521965 0.188359 0.159719
0.535245 0.191233 0.162526
0.546775 0.193728 0.164963
0.556502 0.195833 0.167020
0.564360 0.197533 0.168681
0.570263 0.198810 0.169929
0.574082 0.199637 0.170737
0.575548 0.199954 0.171047
0.054620 0.107199 0.069021
0.056298 0.107579 0.069388
0.060675 0.108569 0.070347
0.067463 0.110100 0.071829
0.076532 0.112139 0.073804
0.087809 0.114667 0.076252
0.101240 0.117667 0.079159
0.116787 0.121129 0.082514
0.134420 0.125043 0.086308
0.154115 0.129402 0.090535
0.175851 0.134200 0.095189
0.199609 0.139431 0.100264
0.225373 0.145090 0.105759
0.253127 0.151176 0.111668
0.282859 0.157683 0.117990
0.313145 0.164301 0.124423
0.342045 0.170608 0.130557
0.369518 0.176598 0.136384
0.395533 0.182265 0.141900
0.420062 0.187605 0.147099
0.443076 0.192612 0.151976
0.464548 0.197282 0.156526
0.484449 0.201609 0.160743
0.502748 0.205586 0.164621
0.519414 0.209208 0.168153
0.534411 0.212466 0.171332
0.547701 0.215353 0.174148
0.559238 0.217859 0.176594
0.568971 0.219973 0.178658
0.576835 0.221680 0.180325
0.582742 0.222963 0.181577
0.586563 0.223793 0.182388
0.588031 0.224111 0.182699
0.067795 0.133929 0.081737
0.069484 0.134311 0.082106
0.073888 0.135308 0.083070
0.080714 0.136851 0.084560
0.089830 0.138905 0.086546
0.101157 0.141451 0.089007
0.114642 0.144473 0.091929
0.130243 0.147960 0.095301
0.147931 0.151901 0.099114
0.167679 0.156289 0.103361
0.189467 0.161117 0.108037
0.213275 0.166381 0.113136
0.239087 0.172076 0.118655
0.266888 0.178197 0.124590
0.296665 0.184742 0.130940
0.326992 0.191396 0.137399
0.355928 0.197738 0.143558
0.383432 0.203759 0.149409
0.409475 0.209456 0.154947
0.434029 0.214823 0.160166
0.457065 0.219855 0.165063
0.478557 0.224548 0.169631
0.498475 0.228895 0.173865
0.516790 0.232891 0.177758
0.533469 0.236530 0.181303
0.548478 0.239803 0.184494
0.561778 0.242703 0.187322
0.573324 0.245221 0.189777
0.583064 0.247344 0.191848
0.590933 0.249059 0.193522
0.596845 0.250348 0.194779
0.600669 0.251181 0.195593
0.602137 0.251501 0.195905
0.082541 0.163865 0.095958
0.084239 0.164250 0.096330
0.088669 0.165254 0.097299
0.095530 0.166807 0.098797
0.104690 0.168876 0.100794
0.116067 0.171439 0.103268
0.129604 0.174482 0.106206
0.145260 0.177991 0.109595
0.163002 0.181957 0.113428
0.182805 0.186373 0.117696
0.204645 0.191231 0.122395
0.228505 0.196527 0.127518
0.254368 0.202255 0.133063
0.282218 0.208412 0.139026
0.312043 0.214993 0.145404
0.342414 0.221685 0.151893
0.371388 0.228061 0.158079
0.398926 0.234113 0.163956
0.424999 0.239839 0.169518
0.449580 0.245233 0.174760
0.472640 0.250291 0.179678
0.494153 0.255007 0.184266
0.514090 0.259375 0.188518
0.532421 0.263391 0.192428
0.549115 0.267047 0.195988
0.564137 0.270336 0.199193
0.577448 0.273249 0.202033
0.589004 0.275779 0.204499
0.598752 0.277912 0.206579
0.606627 0.279635 0.208260
0.612543 0.280930 0.209523
0.616370 0.281767 0.210340
0.617839 0.282089 0.210654
0.098840 0.196978 0.111678
0.100548 0.197366 0.112051
0.105001 0.198377 0.113026
0.111896 0.199940 0.114532
0.121098 0.202022 0.116540
0.132522 0.204602 0.119028
0.146110 0.207663 0.121981
0.161819 0.211194 0.125388
0.179616 0.215185 0.129241
0.199474 0.219627 0.133531
0.221369 0.224515 0.138254
0.245282 0.229842 0.143403
0.271197 0.235603 0.148976
0.299098 0.241794 0.154968
0.328972 0.248411 0.161377
0.359389 0.255139 0.167897
0.388404 0.261548 0.174113
0.415978 0.267633 0.180018
0.442083 0.273388 0.185606
0.466691 0.278810 0.190873
0.489777 0.283893 0.195815
0.511312 0.288632 0.200424
0.531269 0.293022 0.204696
0.549619 0.297057 0.208625
0.566328 0.300731 0.212203
0.581364 0.304036 0.215423
0.594686 0.306963 0.218277
0.606252 0.309505 0.220754
0.616009 0.311648 0.222845
0.623891 0.313380 0.224534
0.629812 0.314681 0.225803
0.633642 0.315522 0.226624
0.635113 0.315845 0.226939
0.116680 0.233244 0.128889
0.118396 0.233635 0.129265
0.122870 0.234651 0.130244
0.129797 0.236224 0.131760
0.139038 0.238319 0.133778
0.150508 0.240914 0.136280
0.164146 0.243994 0.139249
0.179908 0.247546 0.142676
0.197758 0.251560 0.146549
0.217670 0.256028 0.150863
0.239620 0.260944 0.155610
0.263588 0.266301 0.160787
0.289556 0.272094 0.166389
0.317510 0.278319 0.172412
0.347435 0.284973 0.178855
0.377900 0.291736 0.185409
0.406957 0.298179 0.191656
0.434568 0.304295 0.197591
0.460706 0.310080 0.203209
0.485344 0.315529 0.208504
0.508456 0.320638 0.213471
0.530016 0.325401 0.218104
0.549994 0.329814 0.222399
0.568362 0.333869 0.226349
0.585088 0.337561 0.229946
0.600138 0.340882 0.233183
0.613473 0.343824 0.236053
0.625050 0.346378 0.238544
0.634815 0.348532 0.240646
0.642704 0.350272 0.242345
0.648630 0.351580 0.243621
0.652464 0.352425 0.244447
0.653936 0.352750 0.244764
0.136046 0.272641 0.147590
0.137770 0.273034 0.147968
0.142264 0.274057 0.148954
0.149220 0.275638 0.150478
0.158499 0.277746 0.152508
0.170013 0.280356 0.155024
0.183699 0.283453 0.158011
0.199511 0.287026 0.161456
0.217415 0.291063 0.165352
0.237381 0.295556 0.169689
0.259386 0.300499 0.174464
0.283408 0.305886 0.179670
0.309430 0.311710 0.185303
0.337437 0.317969 0.191360
0.367415 0.324658 0.197838
0.397929 0.331458 0.204429
0.427030 0.337935 0.210712
0.454680 0.344083 0.216680
0.480852 0.349898 0.222330
0.505521 0.355375 0.227655
0.528661 0.360510 0.232651
0.550245 0.365298 0.237312
0.570245 0.369733 0.241632
0.588632 0.373809 0.245606
0.605376 0.377520 0.249225
0.620441 0.380858 0.252483
0.633790 0.383816 0.255370
0.645378 0.386383 0.257878
0.655152 0.388548 0.259993
0.663049 0.390298 0.261703
0.668980 0.391612 0.262988
0.672818 0.392462 0.263819
0.674291 0.392788 0.264138
0.156926 0.315151 0.167784
0.158658 0.315546 0.168165
0.163171 0.316574 0.169156
0.170155 0.318165 0.170689
0.179470 0.320284 0.172732
0.191025 0.322909 0.175263
0.204757 0.326024 0.178267
0.220620 0.329617 0.181733
0.238575 0.333676 0.185652
0.258595 0.338194 0.190016
0.280654 0.343164 0.194819
0.304730 0.348580 0.200056
0.330807 0.354436 0.205723
0.358868 0.360729 0.211816
0.388899 0.367454 0.218334
0.419463 0.374289 0.224965
0.448608 0.380801 0.231287
0.476298 0.386982 0.237293
0.502506 0.392827 0.242979
0.527207 0.398334 0.248339
0.550375 0.403497 0.253368
0.571985 0.408310 0.258061
0.592008 0.412769 0.262412
0.610416 0.416867 0.266413
0.627177 0.420599 0.270059
0.642258 0.423956 0.273342
0.655621 0.426930 0.276252
0.667220 0.429512 0.278779
0.677004 0.431690 0.280912
0.684909 0.433449 0.282637
0.690846 0.434771 0.283932
0.694687 0.435626 0.284771
0.696162 0.435955 0.285093
0.179312 0.360758 0.189478
0.181050 0.361156 0.189860
0.185580 0.362190 0.190858
0.192592 0.363790 0.192401
0.201940 0.365921 0.194456
0.213535 0.368560 0.197003
0.227311 0.371692 0.200027
0.243222 0.375305 0.203515
0.261229 0.379386 0.207459
0.281301 0.383929 0.211851
0.303413 0.388927 0.216685
0.327544 0.394372 0.221956
0.353675 0.400260 0.227660
0.381790 0.406587 0.233794
0.411875 0.413348 0.240356
0.442490 0.420221 0.247032
0.471680 0.426768 0.253399
0.499410 0.432983 0.259449
0.525655 0.438862 0.265177
0.550388 0.444400 0.270579
0.573586 0.449592 0.275650
0.595222 0.454434 0.280383
0.615268 0.458920 0.284772
0.633697 0.463045 0.288813
0.650477 0.466801 0.292497
0.665575 0.470182 0.295818
0.678956 0.473184 0.298771
0.690579 0.475796 0.301337
0.700385 0.478002 0.303503
0.708309 0.479785 0.305253
0.714262 0.481125 0.306569
0.718113 0.481992 0.307419
0.719592 0.482325 0.307746
0.202127 0.407283 0.211646
0.203871 0.407682 0.212031
0.208418 0.408722 0.213035
0.215453 0.410330 0.214588
0.224833 0.412472 0.216657
0.236464 0.415126 0.219221
0.250281 0.418275 0.222265
0.266237 0.421906 0.225776
0.284290 0.426009 0.229746
0.304412 0.430577 0.234168
0.326575 0.435600 0.239035
0.350757 0.441075 0.244342
0.376940 0.446994 0.250087
0.405107 0.453355 0.256265
0.435243 0.460154 0.262876
0.465907 0.467065 0.269605
0.495142 0.473649 0.276024
0.522911 0.479901 0.282127
0.549191 0.485816 0.287910
0.573956 0.491390 0.293369
0.597186 0.496625 0.298507
0.618870 0.501524 0.303314
0.638971 0.506072 0.307770
0.657458 0.510257 0.311869
0.674295 0.514071 0.315602
0.689448 0.517504 0.318961
0.702876 0.520549 0.321939
0.714534 0.523192 0.324523
0.724370 0.525423 0.326704
0.732316 0.527226 0.328465
0.738285 0.528580 0.329789
0.742147 0.529456 0.330645
0.743630 0.529793 0.330973
0.223909 0.451740 0.232877
0.225659 0.452141 0.233265
0.230219 0.453186 0.234275
0.237275 0.454802 0.235838
0.246681 0.456955 0.237921
0.258344 0.459622 0.240501
0.272198 0.462786 0.243565
0.288192 0.466435 0.247100
0.306287 0.470559 0.251097
0.326452 0.475149 0.255549
0.348660 0.480197 0.260450
0.372888 0.485700 0.265797
0.399118 0.491650 0.271585
0.427332 0.498045 0.277813
0.457515 0.504881 0.284480
0.488223 0.511833 0.291273
0.517499 0.518463 0.297769
0.545332 0.524786 0.303963
0.571690 0.530780 0.309829
0.596539 0.536436 0.315359
0.619853 0.541745 0.320547
0.641603 0.546700 0.325385
0.661760 0.551294 0.329869
0.680295 0.555519 0.333990
0.697174 0.559367 0.337743
0.712362 0.562831 0.341120
0.725821 0.565900 0.344112
0.737506 0.568566 0.346709
0.747363 0.570814 0.348900
0.755326 0.572631 0.350670
0.761309 0.573996 0.351999
0.765179 0.574879 0.352859
0.766665 0.575219 0.353189
0.244623 0.494057 0.253140
0.246378 0.494460 0.253530
0.250950 0.495510 0.254548
0.258024 0.497133 0.256121
0.267453 0.499296 0.258217
0.279144 0.501975 0.260815
0.293028 0.505154 0.263900
0.309057 0.508820 0.267460
0.327190 0.512964 0.271486
0.347393 0.517576 0.275971
0.369641 0.522651 0.280911
0.393911 0.528182 0.286303
0.420182 0.534165 0.292145
0.448442 0.540605 0.298448
0.478701 0.547518 0.305211
0.509508 0.554564 0.312096
0.538891 0.561287 0.318659
0.566810 0.567677 0.324893
0.593239 0.573728 0.330792
0.618151 0.579433 0.336351
0.641520 0.584785 0.341563
0.663319 0.589778 0.346424
0.683520 0.594406 0.350927
0.702093 0.598662 0.355067
0.719006 0.602537 0.358836
0.734224 0.606025 0.362226
0.747710 0.609115 0.365230
0.759416 0.611798 0.367838
0.769292 0.614062 0.370037
0.777270 0.615891 0.371814
0.783263 0.617264 0.373148
0.787140 0.618153 0.374012
0.788629 0.618494 0.374343
0.264244 0.534182 0.272416
0.266003 0.534587 0.272809
0.270585 0.535642 0.273834
0.277675 0.537273 0.275418
0.287125 0.539445 0.277530
0.298840 0.542137 0.280147
0.312752 0.545331 0.283256
0.328812 0.549015 0.286845
0.346977 0.553180 0.290907
0.367215 0.557819 0.295437
0.389510 0.562937 0.300443
0.413849 0.568531 0.305909
0.440208 0.574593 0.311825
0.468571 0.581116 0.318188
0.498923 0.588098 0.324992
0.529812 0.595204 0.331912
0.559266 0.601980 0.338506
0.587249 0.608417 0.344768
0.613735 0.614511 0.350692
0.638698 0.620253 0.356273
0.662114 0.625640 0.361506
0.683954 0.630665 0.366385
0.704192 0.635321 0.370905
0.722798 0.639602 0.375059
0.739741 0.643501 0.378841
0.754986 0.647009 0.382244
0.768494 0.650117 0.385258
0.780220 0.652815 0.387874
0.790112 0.655092 0.390081
0.798103 0.656930 0.391863
0.804106 0.658312 0.393202
0.807989 0.659206 0.394068
0.809480 0.659549 0.394401
0.282749 0.572072 0.290696
0.284511 0.572479 0.291093
0.289103 0.573539 0.292126
0.296206 0.575178 0.293726
0.305674 0.577363 0.295860
0.317415 0.580075 0.298511
0.331365 0.583301 0.301661
0.347474 0.587026 0.305297
0.365701 0.591243 0.309409
0.386014 0.595941 0.313988
0.408388 0.601115 0.319029
0.432799 0.606760 0.324524
0.459229 0.612870 0.330470
0.487662 0.619442 0.336861
0.518084 0.626472 0.343693
0.549039 0.633624 0.350641
0.578553 0.640442 0.357260
0.606590 0.646918 0.363545
0.633125 0.653046 0.369489
0.658132 0.658821 0.375089
0.681588 0.664237 0.380339
0.703465 0.669289 0.385234
0.723736 0.673970 0.389768
0.742371 0.678273 0.393935
0.759340 0.682191 0.397729
0.774608 0.685717 0.401142
0.788137 0.688840 0.404165
0.799880 0.691552 0.406789
0.809786 0.693839 0.409002
0.817789 0.695687 0.410790
0.823800 0.697076 0.412132
0.827689 0.697974 0.413001
0.829182 0.698318 0.413334
0.300176 0.607750 0.308020
0.301944 0.608161 0.308421
0.306553 0.609234 0.309466
0.313684 0.610894 0.311083
0.323189 0.613105 0.313236
0.334973 0.615847 0.315905
0.348969 0.619102 0.319073
0.365126 0.622859 0.322728
0.383404 0.627107 0.326859
0.403771 0.631839 0.331459
0.426199 0.637049 0.336521
0.450667 0.642729 0.342038
0.477155 0.648877 0.348006
0.505646 0.655487 0.354419
0.536127 0.662556 0.361276
0.567139 0.669747 0.368246
0.596705 0.676600 0.374886
0.624789 0.683108 0.381190
0.651367 0.689267 0.387152
0.676414 0.695070 0.392768
0.699905 0.700512 0.398033
0.721814 0.705587 0.402942
0.742114 0.710289 0.407489
0.760776 0.714611 0.411667
0.777769 0.718547 0.415471
0.793058 0.722088 0.418893
0.806604 0.725226 0.421924
0.818364 0.727949 0.424555
0.828283 0.730246 0.426773
0.836296 0.732102 0.428566
0.842315 0.733496 0.429912
0.846209 0.734398 0.430783
0.847704 0.734744 0.431117
0.316563 0.641175 0.324269
0.318336 0.641589 0.324672
0.322958 0.642669 0.325721
0.330109 0.644340 0.327344
0.339639 0.646567 0.329507
0.351453 0.649326 0.332186
0.365484 0.652601 0.335367
0.381679 0.656380 0.339035
0.399999 0.660653 0.343181
0.420410 0.665412 0.347797
0.442884 0.670649 0.352875
0.467400 0.676359 0.358410
0.493937 0.682538 0.364396
0.522479 0.689180 0.370829
0.553011 0.696283 0.377705
0.584073 0.703506 0.384695
0.613685 0.710390 0.391354
0.641811 0.716927 0.397674
0.668427 0.723112 0.403652
0.693509 0.728939 0.409282
0.717031 0.734404 0.414561
0.738969 0.739499 0.419481
0.759296 0.744220 0.424039
0.777981 0.748560 0.428228
0.794995 0.752511 0.432040
0.810303 0.756066 0.435470
0.823865 0.759215 0.438508
0.835639 0.761949 0.441145
0.845569 0.764255 0.443369
0.853592 0.766118 0.445165
0.859618 0.767518 0.446515
0.863516 0.768423 0.447387
0.865013 0.768770 0.447722
0.331825 0.672230 0.339365
0.333602 0.672647 0.339770
0.338235 0.673733 0.340823
0.345401 0.675413 0.342451
0.354952 0.677651 0.344621
0.366792 0.680424 0.347309
0.380852 0.683715 0.350499
0.397080 0.687513 0.354178
0.415434 0.691806 0.358336
0.435883 0.696587 0.362965
0.458397 0.701848 0.368058
0.482954 0.707583 0.373608
0.509535 0.713788 0.379610
0.538121 0.720458 0.386060
0.568699 0.727589 0.392953
0.599805 0.734842 0.399960
0.629457 0.741752 0.406634
0.657620 0.748314 0.412969
0.684270 0.754522 0.418961
0.709383 0.760371 0.424604
0.732934 0.765855 0.429894
0.754898 0.770969 0.434825
0.775248 0.775706 0.439393
0.793954 0.780061 0.443590
0.810987 0.784026 0.447411
0.826311 0.787593 0.450848
0.839889 0.790753 0.453892
0.851674 0.793496 0.456534
0.861616 0.795810 0.458763
0.869647 0.797679 0.460563
0.875679 0.799083 0.461915
0.879582 0.799992 0.462789
0.881080 0.800340 0.463125
0.345910 0.700841 0.353273
0.347692 0.701260 0.353678
0.352333 0.702351 0.354734
0.359513 0.704038 0.356367
0.369082 0.706285 0.358543
0.380944 0.709070 0.361238
0.395028 0.712375 0.364436
0.411284 0.716188 0.368125
0.429670 0.720498 0.372293
0.450151 0.725298 0.376934
0.472700 0.730579 0.382038
0.497294 0.736336 0.387601
0.523912 0.742564 0.393617
0.552537 0.749258 0.400081
0.583155 0.756414 0.406989
0.614300 0.763692 0.414011
0.643988 0.770626 0.420699
0.672184 0.777209 0.427047
0.698864 0.783438 0.433051
0.724005 0.789305 0.438705
0.747581 0.794807 0.444005
0.769568 0.799937 0.448946
0.789939 0.804689 0.453522
0.808664 0.809058 0.457727
0.825714 0.813034 0.461555
0.841053 0.816612 0.464999
0.854644 0.819782 0.468049
0.866441 0.822533 0.470696
0.876391 0.824854 0.472928
0.884430 0.826729 0.474731
0.890468 0.828137 0.476086
0.894374 0.829048 0.476962
0.895874 0.829398 0.477298
0.358778 0.726939 0.365958
0.360562 0.727359 0.366364
0.365211 0.728454 0.367422
0.372403 0.730147 0.369059
0.381987 0.732402 0.371239
0.393867 0.735197 0.373940
0.407974 0.738514 0.377146
0.424254 0.742340 0.380842
0.442666 0.746665 0.385020
0.463176 0.751481 0.389670
0.485755 0.756779 0.394785
0.510381 0.762555 0.400359
0.537032 0.768802 0.406387
0.565692 0.775517 0.412864
0.596345 0.782696 0.419785
0.627525 0.789995 0.426820
0.657244 0.796950 0.433520
0.685469 0.803552 0.439879
0.712176 0.809799 0.445894
0.737341 0.815683 0.451558
0.760940 0.821200 0.456867
0.782947 0.826344 0.461816
0.803337 0.831109 0.466400
0.822079 0.835489 0.470612
0.839144 0.839477 0.474446
0.854496 0.843064 0.477895
0.868098 0.846243 0.480950
0.879906 0.849001 0.483601
0.889865 0.851328 0.485837
0.897910 0.853208 0.487643
0.903953 0.854619 0.489000
0.907862 0.855533 0.489877
0.909363 0.855883 0.490214
0.370386 0.750454 0.377387
0.372172 0.750875 0.377794
0.376828 0.751973 0.378854
0.384030 0.753671 0.380494
0.393628 0.755934 0.382678
0.405524 0.758737 0.385384
0.419650 0.762064 0.388596
0.435951 0.765902 0.392299
0.454386 0.770239 0.396485
0.474921 0.775069 0.401143
0.497526 0.780382 0.406267
0.522180 0.786174 0.411851
0.548860 0.792439 0.417889
0.577550 0.799172 0.424376
0.608233 0.806370 0.431309
0.639444 0.813688 0.438355
0.669191 0.820660 0.445066
0.697441 0.827280 0.451436
0.724172 0.833541 0.457459
0.749358 0.839440 0.463131
0.772977 0.844970 0.468449
0.795002 0.850127 0.473405
0.815408 0.854904 0.477995
0.834165 0.859294 0.482214
0.851243 0.863291 0.486054
0.866607 0.866887 0.489507
0.880220 0.870072 0.492566
0.892036 0.872837 0.495221
0.902002 0.875170 0.497461
0.910053 0.877053 0.499269
0.916101 0.878469 0.500628
0.920013 0.879384 0.501506
0.921515 0.879735 0.501844
0.380694 0.771314 0.387524
0.382483 0.771737 0.387932
0.387144 0.772838 0.388994
0.394355 0.774540 0.390637
0.403964 0.776809 0.392825
0.415875 0.779619 0.395535
0.430016 0.782954 0.398752
0.446335 0.786802 0.402461
0.464790 0.791150 0.406653
0.485346 0.795991 0.411319
0.507975 0.801318 0.416451
0.532652 0.807123 0.422043
0.559357 0.813403 0.428089
0.588073 0.820152 0.434586
0.618783 0.827366 0.441529
0.650019 0.834700 0.448584
0.679791 0.841688 0.455305
0.708063 0.848322 0.461682
0.734814 0.854597 0.467714
0.760019 0.860508 0.473394
0.783655 0.866050 0.478718
0.805696 0.871217 0.483681
0.826116 0.876004 0.488277
0.844886 0.880403 0.492500
0.861976 0.884409 0.496345
0.877350 0.888012 0.499803
0.890972 0.891203 0.502866
