luts/luts/bleach_bypass.cube
TITLE "Bleach Bypass"
LUT_3D_SIZE 9
DOMAIN_MIN 0.0 0.0 0.0
DOMAIN_MAX 1.0 1.0 1.0
0.008673 0.014334 0.024375
0.029760 0.018956 0.029012
0.086570 0.031185 0.041191
0.176648 0.050426 0.060236
0.292646 0.075148 0.084604
0.393266 0.096586 0.105694
0.469352 0.112804 0.121637
0.518766 0.123341 0.131993
0.537774 0.127396 0.135978
0.024712 0.046631 0.040064
0.046217 0.051439 0.044770
0.103490 0.064032 0.057094
0.193910 0.083670 0.076305
0.310162 0.108754 0.100840
0.410934 0.130437 0.122053
0.487113 0.146812 0.138081
0.536579 0.157443 0.148491
0.555605 0.161532 0.152496
0.067795 0.133929 0.081737
0.089830 0.138905 0.086546
0.147931 0.151901 0.099114
0.239087 0.172076 0.118655
0.355928 0.197738 0.143558
0.457065 0.219855 0.165063
0.533469 0.236530 0.181303
0.583064 0.247344 0.191848
0.602137 0.251501 0.195905
0.136046 0.272641 0.147590
0.158499 0.277746 0.152508
0.217415 0.291063 0.165352
0.309430 0.311710 0.185303
0.427030 0.337935 0.210712
0.528661 0.360510 0.232651
0.605376 0.377520 0.249225
0.655152 0.388548 0.259993
0.674291 0.392788 0.264138
0.223909 0.451740 0.232877
0.246681 0.456955 0.237921
0.306287 0.470559 0.251097
0.399118 0.491650 0.271585
0.517499 0.518463 0.297769
0.619853 0.541745 0.320547
0.697174 0.559367 0.337743
0.747363 0.570814 0.348900
0.766665 0.575219 0.353189
0.300176 0.607750 0.308020
0.323189 0.613105 0.313236
0.383404 0.627107 0.326859
0.477155 0.648877 0.348006
0.596705 0.676600 0.374886
0.699905 0.700512 0.398033
0.777769 0.718547 0.415471
0.828283 0.730246 0.426773
0.847704 0.734744 0.431117
0.358778 0.726939 0.365958
0.381987 0.732402 0.371239
0.442666 0.746665 0.385020
0.537032 0.768802 0.406387
0.657244 0.796950 0.433520
0.760940 0.821200 0.456867
0.839144 0.839477 0.474446
0.889865 0.851328 0.485837
0.909363 0.855883 0.490214
0.397233 0.804745 0.403769
0.420547 0.810261 0.409083
0.481477 0.824658 0.422945
0.576188 0.846992 0.444431
0.696782 0.875376 0.471705
0.800769 0.899819 0.495166
0.879175 0.918236 0.512827
0.930020 0.930175 0.524270
0.949565 0.934764 0.528666
0.412092 0.834740 0.418344
0.435443 0.840275 0.423669
0.496463 0.854720 0.437559
0.591299 0.877125 0.459088
0.712033 0.905594 0.486413
0.816127 0.930106 0.509915
0.894607 0.948574 0.527607
0.945499 0.960546 0.539068
0.965061 0.965147 0.543472
0.010266 0.015897 0.042736
0.031411 0.020537 0.047445
0.088274 0.032794 0.059767
0.178388 0.052063 0.078964
0.294413 0.076807 0.103468
0.395048 0.098261 0.124649
0.471144 0.114488 0.140649
0.520564 0.125031 0.151039
0.539573 0.129088 0.155036
0.026354 0.048262 0.058629
0.047889 0.053075 0.063379
0.105203 0.065681 0.075800
0.195655 0.085334 0.095127
0.311932 0.110434 0.119775
0.412719 0.132128 0.141067
0.488907 0.148512 0.157146
0.538379 0.159148 0.167587
0.557407 0.163238 0.171603
0.069487 0.135618 0.100587
0.091536 0.140597 0.105419
0.149662 0.153598 0.118042
0.240843 0.173781 0.137657
0.357705 0.199454 0.162639
0.458856 0.221579 0.184203
0.535268 0.238259 0.200484
0.584868 0.249077 0.211054
0.603943 0.253236 0.215120
0.137772 0.274374 0.166683
0.160234 0.279480 0.171615
0.219166 0.292801 0.184492
0.311200 0.313455 0.204493
0.428817 0.339686 0.229959
0.530459 0.362269 0.251944
0.607182 0.379283 0.268551
0.656962 0.390316 0.279341
0.676103 0.394556 0.283493
0.225662 0.453511 0.252171
0.248439 0.458727 0.257224
0.308057 0.472334 0.270427
0.400901 0.493432 0.290954
0.519302 0.520262 0.317199
0.621683 0.543564 0.340015
0.699018 0.561196 0.357236
0.749216 0.572649 0.368408
0.768521 0.577055 0.372703
0.301959 0.609567 0.327469
0.324979 0.614927 0.332693
0.385212 0.628937 0.346337
0.478983 0.650718 0.367512
0.598556 0.678454 0.394427
0.701772 0.702375 0.417601
0.779647 0.720417 0.435058
0.830167 0.732120 0.446372
0.849591 0.736620 0.450720
0.360598 0.728793 0.385487
0.383813 0.734259 0.390775
0.444504 0.748528 0.404573
0.538887 0.770673 0.425964
0.659118 0.798830 0.453126
0.762828 0.823088 0.476496
0.841042 0.841371 0.494093
0.891769 0.853226 0.505494
0.911269 0.857783 0.509875
0.399071 0.806617 0.423343
0.422389 0.812135 0.428663
0.483331 0.826537 0.442540
0.578058 0.848879 0.464048
0.698669 0.877272 0.491349
0.802669 0.901722 0.514831
0.881085 0.920144 0.532509
0.931935 0.932087 0.543961
0.951483 0.936677 0.548362
0.413936 0.836619 0.437934
0.437291 0.842156 0.443265
0.498323 0.856605 0.457170
0.593174 0.879017 0.478719
0.713924 0.907495 0.506070
0.818032 0.932015 0.529594
0.896521 0.950488 0.547301
0.947418 0.962463 0.558772
0.966982 0.967065 0.563180
0.014451 0.019998 0.091411
0.035724 0.024674 0.096207
0.092717 0.036998 0.108729
0.182924 0.056334 0.128175
0.299017 0.081136 0.152933
0.399693 0.102628 0.174294
0.475814 0.118880 0.190415
0.525247 0.129438 0.200878
0.544261 0.133500 0.204902
0.030645 0.052518 0.107573
0.052254 0.057345 0.112392
0.109669 0.069982 0.124974
0.200204 0.089675 0.144512
0.316544 0.114815 0.169381
0.417370 0.136539 0.190835
0.493581 0.152943 0.207025
0.543066 0.163591 0.217533
0.562099 0.167686 0.221574
0.073899 0.140022 0.150023
0.095984 0.145007 0.154900
0.154175 0.158023 0.167633
0.245420 0.178228 0.187400
0.362336 0.203926 0.212553
0.463521 0.226071 0.234248
0.539955 0.242767 0.250621
0.589568 0.253594 0.261247
0.608647 0.257756 0.265335
0.142274 0.278891 0.216622
0.164756 0.284001 0.221584
0.223730 0.297332 0.234539
0.315812 0.318001 0.254651
0.433473 0.344252 0.280249
0.535145 0.366852 0.302341
0.611886 0.383880 0.319026
0.661678 0.394921 0.329866
0.680823 0.399166 0.334038
0.230230 0.458125 0.302568
0.253020 0.463345 0.307646
0.312667 0.476962 0.320910
0.405548 0.498077 0.341534
0.524008 0.524959 0.367928
0.626455 0.548308 0.390833
0.703828 0.565965 0.408114
0.754048 0.577433 0.419322
0.773360 0.581845 0.423631
0.306612 0.614308 0.378241
0.329651 0.619677 0.383485
0.389925 0.633710 0.397178
0.483751 0.655519 0.418424
0.603380 0.683286 0.445420
0.706638 0.707232 0.468660
0.784542 0.725291 0.486164
0.835079 0.737005 0.497508
0.854509 0.741508 0.501868
0.365343 0.733628 0.436454
0.388572 0.739099 0.441758
0.449295 0.753383 0.455596
0.543723 0.775550 0.477046
0.664002 0.803732 0.504279
0.767749 0.828010 0.527707
0.845988 0.846308 0.545345
0.896731 0.858172 0.556773
0.916237 0.862732 0.561164
0.403863 0.811498 0.474419
0.427193 0.817021 0.479753
0.488163 0.831436 0.493666
0.582931 0.853797 0.515228
0.703587 0.882213 0.542595
0.807622 0.906682 0.566131
0.886062 0.925118 0.583847
0.936927 0.937069 0.595324
0.956480 0.941662 0.599734
0.418744 0.841517 0.489048
0.442111 0.847058 0.494393
0.503170 0.861520 0.508333
0.598061 0.883951 0.529936
0.718855 0.912450 0.557350
0.822996 0.936988 0.580926
0.901509 0.955475 0.598671
0.952421 0.967458 0.610166
0.971991 0.972064 0.614583
0.020992 0.026400 0.167815
0.042422 0.031121 0.172678
0.099599 0.043531 0.185366
0.189944 0.062959 0.205044
0.306140 0.087845 0.230061
0.406877 0.109393 0.251621
0.483036 0.125682 0.267880
0.532490 0.136262 0.278428
0.551512 0.140332 0.282484
0.037316 0.059122 0.184195
0.059024 0.063968 0.189074
0.116584 0.076649 0.201806
0.207242 0.096400 0.221555
0.323679 0.121601 0.246663
0.424563 0.143369 0.268303
0.500811 0.159804 0.284623
0.550317 0.170470 0.295211
0.569357 0.174572 0.299283
0.080736 0.146841 0.227121
0.102872 0.151835 0.232046
0.161160 0.164874 0.244898
0.252501 0.185112 0.264838
0.369500 0.210848 0.290192
0.470738 0.233025 0.312049
0.547204 0.249743 0.328536
0.596836 0.260585 0.339236
0.615922 0.264753 0.343350
0.149243 0.285881 0.294293
0.171754 0.290996 0.299292
0.230792 0.304343 0.312341
0.322946 0.325036 0.332593
0.440675 0.351318 0.358361
0.542392 0.373945 0.380595
0.619163 0.390994 0.397387
0.668971 0.402051 0.408296
0.688122 0.406301 0.412496
0.237298 0.465266 0.380825
0.260108 0.470491 0.385934
0.319799 0.484124 0.399282
0.412736 0.505267 0.420042
0.531307 0.532244 0.446644
0.633847 0.555656 0.469668
0.711276 0.573351 0.487029
0.761529 0.584841 0.498286
0.780853 0.589261 0.502614
0.313824 0.621654 0.457013
0.336890 0.627037 0.462284
0.397227 0.641101 0.476043
0.491134 0.662953 0.497384
0.610849 0.690768 0.524493
0.714171 0.714750 0.547824
0.792118 0.732836 0.565394
0.842682 0.744566 0.576779
0.862122 0.749075 0.581153
0.372693 0.741113 0.515491
0.395941 0.746593 0.520817
0.456714 0.760899 0.534709
0.551209 0.783098 0.556242
0.671562 0.811319 0.583574
0.775366 0.835629 0.607082
0.853644 0.853949 0.624779
0.904411 0.865827 0.636243
0.923926 0.870393 0.640648
0.411281 0.819054 0.553605
0.434630 0.824585 0.558958
0.495645 0.839019 0.572922
0.590474 0.861410 0.594561
0.711200 0.889860 0.622019
0.815288 0.914358 0.645631
0.893764 0.932815 0.663402
0.944653 0.944779 0.674914
0.964214 0.949378 0.679337
0.426188 0.849097 0.568288
0.449572 0.854646 0.573652
0.510674 0.869127 0.587642
0.605625 0.891586 0.609318
0.726487 0.920120 0.636823
0.830680 0.944686 0.660472
0.909229 0.963192 0.678271
0.960163 0.975189 0.689800
0.979741 0.979799 0.694229
0.029355 0.034583 0.265569
0.050942 0.039347 0.270484
0.108327 0.051847 0.283304
0.198837 0.071377 0.303176
0.315159 0.096359 0.328422
0.415973 0.117975 0.350166
0.492177 0.134308 0.366556
0.541659 0.144914 0.377187
0.560690 0.148994 0.381274
0.045806 0.067513 0.282121
0.067623 0.072382 0.287049
0.125352 0.085115 0.299906
0.216158 0.104934 0.319839
0.332713 0.130207 0.345165
0.433670 0.152029 0.366982
0.509963 0.168501 0.383429
0.559494 0.179190 0.394097
0.578544 0.183301 0.398199
0.089411 0.155486 0.325455
0.111608 0.160491 0.330423
0.170010 0.173557 0.343385
0.261469 0.193836 0.363488
0.378569 0.219621 0.389039
0.479873 0.241837 0.411058
0.556380 0.258584 0.427664
0.606035 0.269444 0.438438
0.625130 0.273620 0.442582
0.158073 0.294736 0.393170
0.180621 0.299859 0.398207
0.239737 0.313226 0.411351
0.331980 0.333949 0.431748
0.449792 0.360270 0.457696
0.551566 0.382931 0.480083
0.628372 0.400009 0.496993
0.678202 0.411085 0.507983
0.697361 0.415344 0.512215
0.246249 0.474311 0.480314
0.269084 0.479545 0.485460
0.328830 0.493198 0.498902
0.421835 0.514381 0.519823
0.540574 0.541493 0.546651
0.643222 0.564977 0.569801
0.720720 0.582717 0.587249
0.771013 0.594234 0.598561
0.790352 0.598664 0.602908
0.322979 0.630976 0.557078
0.346077 0.636374 0.562378
0.406489 0.650475 0.576208
0.500496 0.672379 0.597654
0.620317 0.700251 0.624887
0.723718 0.724279 0.648319
0.801720 0.742397 0.665961
0.852317 0.754147 0.677392
0.871769 0.758664 0.681784
0.382011 0.750601 0.615845
0.405285 0.756092 0.621195
0.466119 0.770425 0.635148
0.560697 0.792665 0.656772
0.681143 0.820934 0.684214
0.785017 0.845282 0.707813
0.863344 0.863630 0.725575
0.914140 0.875526 0.737082
0.933667 0.880098 0.741502
0.420686 0.828629 0.654124
0.444057 0.834170 0.659500
0.505128 0.848629 0.673520
0.600034 0.871055 0.695244
0.720845 0.899550 0.722806
0.825000 0.924083 0.746503
0.903522 0.942566 0.764336
0.954439 0.954547 0.775887
0.974011 0.959152 0.780325
0.435623 0.858703 0.668867
0.459029 0.864262 0.674253
0.520185 0.878766 0.688298
0.615211 0.901260 0.710057
0.736156 0.929836 0.737663
0.840414 0.954437 0.761396
0.919009 0.972969 0.779256
0.969971 0.984982 0.790823
0.989559 0.989598 0.795267
0.036584 0.041656 0.350016
0.058282 0.046450 0.354964
0.115827 0.059015 0.367867
0.206472 0.078622 0.387865
0.322899 0.103682 0.413263
0.423776 0.125352 0.435133
0.500020 0.141721 0.451615
0.549524 0.152350 0.462304
0.568563 0.156438 0.466413
0.053125 0.074738 0.366676
0.075022 0.079624 0.371636
0.132884 0.092398 0.384574
0.223812 0.112271 0.404628
0.340465 0.137603 0.430103
0.441484 0.159470 0.452042
0.517814 0.175973 0.468579
0.567367 0.186682 0.479305
0.586424 0.190800 0.483429
0.096870 0.162913 0.410277
0.119115 0.167928 0.415275
0.177610 0.181017 0.428311
0.269166 0.201330 0.448528
0.386351 0.227155 0.474219
0.487709 0.249404 0.496354
0.564251 0.266176 0.513046
0.613927 0.277052 0.523877
0.633029 0.281233 0.528042
0.165657 0.302339 0.478372
0.188235 0.307469 0.483435
0.247414 0.320852 0.496648
0.339731 0.341602 0.517152
0.457613 0.367956 0.543233
0.559435 0.390648 0.565739
0.636272 0.407751 0.582742
0.686120 0.418847 0.593800
0.705285 0.423115 0.598062
0.253933 0.482078 0.565971
0.276787 0.487318 0.571144
0.336579 0.500991 0.584662
0.429657 0.522230 0.605739
0.548545 0.549449 0.632707
0.651280 0.572988 0.655951
0.728834 0.590765 0.673465
0.779160 0.602304 0.684817
0.798512 0.606742 0.689180
0.330852 0.638989 0.643178
0.353976 0.644400 0.648499
0.414451 0.658531 0.662383
0.508540 0.680476 0.683907
0.628451 0.708397 0.711235
0.731918 0.732463 0.734743
0.809965 0.750608 0.752441
0.860590 0.762375 0.763907
0.880053 0.766899 0.768313
0.390019 0.758752 0.702162
0.413314 0.764252 0.707530
0.474199 0.778607 0.721530
0.568847 0.800881 0.743223
0.689371 0.829190 0.770750
0.793304 0.853571 0.794419
0.871672 0.871943 0.812232
0.922494 0.883854 0.823770
0.942031 0.888432 0.828203
0.428766 0.836853 0.740567
0.452156 0.842401 0.745959
0.513273 0.856881 0.760024
0.608244 0.879338 0.781813
0.729128 0.907869 0.809454
0.833339 0.932433 0.833218
0.911900 0.950938 0.851099
0.962841 0.962933 0.862681
0.982422 0.967543 0.867131
0.443728 0.866953 0.755356
0.467152 0.872519 0.760758
0.528354 0.887043 0.774846
0.623442 0.909566 0.796670
0.744459 0.938179 0.824353
0.848772 0.962809 0.848151
0.927405 0.981363 0.866058
0.978391 0.993389 0.877656
0.997988 0.998011 0.882112
0.042042 0.046997 0.413721
0.063813 0.051810 0.418689
0.121469 0.064418 0.431645
0.212211 0.084080 0.451723
0.328714 0.109193 0.477219
0.429639 0.130902 0.499171
0.505912 0.147299 0.515714
0.555432 0.157943 0.526442
0.574477 0.162037 0.530566
0.058640 0.080181 0.430449
0.080593 0.085078 0.435429
0.138549 0.097881 0.448418
0.229565 0.117793 0.468551
0.346290 0.143168 0.494122
0.447354 0.165067 0.516142
0.523712 0.181593 0.532739
0.573281 0.192316 0.543503
0.592344 0.196439 0.547642
0.102482 0.168500 0.474221
0.124762 0.173521 0.479237
0.183323 0.186627 0.492323
0.274950 0.206965 0.512614
0.392198 0.232820 0.538398
0.493597 0.255094 0.560612
0.570164 0.271884 0.577364
0.619855 0.282772 0.588233
0.638962 0.286958 0.592412
0.171358 0.308055 0.542566
0.193958 0.313190 0.547647
0.253183 0.326586 0.560907
0.345555 0.347355 0.581483
0.463490 0.373735 0.607657
0.565347 0.396450 0.630246
0.642207 0.413573 0.647319
0.692068 0.424686 0.658431
0.711246 0.428971 0.662725
0.259707 0.487917 0.630480
0.282576 0.493162 0.635673
0.342402 0.506851 0.649247
0.435559 0.528155 0.670440
0.554544 0.555436 0.697494
0.657342 0.579016 0.720801
0.734937 0.596819 0.738360
0.785288 0.608374 0.749741
0.804649 0.612818 0.754114
0.336779 0.645019 0.707994
0.359922 0.650438 0.713330
0.420441 0.664591 0.727250
0.514591 0.686567 0.748828
0.634567 0.714523 0.776221
0.738084 0.738617 0.799783
0.816165 0.756782 0.817519
0.866811 0.768562 0.829009
0.886281 0.773091 0.833424
0.396043 0.764881 0.767127
0.419353 0.770388 0.772507
0.480275 0.784760 0.786539
0.574976 0.807058 0.808281
0.695557 0.835397 0.835866
0.799535 0.859803 0.859584
0.877934 0.878192 0.877432
0.928775 0.890114 0.888994
0.948318 0.894696 0.893435
0.434842 0.843036 0.805619
0.458246 0.848590 0.811023
0.519398 0.863085 0.825118
0.614417 0.885565 0.846952
0.735355 0.914124 0.874650
0.839608 0.938710 0.898459
0.918198 0.957232 0.916375
0.969158 0.969237 0.927978
0.988745 0.973851 0.932436
0.449823 0.873156 0.820441
0.473261 0.878727 0.825854
0.534496 0.893266 0.839971
0.629632 0.915811 0.861839
0.750701 0.944450 0.889578
0.855055 0.969103 0.913421
0.933717 0.987673 0.931361
0.984720 0.999709 0.942981
1.000000 1.000000 0.947444
0.045584 0.050462 0.455036
0.067398 0.055287 0.460016
0.125123 0.067922 0.473002
0.215925 0.087616 0.493127
0.332477 0.112763 0.518682
0.433432 0.134497 0.540682
0.509724 0.150910 0.557262
0.559254 0.161565 0.568013
0.578304 0.165663 0.572146
0.062216 0.083708 0.471803
0.084202 0.088612 0.476795
0.142216 0.101433 0.489814
0.233288 0.121370 0.509993
0.350059 0.146771 0.535622
0.451151 0.168692 0.557691
0.527528 0.185231 0.574324
0.577107 0.195963 0.585111
0.596174 0.200090 0.589259
0.106117 0.172117 0.515677
0.128418 0.177142 0.520704
0.187022 0.190259 0.533819
0.278693 0.210613 0.554155
0.395981 0.236487 0.579994
0.497406 0.258778 0.602256
0.573990 0.275579 0.619044
0.623690 0.286475 0.629937
0.642801 0.290664 0.634126
0.175049 0.311755 0.584171
0.197662 0.316893 0.589263
0.256917 0.330297 0.602552
0.349324 0.351078 0.623172
0.467291 0.377475 0.649404
0.569171 0.400206 0.672045
0.646046 0.417343 0.689162
0.695922 0.428476 0.700319
0.715116 0.432776 0.704627
0.263443 0.491697 0.672279
0.286322 0.496946 0.677485
0.346170 0.510645 0.691096
0.439386 0.531996 0.712359
0.558430 0.559314 0.739464
0.661268 0.582919 0.762811
0.738889 0.600739 0.780397
0.789256 0.612305 0.791795
0.808623 0.616753 0.796175
0.340618 0.648924 0.749983
0.363773 0.654349 0.755327
0.424321 0.668516 0.769270
0.518510 0.690511 0.790881
0.638528 0.718489 0.818313
0.742076 0.742601 0.841908
0.820179 0.760779 0.859668
0.870838 0.772567 0.871173
0.890313 0.777099 0.875594
0.399944 0.768849 0.809207
0.423264 0.774360 0.814595
0.484210 0.788744 0.828646
0.578944 0.811058 0.850417
0.699562 0.839416 0.878039
0.803568 0.863837 0.901786
0.881987 0.882238 0.919657
0.932840 0.894167 0.931232
0.952388 0.898751 0.935679
0.438777 0.847039 0.847752
0.462190 0.852597 0.853164
0.523363 0.867101 0.867277
0.618413 0.889596 0.889139
0.739386 0.918172 0.916871
0.843666 0.942773 0.940709
0.922275 0.961305 0.958645
0.973246 0.973318 0.970262
0.992838 0.977934 0.974725
0.453770 0.877171 0.862593
0.477217 0.882746 0.868014
0.538473 0.897294 0.882149
0.633638 0.919854 0.904045
0.754742 0.948510 0.931817
0.859122 0.973177 0.955688
0.937802 0.991757 0.973649
0.988817 1.000000 0.985281
1.000000 1.000000 0.989750
0.046946 0.051795 0.470917
0.068775 0.056624 0.475901
0.126526 0.069268 0.488899
0.217352 0.088975 0.509041
0.333922 0.114135 0.534617
0.434889 0.135878 0.556636
0.511187 0.152298 0.573229
0.560722 0.162956 0.583989
0.579773 0.167056 0.588125
0.063591 0.085063 0.487698
0.085589 0.089971 0.492694
0.143625 0.102798 0.505725
0.234717 0.122744 0.525921
0.351506 0.148155 0.551571
0.452610 0.170084 0.573658
0.528993 0.186629 0.590304
0.578576 0.197364 0.601100
0.597644 0.201492 0.605251
0.107514 0.173506 0.531609
0.129822 0.178533 0.536641
0.188442 0.191654 0.549766
0.280130 0.212014 0.570119
0.397433 0.237896 0.595979
0.498868 0.260192 0.618259
0.575459 0.276999 0.635060
0.625162 0.287897 0.645962
0.644274 0.292087 0.650154
0.176466 0.313176 0.600159
0.199085 0.318315 0.605255
0.258351 0.331722 0.618555
0.350771 0.352508 0.639191
0.468751 0.378912 0.665445
0.570640 0.401649 0.688106
0.647520 0.418792 0.705241
0.697405 0.429935 0.716415
0.716603 0.434238 0.720727
0.264878 0.493148 0.688340
0.287760 0.498399 0.693551
0.347616 0.512103 0.707176
0.440857 0.533472 0.728466
0.559923 0.560804 0.755589
0.662776 0.584419 0.778950
0.740407 0.602245 0.796547
0.790780 0.613815 0.807951
0.810149 0.618264 0.812333
0.342093 0.650425 0.766115
0.365252 0.655851 0.771462
0.425811 0.670023 0.785413
0.520015 0.692026 0.807037
0.640049 0.720012 0.834484
0.743609 0.744132 0.858090
0.821720 0.762314 0.875859
0.872384 0.774105 0.887370
0.891861 0.778638 0.891793
0.401442 0.770374 0.825372
0.424766 0.775886 0.830763
0.485721 0.790274 0.844822
0.580468 0.812594 0.866604
0.701100 0.840959 0.894239
0.805117 0.865386 0.917998
0.883543 0.883791 0.935877
0.934401 0.895723 0.947457
0.953951 0.900309 0.951906
0.440288 0.848576 0.863937
0.463704 0.854136 0.869352
0.524886 0.868644 0.883472
0.619948 0.891144 0.905344
0.740934 0.919727 0.933089
0.845224 0.944334 0.956938
0.923840 0.962870 0.974882
0.974816 0.974885 0.986504
0.994409 0.979502 0.990968
0.455286 0.878713 0.878786
0.478736 0.884290 0.884209
0.540000 0.898841 0.898351
0.635177 0.921406 0.920257
0.756293 0.950069 0.948042
0.860684 0.974741 0.971924
0.939371 0.993326 0.989892
0.990390 1.000000 1.000000
1.000000 1.000000 1.000000
