luts/luts/bleach_bypass.cube
TITLE "Bleach Bypass"
LUT_3D_SIZE 5
DOMAIN_MIN 0.0 0.0 0.0
DOMAIN_MAX 1.0 1.0 1.0
0.008673 0.014334 0.024375
0.086570 0.031185 0.041191
0.292646 0.075148 0.084604
0.469352 0.112804 0.121637
0.537774 0.127396 0.135978
0.067795 0.133929 0.081737
0.147931 0.151901 0.099114
0.355928 0.197738 0.143558
0.533469 0.236530 0.181303
0.602137 0.251501 0.195905
0.223909 0.451740 0.232877
0.306287 0.470559 0.251097
0.517499 0.518463 0.297769
0.697174 0.559367 0.337743
0.766665 0.575219 0.353189
0.358778 0.726939 0.365958
0.442666 0.746665 0.385020
0.657244 0.796950 0.433520
0.839144 0.839477 0.474446
0.909363 0.855883 0.490214
0.412092 0.834740 0.418344
0.496463 0.854720 0.437559
0.712033 0.905594 0.486413
0.894607 0.948574 0.527607
0.965061 0.965147 0.543472
0.014451 0.019998 0.091411
0.092717 0.036998 0.108729
0.299017 0.081136 0.152933
0.475814 0.118880 0.190415
0.544261 0.133500 0.204902
0.073899 0.140022 0.150023
0.154175 0.158023 0.167633
0.362336 0.203926 0.212553
0.539955 0.242767 0.250621
0.608647 0.257756 0.265335
0.230230 0.458125 0.302568
0.312667 0.476962 0.320910
0.524008 0.524959 0.367928
0.703828 0.565965 0.408114
0.773360 0.581845 0.423631
0.365343 0.733628 0.436454
0.449295 0.753383 0.455596
0.664002 0.803732 0.504279
0.845988 0.846308 0.545345
0.916237 0.862732 0.561164
0.418744 0.841517 0.489048
0.503170 0.861520 0.508333
0.718855 0.912450 0.557350
0.901509 0.955475 0.598671
0.971991 0.972064 0.614583
0.029355 0.034583 0.265569
0.108327 0.051847 0.283304
0.315159 0.096359 0.328422
0.492177 0.134308 0.366556
0.560690 0.148994 0.381274
0.089411 0.155486 0.325455
0.170010 0.173557 0.343385
0.378569 0.219621 0.389039
0.556380 0.258584 0.427664
0.625130 0.273620 0.442582
0.246249 0.474311 0.480314
0.328830 0.493198 0.498902
0.540574 0.541493 0.546651
0.720720 0.582717 0.587249
0.790352 0.598664 0.602908
0.382011 0.750601 0.615845
0.466119 0.770425 0.635148
0.681143 0.820934 0.684214
0.863344 0.863630 0.725575
0.933667 0.880098 0.741502
0.435623 0.858703 0.668867
0.520185 0.878766 0.688298
0.736156 0.929836 0.737663
0.919009 0.972969 0.779256
0.989559 0.989598 0.795267
0.042042 0.046997 0.413721
0.121469 0.064418 0.431645
0.328714 0.109193 0.477219
0.505912 0.147299 0.515714
0.574477 0.162037 0.530566
0.102482 0.168500 0.474221
0.183323 0.186627 0.492323
0.392198 0.232820 0.538398
0.570164 0.271884 0.577364
0.638962 0.286958 0.592412
0.259707 0.487917 0.630480
0.342402 0.506851 0.649247
0.554544 0.555436 0.697494
0.734937 0.596819 0.738360
0.804649 0.612818 0.754114
0.396043 0.764881 0.767127
0.480275 0.784760 0.786539
0.695557 0.835397 0.835866
0.877934 0.878192 0.877432
0.948318 0.894696 0.893435
0.449823 0.873156 0.820441
0.534496 0.893266 0.839971
0.750701 0.944450 0.889578
0.933717 0.987673 0.931361
1.000000 1.000000 0.947444
0.046946 0.051795 0.470917
0.126526 0.069268 0.488899
0.333922 0.114135 0.534617
0.511187 0.152298 0.573229
0.579773 0.167056 0.588125
0.107514 0.173506 0.531609
0.188442 0.191654 0.549766
0.397433 0.237896 0.595979
0.575459 0.276999 0.635060
0.644274 0.292087 0.650154
0.264878 0.493148 0.688340
0.347616 0.512103 0.707176
0.559923 0.560804 0.755589
0.740407 0.602245 0.796547
0.810149 0.618264 0.812333
0.401442 0.770374 0.825372
0.485721 0.790274 0.844822
0.701100 0.840959 0.894239
0.883543 0.883791 0.935877
0.953951 0.900309 0.951906
0.455286 0.878713 0.878786
0.540000 0.898841 0.898351
0.756293 0.950069 0.948042
0.939371 0.993326 0.989892
1.000000 1.000000 1.000000
