luts/luts/bw_red_filter_25.cube
TITLE "B&W Red Filter #25"
LUT_3D_SIZE 9
DOMAIN_MIN 0.0 0.0 0.0
DOMAIN_MAX 1.0 1.0 1.0
0.012000 0.012000 0.012000
0.053677 0.053677 0.053677
0.147339 0.147339 0.147339
0.277746 0.277746 0.277746
0.439128 0.439128 0.439128
0.600608 0.600608 0.600608
0.739978 0.739978 0.739978
0.854813 0.854813 0.854813
0.941278 0.941278 0.941278
0.024166 0.024166 0.024166
0.068831 0.068831 0.068831
0.158921 0.158921 0.158921
0.287078 0.287078 0.287078
0.446754 0.446754 0.446754
0.605654 0.605654 0.605654
0.743355 0.743355 0.743355
0.857009 0.857009 0.857009
0.942552 0.942552 0.942552
0.065518 0.065518 0.065518
0.104045 0.104045 0.104045
0.187214 0.187214 0.187214
0.310338 0.310338 0.310338
0.465528 0.465528 0.465528
0.618199 0.618199 0.618199
0.751787 0.751787 0.751787
0.862497 0.862497 0.862497
0.945723 0.945723 0.945723
0.126512 0.126512 0.126512
0.159332 0.159332 0.159332
0.234337 0.234337 0.234337
0.350278 0.350278 0.350278
0.496943 0.496943 0.496943
0.639559 0.639559 0.639559
0.766267 0.766267 0.766267
0.871939 0.871939 0.871939
0.951132 0.951132 0.951132
0.203758 0.203758 0.203758
0.232158 0.232158 0.232158
0.299455 0.299455 0.299455
0.407309 0.407309 0.407309
0.539933 0.539933 0.539933
0.669485 0.669485 0.669485
0.786791 0.786791 0.786791
0.885349 0.885349 0.885349
0.958690 0.958690 0.958690
0.295361 0.295361 0.295361
0.320382 0.320382 0.320382
0.381006 0.381006 0.381006
0.478456 0.478456 0.478456
0.592061 0.592061 0.592061
0.706748 0.706748 0.706748
0.812685 0.812685 0.812685
0.902269 0.902269 0.902269
0.967943 0.967943 0.967943
0.400048 0.400048 0.400048
0.422437 0.422437 0.422437
0.475346 0.475346 0.475346
0.555009 0.555009 0.555009
0.650266 0.650266 0.650266
0.749448 0.749448 0.749448
0.842725 0.842725 0.842725
0.921806 0.921806 0.921806
0.978035 0.978035 0.978035
0.510654 0.510654 0.510654
0.528049 0.528049 0.528049
0.569096 0.569096 0.569096
0.632808 0.632808 0.632808
0.711426 0.711426 0.711426
0.795329 0.795329 0.795329
0.875279 0.875279 0.875279
0.942666 0.942666 0.942666
0.987606 0.987606 0.987606
0.612762 0.612762 0.612762
0.626134 0.626134 0.626134
0.658103 0.658103 0.658103
0.708751 0.708751 0.708751
0.772647 0.772647 0.772647
0.842010 0.842010 0.842010
0.908428 0.908428 0.908428
0.963168 0.963168 0.963168
0.994350 0.994350 0.994350
0.012194 0.012194 0.012194
0.054876 0.054876 0.054876
0.148240 0.148240 0.148240
0.278468 0.278468 0.278468
0.439720 0.439720 0.439720
0.600998 0.600998 0.600998
0.740239 0.740239 0.740239
0.854983 0.854983 0.854983
0.941377 0.941377 0.941377
0.025524 0.025524 0.025524
0.069961 0.069961 0.069961
0.159800 0.159800 0.159800
0.287791 0.287791 0.287791
0.447335 0.447335 0.447335
0.606040 0.606040 0.606040
0.743613 0.743613 0.743613
0.857176 0.857176 0.857176
0.942649 0.942649 0.942649
0.066662 0.066662 0.066662
0.105051 0.105051 0.105051
0.188046 0.188046 0.188046
0.311031 0.311031 0.311031
0.466082 0.466082 0.466082
0.618571 0.618571 0.618571
0.752038 0.752038 0.752038
0.862660 0.862660 0.862660
0.945817 0.945817 0.945817
0.127459 0.127459 0.127459
0.160211 0.160211 0.160211
0.235105 0.235105 0.235105
0.350940 0.350940 0.350940
0.497455 0.497455 0.497455
0.639910 0.639910 0.639910
0.766506 0.766506 0.766506
0.872096 0.872096 0.872096
0.951221 0.951221 0.951221
0.204565 0.204565 0.204565
0.232929 0.232929 0.232929
0.300157 0.300157 0.300157
0.407933 0.407933 0.407933
0.540391 0.540391 0.540391
0.669808 0.669808 0.669808
0.787014 0.787014 0.787014
0.885495 0.885495 0.885495
0.958771 0.958771 0.958771
0.296067 0.296067 0.296067
0.321066 0.321066 0.321066
0.381647 0.381647 0.381647
0.478992 0.478992 0.478992
0.592460 0.592460 0.592460
0.707037 0.707037 0.707037
0.812887 0.812887 0.812887
0.902401 0.902401 0.902401
0.968014 0.968014 0.968014
0.400676 0.400676 0.400676
0.423052 0.423052 0.423052
0.475886 0.475886 0.475886
0.555449 0.555449 0.555449
0.650607 0.650607 0.650607
0.749701 0.749701 0.749701
0.842904 0.842904 0.842904
0.921922 0.921922 0.921922
0.978092 0.978092 0.978092
0.511147 0.511147 0.511147
0.528521 0.528521 0.528521
0.569521 0.569521 0.569521
0.633166 0.633166 0.633166
0.711711 0.711711 0.711711
0.795545 0.795545 0.795545
0.875433 0.875433 0.875433
0.942763 0.942763 0.942763
0.987646 0.987646 0.987646
0.613140 0.613140 0.613140
0.626499 0.626499 0.626499
0.658437 0.658437 0.658437
0.709039 0.709039 0.709039
0.772882 0.772882 0.772882
0.842189 0.842189 0.842189
0.908556 0.908556 0.908556
0.963244 0.963244 0.963244
0.994365 0.994365 0.994365
0.013509 0.013509 0.013509
0.057903 0.057903 0.057903
0.150527 0.150527 0.150527
0.280303 0.280303 0.280303
0.441222 0.441222 0.441222
0.601991 0.601991 0.601991
0.740902 0.740902 0.740902
0.855414 0.855414 0.855414
0.941627 0.941627 0.941627
0.028960 0.028960 0.028960
0.072813 0.072813 0.072813
0.162030 0.162030 0.162030
0.289603 0.289603 0.289603
0.448809 0.448809 0.448809
0.607019 0.607019 0.607019
0.744269 0.744269 0.744269
0.857603 0.857603 0.857603
0.942896 0.942896 0.942896
0.069550 0.069550 0.069550
0.107598 0.107598 0.107598
0.190157 0.190157 0.190157
0.312791 0.312791 0.312791
0.467488 0.467488 0.467488
0.619518 0.619518 0.619518
0.752677 0.752677 0.752677
0.863076 0.863076 0.863076
0.946057 0.946057 0.946057
0.129859 0.129859 0.129859
0.162439 0.162439 0.162439
0.237057 0.237057 0.237057
0.352622 0.352622 0.352622
0.498753 0.498753 0.498753
0.640803 0.640803 0.640803
0.767115 0.767115 0.767115
0.872493 0.872493 0.872493
0.951447 0.951447 0.951447
0.206615 0.206615 0.206615
0.234886 0.234886 0.234886
0.301941 0.301941 0.301941
0.409520 0.409520 0.409520
0.541554 0.541554 0.541554
0.670629 0.670629 0.670629
0.787580 0.787580 0.787580
0.885865 0.885865 0.885865
0.958978 0.958978 0.958978
0.297860 0.297860 0.297860
0.322805 0.322805 0.322805
0.383275 0.383275 0.383275
0.480353 0.480353 0.480353
0.593476 0.593476 0.593476
0.707773 0.707773 0.707773
0.813402 0.813402 0.813402
0.902737 0.902737 0.902737
0.968193 0.968193 0.968193
0.402274 0.402274 0.402274
0.424616 0.424616 0.424616
0.477258 0.477258 0.477258
0.556568 0.556568 0.556568
0.651474 0.651474 0.651474
0.750345 0.750345 0.750345
0.843359 0.843359 0.843359
0.922216 0.922216 0.922216
0.978237 0.978237 0.978237
0.512401 0.512401 0.512401
0.529720 0.529720 0.529720
0.570599 0.570599 0.570599
0.634075 0.634075 0.634075
0.712437 0.712437 0.712437
0.796095 0.796095 0.796095
0.875823 0.875823 0.875823
0.943010 0.943010 0.943010
0.987748 0.987748 0.987748
0.614101 0.614101 0.614101
0.627425 0.627425 0.627425
0.659285 0.659285 0.659285
0.709770 0.709770 0.709770
0.773477 0.773477 0.773477
0.842646 0.842646 0.842646
0.908879 0.908879 0.908879
0.963438 0.963438 0.963438
0.994403 0.994403 0.994403
0.017736 0.017736 0.017736
0.063209 0.063209 0.063209
0.154576 0.154576 0.154576
0.283563 0.283563 0.283563
0.443888 0.443888 0.443888
0.603754 0.603754 0.603754
0.742082 0.742082 0.742082
0.856181 0.856181 0.856181
0.942072 0.942072 0.942072
0.034977 0.034977 0.034977
0.077829 0.077829 0.077829
0.165982 0.165982 0.165982
0.292824 0.292824 0.292824
0.451424 0.451424 0.451424
0.608759 0.608759 0.608759
0.745436 0.745436 0.745436
0.858363 0.858363 0.858363
0.943336 0.943336 0.943336
0.074624 0.074624 0.074624
0.112095 0.112095 0.112095
0.193901 0.193901 0.193901
0.315921 0.315921 0.315921
0.469982 0.469982 0.469982
0.621200 0.621200 0.621200
0.753812 0.753812 0.753812
0.863816 0.863816 0.863816
0.946482 0.946482 0.946482
0.134104 0.134104 0.134104
0.166388 0.166388 0.166388
0.240522 0.240522 0.240522
0.355613 0.355613 0.355613
0.501058 0.501058 0.501058
0.642389 0.642389 0.642389
0.768197 0.768197 0.768197
0.873199 0.873199 0.873199
0.951849 0.951849 0.951849
0.210253 0.210253 0.210253
0.238363 0.238363 0.238363
0.305113 0.305113 0.305113
0.412344 0.412344 0.412344
0.543621 0.543621 0.543621
0.672088 0.672088 0.672088
0.788588 0.788588 0.788588
0.886524 0.886524 0.886524
0.959344 0.959344 0.959344
0.301048 0.301048 0.301048
0.325899 0.325899 0.325899
0.386172 0.386172 0.386172
0.482768 0.482768 0.482768
0.595279 0.595279 0.595279
0.709081 0.709081 0.709081
0.814317 0.814317 0.814317
0.903334 0.903334 0.903334
0.968512 0.968512 0.968512
0.405118 0.405118 0.405118
0.427395 0.427395 0.427395
0.479692 0.479692 0.479692
0.558556 0.558556 0.558556
0.653014 0.653014 0.653014
0.751489 0.751489 0.751489
0.844168 0.844168 0.844168
0.922740 0.922740 0.922740
0.978495 0.978495 0.978495
0.514628 0.514628 0.514628
0.531851 0.531851 0.531851
0.572516 0.572516 0.572516
0.635692 0.635692 0.635692
0.713726 0.713726 0.713726
0.797072 0.797072 0.797072
0.876518 0.876518 0.876518
0.943449 0.943449 0.943449
0.987928 0.987928 0.987928
0.615808 0.615808 0.615808
0.629071 0.629071 0.629071
0.660792 0.660792 0.660792
0.711070 0.711070 0.711070
0.774536 0.774536 0.774536
0.843458 0.843458 0.843458
0.909453 0.909453 0.909453
0.963782 0.963782 0.963782
0.994468 0.994468 0.994468
0.026765 0.026765 0.026765
0.070991 0.070991 0.070991
0.160604 0.160604 0.160604
0.288443 0.288443 0.288443
0.447866 0.447866 0.447866
0.606392 0.606392 0.606392
0.743849 0.743849 0.743849
0.857330 0.857330 0.857330
0.942738 0.942738 0.942738
0.043738 0.043738 0.043738
0.085214 0.085214 0.085214
0.171871 0.171871 0.171871
0.297647 0.297647 0.297647
0.455327 0.455327 0.455327
0.611361 0.611361 0.611361
0.747184 0.747184 0.747184
0.859500 0.859500 0.859500
0.943993 0.943993 0.943993
0.082091 0.082091 0.082091
0.118760 0.118760 0.118760
0.199488 0.199488 0.199488
0.320610 0.320610 0.320610
0.473708 0.473708 0.473708
0.623717 0.623717 0.623717
0.755513 0.755513 0.755513
0.864925 0.864925 0.864925
0.947120 0.947120 0.947120
0.140413 0.140413 0.140413
0.172272 0.172272 0.172272
0.245703 0.245703 0.245703
0.360096 0.360096 0.360096
0.504502 0.504502 0.504502
0.644764 0.644764 0.644764
0.769818 0.769818 0.769818
0.874258 0.874258 0.874258
0.952450 0.952450 0.952450
0.215686 0.215686 0.215686
0.243561 0.243561 0.243561
0.309862 0.309862 0.309862
0.416579 0.416579 0.416579
0.546709 0.546709 0.546709
0.674272 0.674272 0.674272
0.790097 0.790097 0.790097
0.887511 0.887511 0.887511
0.959892 0.959892 0.959892
0.305821 0.305821 0.305821
0.330533 0.330533 0.330533
0.390516 0.390516 0.390516
0.486375 0.486375 0.486375
0.597978 0.597978 0.597978
0.711039 0.711039 0.711039
0.815688 0.815688 0.815688
0.904229 0.904229 0.904229
0.968988 0.968988 0.968988
0.409382 0.409382 0.409382
0.431541 0.431541 0.431541
0.483327 0.483327 0.483327
0.561528 0.561528 0.561528
0.655319 0.655319 0.655319
0.753203 0.753203 0.753203
0.845381 0.845381 0.845381
0.923523 0.923523 0.923523
0.978880 0.978880 0.978880
0.517955 0.517955 0.517955
0.535034 0.535034 0.535034
0.575381 0.575381 0.575381
0.638111 0.638111 0.638111
0.715657 0.715657 0.715657
0.798535 0.798535 0.798535
0.877559 0.877559 0.877559
0.944106 0.944106 0.944106
0.988195 0.988195 0.988195
0.618362 0.618362 0.618362
0.631535 0.631535 0.631535
0.663047 0.663047 0.663047
0.713017 0.713017 0.713017
0.776122 0.776122 0.776122
0.844674 0.844674 0.844674
0.910313 0.910313 0.910313
0.964296 0.964296 0.964296
0.994561 0.994561 0.994561
0.039128 0.039128 0.039128
0.081313 0.081313 0.081313
0.168751 0.168751 0.168751
0.295088 0.295088 0.295088
0.453258 0.453258 0.453258
0.609981 0.609981 0.609981
0.746257 0.746257 0.746257
0.858896 0.858896 0.858896
0.943644 0.943644 0.943644
0.055219 0.055219 0.055219
0.095060 0.095060 0.095060
0.179838 0.179838 0.179838
0.304216 0.304216 0.304216
0.460619 0.460619 0.460619
0.614902 0.614902 0.614902
0.749566 0.749566 0.749566
0.861050 0.861050 0.861050
0.944889 0.944889 0.944889
0.092036 0.092036 0.092036
0.127718 0.127718 0.127718
0.207065 0.207065 0.207065
0.326999 0.326999 0.326999
0.478761 0.478761 0.478761
0.627141 0.627141 0.627141
0.757831 0.757831 0.757831
0.866436 0.866436 0.866436
0.947987 0.947987 0.947987
0.148919 0.148919 0.148919
0.180233 0.180233 0.180233
0.252746 0.252746 0.252746
0.366212 0.366212 0.366212
0.509178 0.509178 0.509178
0.647996 0.647996 0.647996
0.772026 0.772026 0.772026
0.875700 0.875700 0.875700
0.953268 0.953268 0.953268
0.223061 0.223061 0.223061
0.250626 0.250626 0.250626
0.316334 0.316334 0.316334
0.422362 0.422362 0.422362
0.550907 0.550907 0.550907
0.677245 0.677245 0.677245
0.792154 0.792154 0.792154
0.888855 0.888855 0.888855
0.960637 0.960637 0.960637
0.312324 0.312324 0.312324
0.336850 0.336850 0.336850
0.396445 0.396445 0.396445
0.491270 0.491270 0.491270
0.601648 0.601648 0.601648
0.713707 0.713707 0.713707
0.817557 0.817557 0.817557
0.905448 0.905448 0.905448
0.969635 0.969635 0.969635
0.415204 0.415204 0.415204
0.437159 0.437159 0.437159
0.488260 0.488260 0.488260
0.565567 0.565567 0.565567
0.658458 0.658458 0.658458
0.755538 0.755538 0.755538
0.847034 0.847034 0.847034
0.924591 0.924591 0.924591
0.979401 0.979401 0.979401
0.522473 0.522473 0.522473
0.539360 0.539360 0.539360
0.579277 0.579277 0.579277
0.641403 0.641403 0.641403
0.718288 0.718288 0.718288
0.800530 0.800530 0.800530
0.878977 0.878977 0.878977
0.945000 0.945000 0.945000
0.988555 0.988555 0.988555
0.621837 0.621837 0.621837
0.634887 0.634887 0.634887
0.666117 0.666117 0.666117
0.715669 0.715669 0.715669
0.778283 0.778283 0.778283
0.846332 0.846332 0.846332
0.911485 0.911485 0.911485
0.964995 0.964995 0.964995
0.994677 0.994677 0.994677
0.054173 0.054173 0.054173
0.094155 0.094155 0.094155
0.179100 0.179100 0.179100
0.303605 0.303605 0.303605
0.460129 0.460129 0.460129
0.614574 0.614574 0.614574
0.749345 0.749345 0.749345
0.860906 0.860906 0.860906
0.944806 0.944806 0.944806
0.069298 0.069298 0.069298
0.107376 0.107376 0.107376
0.189972 0.189972 0.189972
0.312638 0.312638 0.312638
0.467365 0.467365 0.467365
0.619435 0.619435 0.619435
0.752621 0.752621 0.752621
0.863040 0.863040 0.863040
0.946036 0.946036 0.946036
0.104461 0.104461 0.104461
0.139021 0.139021 0.139021
0.216726 0.216726 0.216726
0.335198 0.335198 0.335198
0.485206 0.485206 0.485206
0.631526 0.631526 0.631526
0.760804 0.760804 0.760804
0.868375 0.868375 0.868375
0.949098 0.949098 0.949098
0.159695 0.159695 0.159695
0.190360 0.190360 0.190360
0.261755 0.261755 0.261755
0.374068 0.374068 0.374068
0.515146 0.515146 0.515146
0.652136 0.652136 0.652136
0.774860 0.774860 0.774860
0.877552 0.877552 0.877552
0.954315 0.954315 0.954315
0.232477 0.232477 0.232477
0.259662 0.259662 0.259662
0.324635 0.324635 0.324635
0.429779 0.429779 0.429779
0.556271 0.556271 0.556271
0.681056 0.681056 0.681056
0.794794 0.794794 0.794794
0.890581 0.890581 0.890581
0.961590 0.961590 0.961590
0.320664 0.320664 0.320664
0.344958 0.344958 0.344958
0.404067 0.404067 0.404067
0.497515 0.497515 0.497515
0.606345 0.606345 0.606345
0.717127 0.717127 0.717127
0.819955 0.819955 0.819955
0.907011 0.907011 0.907011
0.970462 0.970462 0.970462
0.422691 0.422691 0.422691
0.444312 0.444312 0.444312
0.494552 0.494552 0.494552
0.570732 0.570732 0.570732
0.662478 0.662478 0.662478
0.758534 0.758534 0.758534
0.849155 0.849155 0.849155
0.925961 0.925961 0.925961
0.980065 0.980065 0.980065
0.528244 0.528244 0.528244
0.544886 0.544886 0.544886
0.584260 0.584260 0.584260
0.645619 0.645619 0.645619
0.721660 0.721660 0.721660
0.803089 0.803089 0.803089
0.880797 0.880797 0.880797
0.946146 0.946146 0.946146
0.989008 0.989008 0.989008
0.626285 0.626285 0.626285
0.639180 0.639180 0.639180
0.670051 0.670051 0.670051
0.719069 0.719069 0.719069
0.781056 0.781056 0.781056
0.848460 0.848460 0.848460
0.912989 0.912989 0.912989
0.965889 0.965889 0.965889
0.994805 0.994805 0.994805
0.071632 0.071632 0.071632
0.109440 0.109440 0.109440
0.191687 0.191687 0.191687
0.314070 0.314070 0.314070
0.468507 0.468507 0.468507
0.620205 0.620205 0.620205
0.753141 0.753141 0.753141
0.863379 0.863379 0.863379
0.946231 0.946231 0.946231
0.085824 0.085824 0.085824
0.122113 0.122113 0.122113
0.202315 0.202315 0.202315
0.322990 0.322990 0.322990
0.475593 0.475593 0.475593
0.624993 0.624993 0.624993
0.756377 0.756377 0.756377
0.865487 0.865487 0.865487
0.947443 0.947443 0.947443
0.119313 0.119313 0.119313
0.152670 0.152670 0.152670
0.228528 0.228528 0.228528
0.345286 0.345286 0.345286
0.493074 0.493074 0.493074
0.636904 0.636904 0.636904
0.764459 0.764459 0.764459
0.870759 0.870759 0.870759
0.950460 0.950460 0.950460
0.172761 0.172761 0.172761
0.202694 0.202694 0.202694
0.272798 0.272798 0.272798
0.383747 0.383747 0.383747
0.522441 0.522441 0.522441
0.657216 0.657216 0.657216
0.778345 0.778345 0.778345
0.879828 0.879828 0.879828
0.955599 0.955599 0.955599
0.243994 0.243994 0.243994
0.270737 0.270737 0.270737
0.334843 0.334843 0.334843
0.438817 0.438817 0.438817
0.562838 0.562838 0.562838
0.685734 0.685734 0.685734
0.798040 0.798040 0.798040
0.892703 0.892703 0.892703
0.962757 0.962757 0.962757
0.330920 0.330920 0.330920
0.354937 0.354937 0.354937
0.413464 0.413464 0.413464
0.505143 0.505143 0.505143
0.612102 0.612102 0.612102
0.721330 0.721330 0.721330
0.822905 0.822905 0.822905
0.908934 0.908934 0.908934
0.971471 0.971471 0.971471
0.431886 0.431886 0.431886
0.453028 0.453028 0.453028
0.502237 0.502237 0.502237
0.577056 0.577056 0.577056
0.667412 0.667412 0.667412
0.762217 0.762217 0.762217
0.851765 0.851765 0.851765
0.927643 0.927643 0.927643
0.980872 0.980872 0.980872
0.535300 0.535300 0.535300
0.551648 0.551648 0.551648
0.590364 0.590364 0.590364
0.650792 0.650792 0.650792
0.725804 0.725804 0.725804
0.806237 0.806237 0.806237
0.883035 0.883035 0.883035
0.947552 0.947552 0.947552
0.989553 0.989553 0.989553
0.631740 0.631740 0.631740
0.644446 0.644446 0.644446
0.674880 0.674880 0.674880
0.723246 0.723246 0.723246
0.784466 0.784466 0.784466
0.851078 0.851078 0.851078
0.914836 0.914836 0.914836
0.966982 0.966982 0.966982
0.994927 0.994927 0.994927
0.091315 0.091315 0.091315
0.127065 0.127065 0.127065
0.206510 0.206510 0.206510
0.326531 0.326531 0.326531
0.478391 0.478391 0.478391
0.626890 0.626890 0.626890
0.757661 0.757661 0.757661
0.866325 0.866325 0.866325
0.947923 0.947923 0.947923
0.104646 0.104646 0.104646
0.139190 0.139190 0.139190
0.216872 0.216872 0.216872
0.335322 0.335322 0.335322
0.485303 0.485303 0.485303
0.631592 0.631592 0.631592
0.760849 0.760849 0.760849
0.868404 0.868404 0.868404
0.949114 0.949114 0.949114
0.136507 0.136507 0.136507
0.168627 0.168627 0.168627
0.242491 0.242491 0.242491
0.357315 0.357315 0.357315
0.502368 0.502368 0.502368
0.643291 0.643291 0.643291
0.768812 0.768812 0.768812
0.873601 0.873601 0.873601
0.952078 0.952078 0.952078
0.188100 0.188100 0.188100
0.217241 0.217241 0.217241
0.285914 0.285914 0.285914
0.395306 0.395306 0.395306
0.531070 0.531070 0.531070
0.663253 0.663253 0.663253
0.782495 0.782495 0.782495
0.882541 0.882541 0.882541
0.957122 0.957122 0.957122
0.257641 0.257641 0.257641
0.283889 0.283889 0.283889
0.347012 0.347012 0.347012
0.449461 0.449461 0.449461
0.570618 0.570618 0.570618
0.691299 0.691299 0.691299
0.801907 0.801907 0.801907
0.895231 0.895231 0.895231
0.964140 0.964140 0.964140
0.343142 0.343142 0.343142
0.366843 0.366843 0.366843
0.424698 0.424698 0.424698
0.514158 0.514158 0.514158
0.618934 0.618934 0.618934
0.726331 0.726331 0.726331
0.826420 0.826420 0.826420
0.911222 0.911222 0.911222
0.972665 0.972665 0.972665
0.442715 0.442715 0.442715
0.463301 0.463301 0.463301
0.511319 0.511319 0.511319
0.584553 0.584553 0.584553
0.673278 0.673278 0.673278
0.766603 0.766603 0.766603
0.854874 0.854874 0.854874
0.929644 0.929644 0.929644
0.981821 0.981821 0.981821
0.543651 0.543651 0.543651
0.559656 0.559656 0.559656
0.597604 0.597604 0.597604
0.656939 0.656939 0.656939
0.730737 0.730737 0.730737
0.809988 0.809988 0.809988
0.885702 0.885702 0.885702
0.949221 0.949221 0.949221
0.990182 0.990182 0.990182
0.638219 0.638219 0.638219
0.650702 0.650702 0.650702
0.680622 0.680622 0.680622
0.728218 0.728218 0.728218
0.788528 0.788528 0.788528
0.854197 0.854197 0.854197
0.917036 0.917036 0.917036
0.968276 0.968276 0.968276
0.995000 0.995000 0.995000
