luts/luts/bw_red_filter_25.cube
TITLE "B&W Red Filter #25"
LUT_3D_SIZE 33
DOMAIN_MIN 0.0 0.0 0.0
DOMAIN_MAX 1.0 1.0 1.0
0.012000 0.012000 0.012000
0.015603 0.015603 0.015603
0.024076 0.024076 0.024076
0.037184 0.037184 0.037184
0.053677 0.053677 0.053677
0.073169 0.073169 0.073169
0.095398 0.095398 0.095398
0.120172 0.120172 0.120172
0.147339 0.147339 0.147339
0.176775 0.176775 0.176775
0.208378 0.208378 0.208378
0.242061 0.242061 0.242061
0.277746 0.277746 0.277746
0.315369 0.315369 0.315369
0.354869 0.354869 0.354869
0.396192 0.396192 0.396192
0.439128 0.439128 0.439128
0.481468 0.481468 0.481468
0.522512 0.522512 0.522512
0.562234 0.562234 0.562234
0.600608 0.600608 0.600608
0.637602 0.637602 0.637602
0.673186 0.673186 0.673186
0.707324 0.707324 0.707324
0.739978 0.739978 0.739978
0.771104 0.771104 0.771104
0.800655 0.800655 0.800655
0.828578 0.828578 0.828578
0.854813 0.854813 0.854813
0.879290 0.879290 0.879290
0.901928 0.901928 0.901928
0.922630 0.922630 0.922630
0.941278 0.941278 0.941278
0.012692 0.012692 0.012692
0.017937 0.017937 0.017937
0.027048 0.027048 0.027048
0.040004 0.040004 0.040004
0.056298 0.056298 0.056298
0.075598 0.075598 0.075598
0.097655 0.097655 0.097655
0.122278 0.122278 0.122278
0.149312 0.149312 0.149312
0.178631 0.178631 0.178631
0.210132 0.210132 0.210132
0.243723 0.243723 0.243723
0.279327 0.279327 0.279327
0.316877 0.316877 0.316877
0.356310 0.356310 0.356310
0.397574 0.397574 0.397574
0.440424 0.440424 0.440424
0.482632 0.482632 0.482632
0.523560 0.523560 0.523560
0.563181 0.563181 0.563181
0.601463 0.601463 0.601463
0.638376 0.638376 0.638376
0.673886 0.673886 0.673886
0.707957 0.707957 0.707957
0.740549 0.740549 0.740549
0.771619 0.771619 0.771619
0.801119 0.801119 0.801119
0.828995 0.828995 0.828995
0.855185 0.855185 0.855185
0.879620 0.879620 0.879620
0.902218 0.902218 0.902218
0.922883 0.922883 0.922883
0.941494 0.941494 0.941494
0.014358 0.014358 0.014358
0.021084 0.021084 0.021084
0.030378 0.030378 0.030378
0.043152 0.043152 0.043152
0.059229 0.059229 0.059229
0.078321 0.078321 0.078321
0.100190 0.100190 0.100190
0.124646 0.124646 0.124646
0.151534 0.151534 0.151534
0.180724 0.180724 0.180724
0.212110 0.212110 0.212110
0.245599 0.245599 0.245599
0.281112 0.281112 0.281112
0.318579 0.318579 0.318579
0.357939 0.357939 0.357939
0.399135 0.399135 0.399135
0.441885 0.441885 0.441885
0.483946 0.483946 0.483946
0.524744 0.524744 0.524744
0.564249 0.564249 0.564249
0.602429 0.602429 0.602429
0.639249 0.639249 0.639249
0.674676 0.674676 0.674676
0.708672 0.708672 0.708672
0.741195 0.741195 0.741195
0.772202 0.772202 0.772202
0.801643 0.801643 0.801643
0.829465 0.829465 0.829465
0.855605 0.855605 0.855605
0.879992 0.879992 0.879992
0.902546 0.902546 0.902546
0.923167 0.923167 0.923167
0.941738 0.941738 0.941738
0.017899 0.017899 0.017899
0.025923 0.025923 0.025923
0.035076 0.035076 0.035076
0.047589 0.047589 0.047589
0.063372 0.063372 0.063372
0.082181 0.082181 0.082181
0.103793 0.103793 0.103793
0.128018 0.128018 0.128018
0.154701 0.154701 0.154701
0.183710 0.183710 0.183710
0.214935 0.214935 0.214935
0.248280 0.248280 0.248280
0.283664 0.283664 0.283664
0.321015 0.321015 0.321015
0.360269 0.360269 0.360269
0.401370 0.401370 0.401370
0.443971 0.443971 0.443971
0.485821 0.485821 0.485821
0.526435 0.526435 0.526435
0.565776 0.565776 0.565776
0.603809 0.603809 0.603809
0.640498 0.640498 0.640498
0.675806 0.675806 0.675806
0.709694 0.709694 0.709694
0.742119 0.742119 0.742119
0.773035 0.773035 0.773035
0.802393 0.802393 0.802393
0.830137 0.830137 0.830137
0.856205 0.856205 0.856205
0.880525 0.880525 0.880525
0.903014 0.903014 0.903014
0.923575 0.923575 0.923575
0.942086 0.942086 0.942086
0.024166 0.024166 0.024166
0.032322 0.032322 0.032322
0.041233 0.041233 0.041233
0.053411 0.053411 0.053411
0.068831 0.068831 0.068831
0.087287 0.087287 0.087287
0.108572 0.108572 0.108572
0.132502 0.132502 0.132502
0.158921 0.158921 0.158921
0.187694 0.187694 0.187694
0.218708 0.218708 0.218708
0.251864 0.251864 0.251864
0.287078 0.287078 0.287078
0.324275 0.324275 0.324275
0.363389 0.363389 0.363389
0.404363 0.404363 0.404363
0.446754 0.446754 0.446754
0.488326 0.488326 0.488326
0.528694 0.528694 0.528694
0.567816 0.567816 0.567816
0.605654 0.605654 0.605654
0.642168 0.642168 0.642168
0.677318 0.677318 0.677318
0.711061 0.711061 0.711061
0.743355 0.743355 0.743355
0.774150 0.774150 0.774150
0.803397 0.803397 0.803397
0.831037 0.831037 0.831037
0.857009 0.857009 0.857009
0.881238 0.881238 0.881238
0.903641 0.903641 0.903641
0.924120 0.924120 0.924120
0.942552 0.942552 0.942552
0.032351 0.032351 0.032351
0.040243 0.040243 0.040243
0.048843 0.048843 0.048843
0.060634 0.060634 0.060634
0.075636 0.075636 0.075636
0.093679 0.093679 0.093679
0.114576 0.114576 0.114576
0.138152 0.138152 0.138152
0.164249 0.164249 0.164249
0.192733 0.192733 0.192733
0.223487 0.223487 0.223487
0.256409 0.256409 0.256409
0.291410 0.291410 0.291410
0.328415 0.328415 0.328415
0.367354 0.367354 0.367354
0.408168 0.408168 0.408168
0.450277 0.450277 0.450277
0.491498 0.491498 0.491498
0.531556 0.531556 0.531556
0.570403 0.570403 0.570403
0.607995 0.607995 0.607995
0.644287 0.644287 0.644287
0.679236 0.679236 0.679236
0.712797 0.712797 0.712797
0.744924 0.744924 0.744924
0.775566 0.775566 0.775566
0.804671 0.804671 0.804671
0.832181 0.832181 0.832181
0.858029 0.858029 0.858029
0.882143 0.882143 0.882143
0.904437 0.904437 0.904437
0.924811 0.924811 0.924811
0.943143 0.943143 0.943143
0.042056 0.042056 0.042056
0.049612 0.049612 0.049612
0.057869 0.057869 0.057869
0.069241 0.069241 0.069241
0.083787 0.083787 0.083787
0.101373 0.101373 0.101373
0.121833 0.121833 0.121833
0.145002 0.145002 0.145002
0.170727 0.170727 0.170727
0.198872 0.198872 0.198872
0.229318 0.229318 0.229318
0.261960 0.261960 0.261960
0.296708 0.296708 0.296708
0.333482 0.333482 0.333482
0.372210 0.372210 0.372210
0.412831 0.412831 0.412831
0.454568 0.454568 0.454568
0.495367 0.495367 0.495367
0.535050 0.535050 0.535050
0.573563 0.573563 0.573563
0.610855 0.610855 0.610855
0.646877 0.646877 0.646877
0.681582 0.681582 0.681582
0.714921 0.714921 0.714921
0.746844 0.746844 0.746844
0.777299 0.777299 0.777299
0.806231 0.806231 0.806231
0.833580 0.833580 0.833580
0.859278 0.859278 0.859278
0.883251 0.883251 0.883251
0.905412 0.905412 0.905412
0.925658 0.925658 0.925658
0.943865 0.943865 0.943865
0.053144 0.053144 0.053144
0.060350 0.060350 0.060350
0.068256 0.068256 0.068256
0.079197 0.079197 0.079197
0.093267 0.093267 0.093267
0.110365 0.110365 0.110365
0.130351 0.130351 0.130351
0.153070 0.153070 0.153070
0.178378 0.178378 0.178378
0.206139 0.206139 0.206139
0.236233 0.236233 0.236233
0.268554 0.268554 0.268554
0.303008 0.303008 0.303008
0.339513 0.339513 0.339513
0.377995 0.377995 0.377995
0.418390 0.418390 0.418390
0.459648 0.459648 0.459648
0.499951 0.499951 0.499951
0.539193 0.539193 0.539193
0.577313 0.577313 0.577313
0.614252 0.614252 0.614252
0.649956 0.649956 0.649956
0.684371 0.684371 0.684371
0.717446 0.717446 0.717446
0.749128 0.749128 0.749128
0.779361 0.779361 0.779361
0.808088 0.808088 0.808088
0.835246 0.835246 0.835246
0.860765 0.860765 0.860765
0.884570 0.884570 0.884570
0.906571 0.906571 0.906571
0.926664 0.926664 0.926664
0.944724 0.944724 0.944724
0.065518 0.065518 0.065518
0.072381 0.072381 0.072381
0.079945 0.079945 0.079945
0.090458 0.090458 0.090458
0.104045 0.104045 0.104045
0.120640 0.120640 0.120640
0.140124 0.140124 0.140124
0.162361 0.162361 0.162361
0.187214 0.187214 0.187214
0.214552 0.214552 0.214552
0.244255 0.244255 0.244255
0.276215 0.276215 0.276215
0.310338 0.310338 0.310338
0.346539 0.346539 0.346539
0.384740 0.384740 0.384740
0.424876 0.424876 0.424876
0.465528 0.465528 0.465528
0.505263 0.505263 0.505263
0.544000 0.544000 0.544000
0.581667 0.581667 0.581667
0.618199 0.618199 0.618199
0.653534 0.653534 0.653534
0.687615 0.687615 0.687615
0.720385 0.720385 0.720385
0.751787 0.751787 0.751787
0.781762 0.781762 0.781762
0.810250 0.810250 0.810250
0.837185 0.837185 0.837185
0.862497 0.862497 0.862497
0.886105 0.886105 0.886105
0.907920 0.907920 0.907920
0.927835 0.927835 0.927835
0.945723 0.945723 0.945723
0.079099 0.079099 0.079099
0.085640 0.085640 0.085640
0.092876 0.092876 0.092876
0.102973 0.102973 0.102973
0.116083 0.116083 0.116083
0.132168 0.132168 0.132168
0.151136 0.151136 0.151136
0.172869 0.172869 0.172869
0.197238 0.197238 0.197238
0.224120 0.224120 0.224120
0.253398 0.253398 0.253398
0.284963 0.284963 0.284963
0.318720 0.318720 0.318720
0.354581 0.354581 0.354581
0.392470 0.392470 0.392470
0.432271 0.432271 0.432271
0.472208 0.472208 0.472208
0.511306 0.511306 0.511306
0.549475 0.549475 0.549475
0.586631 0.586631 0.586631
0.622702 0.622702 0.622702
0.657621 0.657621 0.657621
0.691322 0.691322 0.691322
0.723745 0.723745 0.723745
0.754828 0.754828 0.754828
0.784509 0.784509 0.784509
0.812724 0.812724 0.812724
0.839405 0.839405 0.839405
0.864478 0.864478 0.864478
0.887861 0.887861 0.887861
0.909463 0.909463 0.909463
0.929174 0.929174 0.929174
0.946863 0.946863 0.946863
0.093826 0.093826 0.093826
0.100067 0.100067 0.100067
0.106993 0.106993 0.106993
0.116694 0.116694 0.116694
0.129339 0.129339 0.129339
0.144918 0.144918 0.144918
0.163365 0.163365 0.163365
0.184578 0.184578 0.184578
0.208443 0.208443 0.208443
0.234844 0.234844 0.234844
0.263667 0.263667 0.263667
0.294806 0.294806 0.294806
0.328166 0.328166 0.328166
0.363658 0.363658 0.363658
0.401202 0.401202 0.401202
0.440529 0.440529 0.440529
0.479681 0.479681 0.479681
0.518078 0.518078 0.518078
0.555617 0.555617 0.555617
0.592207 0.592207 0.592207
0.627766 0.627766 0.627766
0.662218 0.662218 0.662218
0.695495 0.695495 0.695495
0.727529 0.727529 0.727529
0.758254 0.758254 0.758254
0.787605 0.787605 0.787605
0.815513 0.815513 0.815513
0.841907 0.841907 0.841907
0.866711 0.866711 0.866711
0.889841 0.889841 0.889841
0.911202 0.911202 0.911202
0.930681 0.930681 0.930681
0.948145 0.948145 0.948145
0.109645 0.109645 0.109645
0.115610 0.115610 0.115610
0.122247 0.122247 0.122247
0.131572 0.131572 0.131572
0.143769 0.143769 0.143769
0.158854 0.158854 0.158854
0.176780 0.176780 0.176780
0.197468 0.197468 0.197468
0.220816 0.220816 0.220816
0.246716 0.246716 0.246716
0.275062 0.275062 0.275062
0.305750 0.305750 0.305750
0.338685 0.338685 0.338685
0.373779 0.373779 0.373779
0.410951 0.410951 0.410951
0.449631 0.449631 0.449631
0.487933 0.487933 0.487933
0.525569 0.525569 0.525569
0.562421 0.562421 0.562421
0.598391 0.598391 0.598391
0.633387 0.633387 0.633387
0.667327 0.667327 0.667327
0.700135 0.700135 0.700135
0.731739 0.731739 0.731739
0.762068 0.762068 0.762068
0.791051 0.791051 0.791051
0.818618 0.818618 0.818618
0.844694 0.844694 0.844694
0.869199 0.869199 0.869199
0.892046 0.892046 0.892046
0.913136 0.913136 0.913136
0.932356 0.932356 0.932356
0.949569 0.949569 0.949569
0.126512 0.126512 0.126512
0.132223 0.132223 0.132223
0.138592 0.138592 0.138592
0.147562 0.147562 0.147562
0.159332 0.159332 0.159332
0.173937 0.173937 0.173937
0.191352 0.191352 0.191352
0.211514 0.211514 0.211514
0.234337 0.234337 0.234337
0.259725 0.259725 0.259725
0.287575 0.287575 0.287575
0.317791 0.317791 0.317791
0.350278 0.350278 0.350278
0.384950 0.384950 0.384950
0.421725 0.421725 0.421725
0.459547 0.459547 0.459547
0.496943 0.496943 0.496943
0.533761 0.533761 0.533761
0.569875 0.569875 0.569875
0.605173 0.605173 0.605173
0.639559 0.639559 0.639559
0.672941 0.672941 0.672941
0.705238 0.705238 0.705238
0.736372 0.736372 0.736372
0.766267 0.766267 0.766267
0.794848 0.794848 0.794848
0.822040 0.822040 0.822040
0.847765 0.847765 0.847765
0.871939 0.871939 0.871939
0.894474 0.894474 0.894474
0.915266 0.915266 0.915266
0.934199 0.934199 0.934199
0.951132 0.951132 0.951132
0.144389 0.144389 0.144389
0.149867 0.149867 0.149867
0.155986 0.155986 0.155986
0.164625 0.164625 0.164625
0.175989 0.175989 0.175989
0.190132 0.190132 0.190132
0.207047 0.207047 0.207047
0.226689 0.226689 0.226689
0.248987 0.248987 0.248987
0.273853 0.273853 0.273853
0.301197 0.301197 0.301197
0.330925 0.330925 0.330925
0.362945 0.362945 0.362945
0.397173 0.397173 0.397173
0.433469 0.433469 0.433469
0.470243 0.470243 0.470243
0.506683 0.506683 0.506683
0.542634 0.542634 0.542634
0.577960 0.577960 0.577960
0.612541 0.612541 0.612541
0.646271 0.646271 0.646271
0.679053 0.679053 0.679053
0.710798 0.710798 0.710798
0.741423 0.741423 0.741423
0.770847 0.770847 0.770847
0.798990 0.798990 0.798990
0.825774 0.825774 0.825774
0.851116 0.851116 0.851116
0.874930 0.874930 0.874930
0.897122 0.897122 0.897122
0.917588 0.917588 0.917588
0.936206 0.936206 0.936206
0.952832 0.952832 0.952832
0.163242 0.163242 0.163242
0.168505 0.168505 0.168505
0.174393 0.174393 0.174393
0.182721 0.182721 0.182721
0.193702 0.193702 0.193702
0.207402 0.207402 0.207402
0.223833 0.223833 0.223833
0.242964 0.242964 0.242964
0.264740 0.264740 0.264740
0.289084 0.289084 0.289084
0.315913 0.315913 0.315913
0.345140 0.345140 0.345140
0.376679 0.376679 0.376679
0.410446 0.410446 0.410446
0.446001 0.446001 0.446001
0.481679 0.481679 0.481679
0.517121 0.517121 0.517121
0.552161 0.552161 0.552161
0.586655 0.586655 0.586655
0.620476 0.620476 0.620476
0.653508 0.653508 0.653508
0.685650 0.685650 0.685650
0.716805 0.716805 0.716805
0.746884 0.746884 0.746884
0.775801 0.775801 0.775801
0.803473 0.803473 0.803473
0.829815 0.829815 0.829815
0.854743 0.854743 0.854743
0.878166 0.878166 0.878166
0.899987 0.899987 0.899987
0.920097 0.920097 0.920097
0.938372 0.938372 0.938372
0.954662 0.954662 0.954662
0.183040 0.183040 0.183040
0.188105 0.188105 0.188105
0.193779 0.193779 0.193779
0.201817 0.201817 0.201817
0.212435 0.212435 0.212435
0.225714 0.225714 0.225714
0.241678 0.241678 0.241678
0.260311 0.260311 0.260311
0.281571 0.281571 0.281571
0.305394 0.305394 0.305394
0.331705 0.331705 0.331705
0.360425 0.360425 0.360425
0.391471 0.391471 0.391471
0.424763 0.424763 0.424763
0.459259 0.459259 0.459259
0.493809 0.493809 0.493809
0.528217 0.528217 0.528217
0.562310 0.562310 0.562310
0.595934 0.595934 0.595934
0.628956 0.628956 0.628956
0.661254 0.661254 0.661254
0.692717 0.692717 0.692717
0.723245 0.723245 0.723245
0.752743 0.752743 0.752743
0.781120 0.781120 0.781120
0.808287 0.808287 0.808287
0.834157 0.834157 0.834157
0.858640 0.858640 0.858640
0.881642 0.881642 0.881642
0.903062 0.903062 0.903062
0.922789 0.922789 0.922789
0.940692 0.940692 0.940692
0.956618 0.956618 0.956618
0.203758 0.203758 0.203758
0.208639 0.208639 0.208639
0.214115 0.214115 0.214115
0.221880 0.221880 0.221880
0.232158 0.232158 0.232158
0.245036 0.245036 0.245036
0.260550 0.260550 0.260550
0.278701 0.278701 0.278701
0.299455 0.299455 0.299455
0.322762 0.322762 0.322762
0.348556 0.348556 0.348556
0.376763 0.376763 0.376763
0.407309 0.407309 0.407309
0.439933 0.439933 0.439933
0.473185 0.473185 0.473185
0.506586 0.506586 0.506586
0.539933 0.539933 0.539933
0.573046 0.573046 0.573046
0.605768 0.605768 0.605768
0.637957 0.637957 0.637957
0.669485 0.669485 0.669485
0.700236 0.700236 0.700236
0.730104 0.730104 0.730104
0.758987 0.758987 0.758987
0.786791 0.786791 0.786791
0.813422 0.813422 0.813422
0.838789 0.838789 0.838789
0.862797 0.862797 0.862797
0.885349 0.885349 0.885349
0.906340 0.906340 0.906340
0.925654 0.925654 0.925654
0.943158 0.943158 0.943158
0.958690 0.958690 0.958690
0.225370 0.225370 0.225370
0.230082 0.230082 0.230082
0.235372 0.235372 0.235372
0.242884 0.242884 0.242884
0.252840 0.252840 0.252840
0.265337 0.265337 0.265337
0.280422 0.280422 0.280422
0.298104 0.298104 0.298104
0.318366 0.318366 0.318366
0.341164 0.341164 0.341164
0.366444 0.366444 0.366444
0.394139 0.394139 0.394139
0.424180 0.424180 0.424180
0.455718 0.455718 0.455718
0.487721 0.487721 0.487721
0.519957 0.519957 0.519957
0.552222 0.552222 0.552222
0.584332 0.584332 0.584332
0.616124 0.616124 0.616124
0.647451 0.647451 0.647451
0.678178 0.678178 0.678178
0.708186 0.708186 0.708186
0.737362 0.737362 0.737362
0.765600 0.765600 0.765600
0.792800 0.792800 0.792800
0.818866 0.818866 0.818866
0.843700 0.843700 0.843700
0.867204 0.867204 0.867204
0.889278 0.889278 0.889278
0.909812 0.909812 0.909812
0.928685 0.928685 0.928685
0.945760 0.945760 0.945760
0.960871 0.960871 0.960871
0.247854 0.247854 0.247854
0.252409 0.252409 0.252409
0.257527 0.257527 0.257527
0.264801 0.264801 0.264801
0.274455 0.274455 0.274455
0.286590 0.286590 0.286590
0.301264 0.301264 0.301264
0.318496 0.318496 0.318496
0.338278 0.338278 0.338278
0.360578 0.360578 0.360578
0.385349 0.385349 0.385349
0.412534 0.412534 0.412534
0.441836 0.441836 0.441836
0.472051 0.472051 0.472051
0.502805 0.502805 0.502805
0.533870 0.533870 0.533870
0.565039 0.565039 0.565039
0.596127 0.596127 0.596127
0.626966 0.626966 0.626966
0.657405 0.657405 0.657405
0.687306 0.687306 0.687306
0.716543 0.716543 0.716543
0.744999 0.744999 0.744999
0.772563 0.772563 0.772563
0.799132 0.799132 0.799132
0.824603 0.824603 0.824603
0.848876 0.848876 0.848876
0.871849 0.871849 0.871849
0.893416 0.893416 0.893416
0.913465 0.913465 0.913465
0.931871 0.931871 0.931871
0.948489 0.948489 0.948489
0.963148 0.963148 0.963148
0.271191 0.271191 0.271191
0.275599 0.275599 0.275599
0.280556 0.280556 0.280556
0.287608 0.287608 0.287608
0.296976 0.296976 0.296976
0.308769 0.308769 0.308769
0.323050 0.323050 0.323050
0.339849 0.339849 0.339849
0.359166 0.359166 0.359166
0.380979 0.380979 0.380979
0.405250 0.405250 0.405250
0.431890 0.431890 0.431890
0.459952 0.459952 0.459952
0.488862 0.488862 0.488862
0.518376 0.518376 0.518376
0.548269 0.548269 0.548269
0.578335 0.578335 0.578335
0.608388 0.608388 0.608388
0.638257 0.638257 0.638257
0.667788 0.667788 0.667788
0.696840 0.696840 0.696840
0.725281 0.725281 0.725281
0.752992 0.752992 0.752992
0.779856 0.779856 0.779856
0.805767 0.805767 0.805767
0.830617 0.830617 0.830617
0.854302 0.854302 0.854302
0.876717 0.876717 0.876717
0.897752 0.897752 0.897752
0.917289 0.917289 0.917289
0.935199 0.935199 0.935199
0.951333 0.951333 0.951333
0.965510 0.965510 0.965510
0.295361 0.295361 0.295361
0.299633 0.299633 0.299633
0.304439 0.304439 0.304439
0.311282 0.311282 0.311282
0.320382 0.320382 0.320382
0.331850 0.331850 0.331850
0.345757 0.345757 0.345757
0.362139 0.362139 0.362139
0.381006 0.381006 0.381006
0.402346 0.402346 0.402346
0.426125 0.426125 0.426125
0.451719 0.451719 0.451719
0.478456 0.478456 0.478456
0.506086 0.506086 0.506086
0.534374 0.534374 0.534374
0.563100 0.563100 0.563100
0.592061 0.592061 0.592061
0.621070 0.621070 0.621070
0.649957 0.649957 0.649957
0.678565 0.678565 0.678565
0.706748 0.706748 0.706748
0.734373 0.734373 0.734373
0.761315 0.761315 0.761315
0.787457 0.787457 0.787457
0.812685 0.812685 0.812685
0.836889 0.836889 0.836889
0.859962 0.859962 0.859962
0.881793 0.881793 0.881793
0.902269 0.902269 0.902269
0.921268 0.921268 0.921268
0.938656 0.938656 0.938656
0.954277 0.954277 0.954277
0.967943 0.967943 0.967943
0.320347 0.320347 0.320347
0.324492 0.324492 0.324492
0.329157 0.329157 0.329157
0.335803 0.335803 0.335803
0.344650 0.344650 0.344650
0.355810 0.355810 0.355810
0.369360 0.369360 0.369360
0.385343 0.385343 0.385343
0.403777 0.403777 0.403777
0.424655 0.424655 0.424655
0.447539 0.447539 0.447539
0.471827 0.471827 0.471827
0.497278 0.497278 0.497278
0.523657 0.523657 0.523657
0.550738 0.550738 0.550738
0.578307 0.578307 0.578307
0.606166 0.606166 0.606166
0.634130 0.634130 0.634130
0.662026 0.662026 0.662026
0.689698 0.689698 0.689698
0.716997 0.716997 0.716997
0.743789 0.743789 0.743789
0.769944 0.769944 0.769944
0.795341 0.795341 0.795341
0.819864 0.819864 0.819864
0.843400 0.843400 0.843400
0.865836 0.865836 0.865836
0.887060 0.887060 0.887060
0.906952 0.906952 0.906952
0.925387 0.925387 0.925387
0.942226 0.942226 0.942226
0.957306 0.957306 0.957306
0.970430 0.970430 0.970430
0.346134 0.346134 0.346134
0.350158 0.350158 0.350158
0.354692 0.354692 0.354692
0.361153 0.361153 0.361153
0.369760 0.369760 0.369760
0.380628 0.380628 0.380628
0.393838 0.393838 0.393838
0.409439 0.409439 0.409439
0.427449 0.427449 0.427449
0.447472 0.447472 0.447472
0.469109 0.469109 0.469109
0.492144 0.492144 0.492144
0.516352 0.516352 0.516352
0.541513 0.541513 0.541513
0.567410 0.567410 0.567410
0.593838 0.593838 0.593838
0.620602 0.620602 0.620602
0.647521 0.647521 0.647521
0.674423 0.674423 0.674423
0.701150 0.701150 0.701150
0.727554 0.727554 0.727554
0.753497 0.753497 0.753497
0.778848 0.778848 0.778848
0.803482 0.803482 0.803482
0.827280 0.827280 0.827280
0.850127 0.850127 0.850127
0.871905 0.871905 0.871905
0.892497 0.892497 0.892497
0.911782 0.911782 0.911782
0.929629 0.929629 0.929629
0.945892 0.945892 0.945892
0.960403 0.960403 0.960403
0.972955 0.972955 0.972955
0.372705 0.372705 0.372705
0.376618 0.376618 0.376618
0.381027 0.381027 0.381027
0.387314 0.387314 0.387314
0.395695 0.395695 0.395695
0.406286 0.406286 0.406286
0.419172 0.419172 0.419172
0.434334 0.434334 0.434334
0.451444 0.451444 0.451444
0.470318 0.470318 0.470318
0.490771 0.490771 0.490771
0.512606 0.512606 0.512606
0.535616 0.535616 0.535616
0.559593 0.559593 0.559593
0.584332 0.584332 0.584332
0.609637 0.609637 0.609637
0.635318 0.635318 0.635318
0.661197 0.661197 0.661197
0.687104 0.687104 0.687104
0.712883 0.712883 0.712883
0.738383 0.738383 0.738383
0.763466 0.763466 0.763466
0.787998 0.787998 0.787998
0.811854 0.811854 0.811854
0.834910 0.834910 0.834910
0.857047 0.857047 0.857047
0.878146 0.878146 0.878146
0.898086 0.898086 0.898086
0.916741 0.916741 0.916741
0.933974 0.933974 0.933974
0.949637 0.949637 0.949637
0.963551 0.963551 0.963551
0.975497 0.975497 0.975497
0.400048 0.400048 0.400048
0.403855 0.403855 0.403855
0.408147 0.408147 0.408147
0.414270 0.414270 0.414270
0.422437 0.422437 0.422437
0.432716 0.432716 0.432716
0.445013 0.445013 0.445013
0.459259 0.459259 0.459259
0.475346 0.475346 0.475346
0.493136 0.493136 0.493136
0.512465 0.512465 0.512465
0.533153 0.533153 0.533153
0.555009 0.555009 0.555009
0.577839 0.577839 0.577839
0.601451 0.601451 0.601451
0.625654 0.625654 0.625654
0.650266 0.650266 0.650266
0.675113 0.675113 0.675113
0.700029 0.700029 0.700029
0.724857 0.724857 0.724857
0.749448 0.749448 0.749448
0.773662 0.773662 0.773662
0.797365 0.797365 0.797365
0.820427 0.820427 0.820427
0.842725 0.842725 0.842725
0.864135 0.864135 0.864135
0.884536 0.884536 0.884536
0.903803 0.903803 0.903803
0.921806 0.921806 0.921806
0.938403 0.938403 0.938403
0.953439 0.953439 0.953439
0.966727 0.966727 0.966727
0.978035 0.978035 0.978035
0.428140 0.428140 0.428140
0.431818 0.431818 0.431818
0.435939 0.435939 0.435939
0.441775 0.441775 0.441775
0.449478 0.449478 0.449478
0.459091 0.459091 0.459091
0.470608 0.470608 0.470608
0.483976 0.483976 0.483976
0.499105 0.499105 0.499105
0.515873 0.515873 0.515873
0.534136 0.534136 0.534136
0.553728 0.553728 0.553728
0.574476 0.574476 0.574476
0.596198 0.596198 0.596198
0.618711 0.618711 0.618711
0.641837 0.641837 0.641837
0.665397 0.665397 0.665397
0.689224 0.689224 0.689224
0.713155 0.713155 0.713155
0.737033 0.737033 0.737033
0.760712 0.760712 0.760712
0.784051 0.784051 0.784051
0.806915 0.806915 0.806915
0.829173 0.829173 0.829173
0.850698 0.850698 0.850698
0.871367 0.871367 0.871367
0.891052 0.891052 0.891052
0.909627 0.909627 0.909627
0.926956 0.926956 0.926956
0.942894 0.942894 0.942894
0.957276 0.957276 0.957276
0.969909 0.969909 0.969909
0.980544 0.980544 0.980544
0.456195 0.456195 0.456195
0.459623 0.459623 0.459623
0.463466 0.463466 0.463466
0.468912 0.468912 0.468912
0.476109 0.476109 0.476109
0.485104 0.485104 0.485104
0.495896 0.495896 0.495896
0.508445 0.508445 0.508445
0.522676 0.522676 0.522676
0.538482 0.538482 0.538482
0.555732 0.555732 0.555732
0.574280 0.574280 0.574280
0.593964 0.593964 0.593964
0.614615 0.614615 0.614615
0.636063 0.636063 0.636063
0.658136 0.658136 0.658136
0.680665 0.680665 0.680665
0.703485 0.703485 0.703485
0.726438 0.726438 0.726438
0.749372 0.749372 0.749372
0.772139 0.772139 0.772139
0.794599 0.794599 0.794599
0.816617 0.816617 0.816617
0.838061 0.838061 0.838061
0.858802 0.858802 0.858802
0.878713 0.878713 0.878713
0.897667 0.897667 0.897667
