luts/luts/bw_red_filter_25.cube
TITLE "B&W Red Filter #25"
LUT_3D_SIZE 5
DOMAIN_MIN 0.0 0.0 0.0
DOMAIN_MAX 1.0 1.0 1.0
0.012000 0.012000 0.012000
0.147339 0.147339 0.147339
0.439128 0.439128 0.439128
0.739978 0.739978 0.739978
0.941278 0.941278 0.941278
0.065518 0.065518 0.065518
0.187214 0.187214 0.187214
0.465528 0.465528 0.465528
0.751787 0.751787 0.751787
0.945723 0.945723 0.945723
0.203758 0.203758 0.203758
0.299455 0.299455 0.299455
0.539933 0.539933 0.539933
0.786791 0.786791 0.786791
0.958690 0.958690 0.958690
0.400048 0.400048 0.400048
0.475346 0.475346 0.475346
0.650266 0.650266 0.650266
0.842725 0.842725 0.842725
0.978035 0.978035 0.978035
0.612762 0.612762 0.612762
0.658103 0.658103 0.658103
0.772647 0.772647 0.772647
0.908428 0.908428 0.908428
0.994350 0.994350 0.994350
0.013509 0.013509 0.013509
0.150527 0.150527 0.150527
0.441222 0.441222 0.441222
0.740902 0.740902 0.740902
0.941627 0.941627 0.941627
0.069550 0.069550 0.069550
0.190157 0.190157 0.190157
0.467488 0.467488 0.467488
0.752677 0.752677 0.752677
0.946057 0.946057 0.946057
0.206615 0.206615 0.206615
0.301941 0.301941 0.301941
0.541554 0.541554 0.541554
0.787580 0.787580 0.787580
0.958978 0.958978 0.958978
0.402274 0.402274 0.402274
0.477258 0.477258 0.477258
0.651474 0.651474 0.651474
0.843359 0.843359 0.843359
0.978237 0.978237 0.978237
0.614101 0.614101 0.614101
0.659285 0.659285 0.659285
0.773477 0.773477 0.773477
0.908879 0.908879 0.908879
0.994403 0.994403 0.994403
0.026765 0.026765 0.026765
0.160604 0.160604 0.160604
0.447866 0.447866 0.447866
0.743849 0.743849 0.743849
0.942738 0.942738 0.942738
0.082091 0.082091 0.082091
0.199488 0.199488 0.199488
0.473708 0.473708 0.473708
0.755513 0.755513 0.755513
0.947120 0.947120 0.947120
0.215686 0.215686 0.215686
0.309862 0.309862 0.309862
0.546709 0.546709 0.546709
0.790097 0.790097 0.790097
0.959892 0.959892 0.959892
0.409382 0.409382 0.409382
0.483327 0.483327 0.483327
0.655319 0.655319 0.655319
0.845381 0.845381 0.845381
0.978880 0.978880 0.978880
0.618362 0.618362 0.618362
0.663047 0.663047 0.663047
0.776122 0.776122 0.776122
0.910313 0.910313 0.910313
0.994561 0.994561 0.994561
0.054173 0.054173 0.054173
0.179100 0.179100 0.179100
0.460129 0.460129 0.460129
0.749345 0.749345 0.749345
0.944806 0.944806 0.944806
0.104461 0.104461 0.104461
0.216726 0.216726 0.216726
0.485206 0.485206 0.485206
0.760804 0.760804 0.760804
0.949098 0.949098 0.949098
0.232477 0.232477 0.232477
0.324635 0.324635 0.324635
0.556271 0.556271 0.556271
0.794794 0.794794 0.794794
0.961590 0.961590 0.961590
0.422691 0.422691 0.422691
0.494552 0.494552 0.494552
0.662478 0.662478 0.662478
0.849155 0.849155 0.849155
0.980065 0.980065 0.980065
0.626285 0.626285 0.626285
0.670051 0.670051 0.670051
0.781056 0.781056 0.781056
0.912989 0.912989 0.912989
0.994805 0.994805 0.994805
0.091315 0.091315 0.091315
0.206510 0.206510 0.206510
0.478391 0.478391 0.478391
0.757661 0.757661 0.757661
0.947923 0.947923 0.947923
0.136507 0.136507 0.136507
0.242491 0.242491 0.242491
0.502368 0.502368 0.502368
0.768812 0.768812 0.768812
0.952078 0.952078 0.952078
0.257641 0.257641 0.257641
0.347012 0.347012 0.347012
0.570618 0.570618 0.570618
0.801907 0.801907 0.801907
0.964140 0.964140 0.964140
0.442715 0.442715 0.442715
0.511319 0.511319 0.511319
0.673278 0.673278 0.673278
0.854874 0.854874 0.854874
0.981821 0.981821 0.981821
0.638219 0.638219 0.638219
0.680622 0.680622 0.680622
0.788528 0.788528 0.788528
0.917036 0.917036 0.917036
0.995000 0.995000 0.995000
