luts/luts/cineon_log_to_rec709.cube
TITLE "Cineon Log to Rec.709"
LUT_3D_SIZE 9
DOMAIN_MIN 0.0 0.0 0.0
DOMAIN_MAX 1.0 1.0 1.0
0.000000 0.000000 0.000000
0.016242 0.000000 0.000000
0.122164 0.000000 0.000000
0.277106 0.000000 0.000000
0.526532 0.000000 0.000000
0.850366 0.000000 0.000000
1.000000 0.000000 0.000000
1.000000 0.000000 0.000000
1.000000 0.000000 0.000000
0.000000 0.016242 0.000000
0.016242 0.016242 0.000000
0.122164 0.016242 0.000000
0.277106 0.016242 0.000000
0.526532 0.016242 0.000000
0.850366 0.016242 0.000000
1.000000 0.016242 0.000000
1.000000 0.016242 0.000000
1.000000 0.016242 0.000000
0.000000 0.122164 0.000000
0.016242 0.122164 0.000000
0.122164 0.122164 0.000000
0.277106 0.122164 0.000000
0.526532 0.122164 0.000000
0.850366 0.122164 0.000000
1.000000 0.122164 0.000000
1.000000 0.122164 0.000000
1.000000 0.122164 0.000000
0.000000 0.277106 0.000000
0.016242 0.277106 0.000000
0.122164 0.277106 0.000000
0.277106 0.277106 0.000000
0.526532 0.277106 0.000000
0.850366 0.277106 0.000000
1.000000 0.277106 0.000000
1.000000 0.277106 0.000000
1.000000 0.277106 0.000000
0.000000 0.526532 0.000000
0.016242 0.526532 0.000000
0.122164 0.526532 0.000000
0.277106 0.526532 0.000000
0.526532 0.526532 0.000000
0.850366 0.526532 0.000000
1.000000 0.526532 0.000000
1.000000 0.526532 0.000000
1.000000 0.526532 0.000000
0.000000 0.850366 0.000000
0.016242 0.850366 0.000000
0.122164 0.850366 0.000000
0.277106 0.850366 0.000000
0.526532 0.850366 0.000000
0.850366 0.850366 0.000000
1.000000 0.850366 0.000000
1.000000 0.850366 0.000000
1.000000 0.850366 0.000000
0.000000 1.000000 0.000000
0.016242 1.000000 0.000000
0.122164 1.000000 0.000000
0.277106 1.000000 0.000000
0.526532 1.000000 0.000000
0.850366 1.000000 0.000000
1.000000 1.000000 0.000000
1.000000 1.000000 0.000000
1.000000 1.000000 0.000000
0.000000 1.000000 0.000000
0.016242 1.000000 0.000000
0.122164 1.000000 0.000000
0.277106 1.000000 0.000000
0.526532 1.000000 0.000000
0.850366 1.000000 0.000000
1.000000 1.000000 0.000000
1.000000 1.000000 0.000000
1.000000 1.000000 0.000000
0.000000 1.000000 0.000000
0.016242 1.000000 0.000000
0.122164 1.000000 0.000000
0.277106 1.000000 0.000000
0.526532 1.000000 0.000000
0.850366 1.000000 0.000000
1.000000 1.000000 0.000000
1.000000 1.000000 0.000000
1.000000 1.000000 0.000000
0.000000 0.000000 0.016242
0.016242 0.000000 0.016242
0.122164 0.000000 0.016242
0.277106 0.000000 0.016242
0.526532 0.000000 0.016242
0.850366 0.000000 0.016242
1.000000 0.000000 0.016242
1.000000 0.000000 0.016242
1.000000 0.000000 0.016242
0.000000 0.016242 0.016242
0.016242 0.016242 0.016242
0.122164 0.016242 0.016242
0.277106 0.016242 0.016242
0.526532 0.016242 0.016242
0.850366 0.016242 0.016242
1.000000 0.016242 0.016242
1.000000 0.016242 0.016242
1.000000 0.016242 0.016242
0.000000 0.122164 0.016242
0.016242 0.122164 0.016242
0.122164 0.122164 0.016242
0.277106 0.122164 0.016242
0.526532 0.122164 0.016242
0.850366 0.122164 0.016242
1.000000 0.122164 0.016242
1.000000 0.122164 0.016242
1.000000 0.122164 0.016242
0.000000 0.277106 0.016242
0.016242 0.277106 0.016242
0.122164 0.277106 0.016242
0.277106 0.277106 0.016242
0.526532 0.277106 0.016242
0.850366 0.277106 0.016242
1.000000 0.277106 0.016242
1.000000 0.277106 0.016242
1.000000 0.277106 0.016242
0.000000 0.526532 0.016242
0.016242 0.526532 0.016242
0.122164 0.526532 0.016242
0.277106 0.526532 0.016242
0.526532 0.526532 0.016242
0.850366 0.526532 0.016242
1.000000 0.526532 0.016242
1.000000 0.526532 0.016242
1.000000 0.526532 0.016242
0.000000 0.850366 0.016242
0.016242 0.850366 0.016242
0.122164 0.850366 0.016242
0.277106 0.850366 0.016242
0.526532 0.850366 0.016242
0.850366 0.850366 0.016242
1.000000 0.850366 0.016242
1.000000 0.850366 0.016242
1.000000 0.850366 0.016242
0.000000 1.000000 0.016242
0.016242 1.000000 0.016242
0.122164 1.000000 0.016242
0.277106 1.000000 0.016242
0.526532 1.000000 0.016242
0.850366 1.000000 0.016242
1.000000 1.000000 0.016242
1.000000 1.000000 0.016242
1.000000 1.000000 0.016242
0.000000 1.000000 0.016242
0.016242 1.000000 0.016242
0.122164 1.000000 0.016242
0.277106 1.000000 0.016242
0.526532 1.000000 0.016242
0.850366 1.000000 0.016242
1.000000 1.000000 0.016242
1.000000 1.000000 0.016242
1.000000 1.000000 0.016242
0.000000 1.000000 0.016242
0.016242 1.000000 0.016242
0.122164 1.000000 0.016242
0.277106 1.000000 0.016242
0.526532 1.000000 0.016242
0.850366 1.000000 0.016242
1.000000 1.000000 0.016242
1.000000 1.000000 0.016242
1.000000 1.000000 0.016242
0.000000 0.000000 0.122164
0.016242 0.000000 0.122164
0.122164 0.000000 0.122164
0.277106 0.000000 0.122164
0.526532 0.000000 0.122164
0.850366 0.000000 0.122164
1.000000 0.000000 0.122164
1.000000 0.000000 0.122164
1.000000 0.000000 0.122164
0.000000 0.016242 0.122164
0.016242 0.016242 0.122164
0.122164 0.016242 0.122164
0.277106 0.016242 0.122164
0.526532 0.016242 0.122164
0.850366 0.016242 0.122164
1.000000 0.016242 0.122164
1.000000 0.016242 0.122164
1.000000 0.016242 0.122164
0.000000 0.122164 0.122164
0.016242 0.122164 0.122164
0.122164 0.122164 0.122164
0.277106 0.122164 0.122164
0.526532 0.122164 0.122164
0.850366 0.122164 0.122164
1.000000 0.122164 0.122164
1.000000 0.122164 0.122164
1.000000 0.122164 0.122164
0.000000 0.277106 0.122164
0.016242 0.277106 0.122164
0.122164 0.277106 0.122164
0.277106 0.277106 0.122164
0.526532 0.277106 0.122164
0.850366 0.277106 0.122164
1.000000 0.277106 0.122164
1.000000 0.277106 0.122164
1.000000 0.277106 0.122164
0.000000 0.526532 0.122164
0.016242 0.526532 0.122164
0.122164 0.526532 0.122164
0.277106 0.526532 0.122164
0.526532 0.526532 0.122164
0.850366 0.526532 0.122164
1.000000 0.526532 0.122164
1.000000 0.526532 0.122164
1.000000 0.526532 0.122164
0.000000 0.850366 0.122164
0.016242 0.850366 0.122164
0.122164 0.850366 0.122164
0.277106 0.850366 0.122164
0.526532 0.850366 0.122164
0.850366 0.850366 0.122164
1.000000 0.850366 0.122164
1.000000 0.850366 0.122164
1.000000 0.850366 0.122164
0.000000 1.000000 0.122164
0.016242 1.000000 0.122164
0.122164 1.000000 0.122164
0.277106 1.000000 0.122164
0.526532 1.000000 0.122164
0.850366 1.000000 0.122164
1.000000 1.000000 0.122164
1.000000 1.000000 0.122164
1.000000 1.000000 0.122164
0.000000 1.000000 0.122164
0.016242 1.000000 0.122164
0.122164 1.000000 0.122164
0.277106 1.000000 0.122164
0.526532 1.000000 0.122164
0.850366 1.000000 0.122164
1.000000 1.000000 0.122164
1.000000 1.000000 0.122164
1.000000 1.000000 0.122164
0.000000 1.000000 0.122164
0.016242 1.000000 0.122164
0.122164 1.000000 0.122164
0.277106 1.000000 0.122164
0.526532 1.000000 0.122164
0.850366 1.000000 0.122164
1.000000 1.000000 0.122164
1.000000 1.000000 0.122164
1.000000 1.000000 0.122164
0.000000 0.000000 0.277106
0.016242 0.000000 0.277106
0.122164 0.000000 0.277106
0.277106 0.000000 0.277106
0.526532 0.000000 0.277106
0.850366 0.000000 0.277106
1.000000 0.000000 0.277106
1.000000 0.000000 0.277106
1.000000 0.000000 0.277106
0.000000 0.016242 0.277106
0.016242 0.016242 0.277106
0.122164 0.016242 0.277106
0.277106 0.016242 0.277106
0.526532 0.016242 0.277106
0.850366 0.016242 0.277106
1.000000 0.016242 0.277106
1.000000 0.016242 0.277106
1.000000 0.016242 0.277106
0.000000 0.122164 0.277106
0.016242 0.122164 0.277106
0.122164 0.122164 0.277106
0.277106 0.122164 0.277106
0.526532 0.122164 0.277106
0.850366 0.122164 0.277106
1.000000 0.122164 0.277106
1.000000 0.122164 0.277106
1.000000 0.122164 0.277106
0.000000 0.277106 0.277106
0.016242 0.277106 0.277106
0.122164 0.277106 0.277106
0.277106 0.277106 0.277106
0.526532 0.277106 0.277106
0.850366 0.277106 0.277106
1.000000 0.277106 0.277106
1.000000 0.277106 0.277106
1.000000 0.277106 0.277106
0.000000 0.526532 0.277106
0.016242 0.526532 0.277106
0.122164 0.526532 0.277106
0.277106 0.526532 0.277106
0.526532 0.526532 0.277106
0.850366 0.526532 0.277106
1.000000 0.526532 0.277106
1.000000 0.526532 0.277106
1.000000 0.526532 0.277106
0.000000 0.850366 0.277106
0.016242 0.850366 0.277106
0.122164 0.850366 0.277106
0.277106 0.850366 0.277106
0.526532 0.850366 0.277106
0.850366 0.850366 0.277106
1.000000 0.850366 0.277106
1.000000 0.850366 0.277106
1.000000 0.850366 0.277106
0.000000 1.000000 0.277106
0.016242 1.000000 0.277106
0.122164 1.000000 0.277106
0.277106 1.000000 0.277106
0.526532 1.000000 0.277106
0.850366 1.000000 0.277106
1.000000 1.000000 0.277106
1.000000 1.000000 0.277106
1.000000 1.000000 0.277106
0.000000 1.000000 0.277106
0.016242 1.000000 0.277106
0.122164 1.000000 0.277106
0.277106 1.000000 0.277106
0.526532 1.000000 0.277106
0.850366 1.000000 0.277106
1.000000 1.000000 0.277106
1.000000 1.000000 0.277106
1.000000 1.000000 0.277106
0.000000 1.000000 0.277106
0.016242 1.000000 0.277106
0.122164 1.000000 0.277106
0.277106 1.000000 0.277106
0.526532 1.000000 0.277106
0.850366 1.000000 0.277106
1.000000 1.000000 0.277106
1.000000 1.000000 0.277106
1.000000 1.000000 0.277106
0.000000 0.000000 0.526532
0.016242 0.000000 0.526532
0.122164 0.000000 0.526532
0.277106 0.000000 0.526532
0.526532 0.000000 0.526532
0.850366 0.000000 0.526532
1.000000 0.000000 0.526532
1.000000 0.000000 0.526532
1.000000 0.000000 0.526532
0.000000 0.016242 0.526532
0.016242 0.016242 0.526532
0.122164 0.016242 0.526532
0.277106 0.016242 0.526532
0.526532 0.016242 0.526532
0.850366 0.016242 0.526532
1.000000 0.016242 0.526532
1.000000 0.016242 0.526532
1.000000 0.016242 0.526532
0.000000 0.122164 0.526532
0.016242 0.122164 0.526532
0.122164 0.122164 0.526532
0.277106 0.122164 0.526532
0.526532 0.122164 0.526532
0.850366 0.122164 0.526532
1.000000 0.122164 0.526532
1.000000 0.122164 0.526532
1.000000 0.122164 0.526532
0.000000 0.277106 0.526532
0.016242 0.277106 0.526532
0.122164 0.277106 0.526532
0.277106 0.277106 0.526532
0.526532 0.277106 0.526532
0.850366 0.277106 0.526532
1.000000 0.277106 0.526532
1.000000 0.277106 0.526532
1.000000 0.277106 0.526532
0.000000 0.526532 0.526532
0.016242 0.526532 0.526532
0.122164 0.526532 0.526532
0.277106 0.526532 0.526532
0.526532 0.526532 0.526532
0.850366 0.526532 0.526532
1.000000 0.526532 0.526532
1.000000 0.526532 0.526532
1.000000 0.526532 0.526532
0.000000 0.850366 0.526532
0.016242 0.850366 0.526532
0.122164 0.850366 0.526532
0.277106 0.850366 0.526532
0.526532 0.850366 0.526532
0.850366 0.850366 0.526532
1.000000 0.850366 0.526532
1.000000 0.850366 0.526532
1.000000 0.850366 0.526532
0.000000 1.000000 0.526532
0.016242 1.000000 0.526532
0.122164 1.000000 0.526532
0.277106 1.000000 0.526532
0.526532 1.000000 0.526532
0.850366 1.000000 0.526532
1.000000 1.000000 0.526532
1.000000 1.000000 0.526532
1.000000 1.000000 0.526532
0.000000 1.000000 0.526532
0.016242 1.000000 0.526532
0.122164 1.000000 0.526532
0.277106 1.000000 0.526532
0.526532 1.000000 0.526532
0.850366 1.000000 0.526532
1.000000 1.000000 0.526532
1.000000 1.000000 0.526532
1.000000 1.000000 0.526532
0.000000 1.000000 0.526532
0.016242 1.000000 0.526532
0.122164 1.000000 0.526532
0.277106 1.000000 0.526532
0.526532 1.000000 0.526532
0.850366 1.000000 0.526532
1.000000 1.000000 0.526532
1.000000 1.000000 0.526532
1.000000 1.000000 0.526532
0.000000 0.000000 0.850366
0.016242 0.000000 0.850366
0.122164 0.000000 0.850366
0.277106 0.000000 0.850366
0.526532 0.000000 0.850366
0.850366 0.000000 0.850366
1.000000 0.000000 0.850366
1.000000 0.000000 0.850366
1.000000 0.000000 0.850366
0.000000 0.016242 0.850366
0.016242 0.016242 0.850366
0.122164 0.016242 0.850366
0.277106 0.016242 0.850366
0.526532 0.016242 0.850366
0.850366 0.016242 0.850366
1.000000 0.016242 0.850366
1.000000 0.016242 0.850366
1.000000 0.016242 0.850366
0.000000 0.122164 0.850366
0.016242 0.122164 0.850366
0.122164 0.122164 0.850366
0.277106 0.122164 0.850366
0.526532 0.122164 0.850366
0.850366 0.122164 0.850366
1.000000 0.122164 0.850366
1.000000 0.122164 0.850366
1.000000 0.122164 0.850366
0.000000 0.277106 0.850366
0.016242 0.277106 0.850366
0.122164 0.277106 0.850366
0.277106 0.277106 0.850366
0.526532 0.277106 0.850366
0.850366 0.277106 0.850366
1.000000 0.277106 0.850366
1.000000 0.277106 0.850366
1.000000 0.277106 0.850366
0.000000 0.526532 0.850366
0.016242 0.526532 0.850366
0.122164 0.526532 0.850366
0.277106 0.526532 0.850366
0.526532 0.526532 0.850366
0.850366 0.526532 0.850366
1.000000 0.526532 0.850366
1.000000 0.526532 0.850366
1.000000 0.526532 0.850366
0.000000 0.850366 0.850366
0.016242 0.850366 0.850366
0.122164 0.850366 0.850366
0.277106 0.850366 0.850366
0.526532 0.850366 0.850366
0.850366 0.850366 0.850366
1.000000 0.850366 0.850366
1.000000 0.850366 0.850366
1.000000 0.850366 0.850366
0.000000 1.000000 0.850366
0.016242 1.000000 0.850366
0.122164 1.000000 0.850366
0.277106 1.000000 0.850366
0.526532 1.000000 0.850366
0.850366 1.000000 0.850366
1.000000 1.000000 0.850366
1.000000 1.000000 0.850366
1.000000 1.000000 0.850366
0.000000 1.000000 0.850366
0.016242 1.000000 0.850366
0.122164 1.000000 0.850366
0.277106 1.000000 0.850366
0.526532 1.000000 0.850366
0.850366 1.000000 0.850366
1.000000 1.000000 0.850366
1.000000 1.000000 0.850366
1.000000 1.000000 0.850366
0.000000 1.000000 0.850366
0.016242 1.000000 0.850366
0.122164 1.000000 0.850366
0.277106 1.000000 0.850366
0.526532 1.000000 0.850366
0.850366 1.000000 0.850366
1.000000 1.000000 0.850366
1.000000 1.000000 0.850366
1.000000 1.000000 0.850366
0.000000 0.000000 1.000000
0.016242 0.000000 1.000000
0.122164 0.000000 1.000000
0.277106 0.000000 1.000000
0.526532 0.000000 1.000000
0.850366 0.000000 1.000000
1.000000 0.000000 1.000000
1.000000 0.000000 1.000000
1.000000 0.000000 1.000000
0.000000 0.016242 1.000000
0.016242 0.016242 1.000000
0.122164 0.016242 1.000000
0.277106 0.016242 1.000000
0.526532 0.016242 1.000000
0.850366 0.016242 1.000000
1.000000 0.016242 1.000000
1.000000 0.016242 1.000000
1.000000 0.016242 1.000000
0.000000 0.122164 1.000000
0.016242 0.122164 1.000000
0.122164 0.122164 1.000000
0.277106 0.122164 1.000000
0.526532 0.122164 1.000000
0.850366 0.122164 1.000000
1.000000 0.122164 1.000000
1.000000 0.122164 1.000000
1.000000 0.122164 1.000000
0.000000 0.277106 1.000000
0.016242 0.277106 1.000000
0.122164 0.277106 1.000000
0.277106 0.277106 1.000000
0.526532 0.277106 1.000000
0.850366 0.277106 1.000000
1.000000 0.277106 1.000000
1.000000 0.277106 1.000000
1.000000 0.277106 1.000000
0.000000 0.526532 1.000000
0.016242 0.526532 1.000000
0.122164 0.526532 1.000000
0.277106 0.526532 1.000000
0.526532 0.526532 1.000000
0.850366 0.526532 1.000000
1.000000 0.526532 1.000000
1.000000 0.526532 1.000000
1.000000 0.526532 1.000000
0.000000 0.850366 1.000000
0.016242 0.850366 1.000000
0.122164 0.850366 1.000000
0.277106 0.850366 1.000000
0.526532 0.850366 1.000000
0.850366 0.850366 1.000000
1.000000 0.850366 1.000000
1.000000 0.850366 1.000000
1.000000 0.850366 1.000000
0.000000 1.000000 1.000000
0.016242 1.000000 1.000000
0.122164 1.000000 1.000000
0.277106 1.000000 1.000000
0.526532 1.000000 1.000000
0.850366 1.000000 1.000000
1.000000 1.000000 1.000000
1.000000 1.000000 1.000000
1.000000 1.000000 1.000000
0.000000 1.000000 1.000000
0.016242 1.000000 1.000000
0.122164 1.000000 1.000000
0.277106 1.000000 1.000000
0.526532 1.000000 1.000000
0.850366 1.000000 1.000000
1.000000 1.000000 1.000000
1.000000 1.000000 1.000000
1.000000 1.000000 1.000000
0.000000 1.000000 1.000000
0.016242 1.000000 1.000000
0.122164 1.000000 1.000000
0.277106 1.000000 1.000000
0.526532 1.000000 1.000000
0.850366 1.000000 1.000000
1.000000 1.000000 1.000000
1.000000 1.000000 1.000000
1.000000 1.000000 1.000000
0.000000 0.000000 1.000000
0.016242 0.000000 1.000000
0.122164 0.000000 1.000000
0.277106 0.000000 1.000000
0.526532 0.000000 1.000000
0.850366 0.000000 1.000000
1.000000 0.000000 1.000000
1.000000 0.000000 1.000000
1.000000 0.000000 1.000000
0.000000 0.016242 1.000000
0.016242 0.016242 1.000000
0.122164 0.016242 1.000000
0.277106 0.016242 1.000000
0.526532 0.016242 1.000000
0.850366 0.016242 1.000000
1.000000 0.016242 1.000000
1.000000 0.016242 1.000000
1.000000 0.016242 1.000000
0.000000 0.122164 1.000000
0.016242 0.122164 1.000000
0.122164 0.122164 1.000000
0.277106 0.122164 1.000000
0.526532 0.122164 1.000000
0.850366 0.122164 1.000000
1.000000 0.122164 1.000000
1.000000 0.122164 1.000000
1.000000 0.122164 1.000000
0.000000 0.277106 1.000000
0.016242 0.277106 1.000000
0.122164 0.277106 1.000000
0.277106 0.277106 1.000000
0.526532 0.277106 1.000000
0.850366 0.277106 1.000000
1.000000 0.277106 1.000000
1.000000 0.277106 1.000000
1.000000 0.277106 1.000000
0.000000 0.526532 1.000000
0.016242 0.526532 1.000000
0.122164 0.526532 1.000000
0.277106 0.526532 1.000000
0.526532 0.526532 1.000000
0.850366 0.526532 1.000000
1.000000 0.526532 1.000000
1.000000 0.526532 1.000000
1.000000 0.526532 1.000000
0.000000 0.850366 1.000000
0.016242 0.850366 1.000000
0.122164 0.850366 1.000000
0.277106 0.850366 1.000000
0.526532 0.850366 1.000000
0.850366 0.850366 1.000000
1.000000 0.850366 1.000000
1.000000 0.850366 1.000000
1.000000 0.850366 1.000000
0.000000 1.000000 1.000000
0.016242 1.000000 1.000000
0.122164 1.000000 1.000000
0.277106 1.000000 1.000000
0.526532 1.000000 1.000000
0.850366 1.000000 1.000000
1.000000 1.000000 1.000000
1.000000 1.000000 1.000000
1.000000 1.000000 1.000000
0.000000 1.000000 1.000000
0.016242 1.000000 1.000000
0.122164 1.000000 1.000000
0.277106 1.000000 1.000000
0.526532 1.000000 1.000000
0.850366 1.000000 1.000000
1.000000 1.000000 1.000000
1.000000 1.000000 1.000000
1.000000 1.000000 1.000000
0.000000 1.000000 1.000000
0.016242 1.000000 1.000000
0.122164 1.000000 1.000000
0.277106 1.000000 1.000000
0.526532 1.000000 1.000000
0.850366 1.000000 1.000000
1.000000 1.000000 1.000000
1.000000 1.000000 1.000000
1.000000 1.000000 1.000000
0.000000 0.000000 1.000000
0.016242 0.000000 1.000000
0.122164 0.000000 1.000000
0.277106 0.000000 1.000000
0.526532 0.000000 1.000000
0.850366 0.000000 1.000000
1.000000 0.000000 1.000000
1.000000 0.000000 1.000000
1.000000 0.000000 1.000000
0.000000 0.016242 1.000000
0.016242 0.016242 1.000000
0.122164 0.016242 1.000000
0.277106 0.016242 1.000000
0.526532 0.016242 1.000000
0.850366 0.016242 1.000000
1.000000 0.016242 1.000000
1.000000 0.016242 1.000000
1.000000 0.016242 1.000000
0.000000 0.122164 1.000000
0.016242 0.122164 1.000000
0.122164 0.122164 1.000000
0.277106 0.122164 1.000000
0.526532 0.122164 1.000000
0.850366 0.122164 1.000000
1.000000 0.122164 1.000000
1.000000 0.122164 1.000000
1.000000 0.122164 1.000000
0.000000 0.277106 1.000000
0.016242 0.277106 1.000000
0.122164 0.277106 1.000000
0.277106 0.277106 1.000000
0.526532 0.277106 1.000000
0.850366 0.277106 1.000000
1.000000 0.277106 1.000000
1.000000 0.277106 1.000000
1.000000 0.277106 1.000000
0.000000 0.526532 1.000000
0.016242 0.526532 1.000000
0.122164 0.526532 1.000000
0.277106 0.526532 1.000000
0.526532 0.526532 1.000000
0.850366 0.526532 1.000000
1.000000 0.526532 1.000000
1.000000 0.526532 1.000000
1.000000 0.526532 1.000000
0.000000 0.850366 1.000000
0.016242 0.850366 1.000000
0.122164 0.850366 1.000000
0.277106 0.850366 1.000000
0.526532 0.850366 1.000000
0.850366 0.850366 1.000000
1.000000 0.850366 1.000000
1.000000 0.850366 1.000000
1.000000 0.850366 1.000000
0.000000 1.000000 1.000000
0.016242 1.000000 1.000000
0.122164 1.000000 1.000000
0.277106 1.000000 1.000000
0.526532 1.000000 1.000000
0.850366 1.000000 1.000000
1.000000 1.000000 1.000000
1.000000 1.000000 1.000000
1.000000 1.000000 1.000000
0.000000 1.000000 1.000000
0.016242 1.000000 1.000000
0.122164 1.000000 1.000000
0.277106 1.000000 1.000000
0.526532 1.000000 1.000000
0.850366 1.000000 1.000000
1.000000 1.000000 1.000000
1.000000 1.000000 1.000000
1.000000 1.000000 1.000000
0.000000 1.000000 1.000000
0.016242 1.000000 1.000000
0.122164 1.000000 1.000000
0.277106 1.000000 1.000000
0.526532 1.000000 1.000000
0.850366 1.000000 1.000000
1.000000 1.000000 1.000000
1.000000 1.000000 1.000000
1.000000 1.000000 1.000000
