luts/luts/cineon_log_to_rec709.cube
TITLE "Cineon Log to Rec.709"
LUT_3D_SIZE 5
DOMAIN_MIN 0.0 0.0 0.0
DOMAIN_MAX 1.0 1.0 1.0
0.000000 0.000000 0.000000
0.122164 0.000000 0.000000
0.526532 0.000000 0.000000
1.000000 0.000000 0.000000
1.000000 0.000000 0.000000
0.000000 0.122164 0.000000
0.122164 0.122164 0.000000
0.526532 0.122164 0.000000
1.000000 0.122164 0.000000
1.000000 0.122164 0.000000
0.000000 0.526532 0.000000
0.122164 0.526532 0.000000
0.526532 0.526532 0.000000
1.000000 0.526532 0.000000
1.000000 0.526532 0.000000
0.000000 1.000000 0.000000
0.122164 1.000000 0.000000
0.526532 1.000000 0.000000
1.000000 1.000000 0.000000
1.000000 1.000000 0.000000
0.000000 1.000000 0.000000
0.122164 1.000000 0.000000
0.526532 1.000000 0.000000
1.000000 1.000000 0.000000
1.000000 1.000000 0.000000
0.000000 0.000000 0.122164
0.122164 0.000000 0.122164
0.526532 0.000000 0.122164
1.000000 0.000000 0.122164
1.000000 0.000000 0.122164
0.000000 0.122164 0.122164
0.122164 0.122164 0.122164
0.526532 0.122164 0.122164
1.000000 0.122164 0.122164
1.000000 0.122164 0.122164
0.000000 0.526532 0.122164
0.122164 0.526532 0.122164
0.526532 0.526532 0.122164
1.000000 0.526532 0.122164
1.000000 0.526532 0.122164
0.000000 1.000000 0.122164
0.122164 1.000000 0.122164
0.526532 1.000000 0.122164
1.000000 1.000000 0.122164
1.000000 1.000000 0.122164
0.000000 1.000000 0.122164
0.122164 1.000000 0.122164
0.526532 1.000000 0.122164
1.000000 1.000000 0.122164
1.000000 1.000000 0.122164
0.000000 0.000000 0.526532
0.122164 0.000000 0.526532
0.526532 0.000000 0.526532
1.000000 0.000000 0.526532
1.000000 0.000000 0.526532
0.000000 0.122164 0.526532
0.122164 0.122164 0.526532
0.526532 0.122164 0.526532
1.000000 0.122164 0.526532
1.000000 0.122164 0.526532
0.000000 0.526532 0.526532
0.122164 0.526532 0.526532
0.526532 0.526532 0.526532
1.000000 0.526532 0.526532
1.000000 0.526532 0.526532
0.000000 1.000000 0.526532
0.122164 1.000000 0.526532
0.526532 1.000000 0.526532
1.000000 1.000000 0.526532
1.000000 1.000000 0.526532
0.000000 1.000000 0.526532
0.122164 1.000000 0.526532
0.526532 1.000000 0.526532
1.000000 1.000000 0.526532
1.000000 1.000000 0.526532
0.000000 0.000000 1.000000
0.122164 0.000000 1.000000
0.526532 0.000000 1.000000
1.000000 0.000000 1.000000
1.000000 0.000000 1.000000
0.000000 0.122164 1.000000
0.122164 0.122164 1.000000
0.526532 0.122164 1.000000
1.000000 0.122164 1.000000
1.000000 0.122164 1.000000
0.000000 0.526532 1.000000
0.122164 0.526532 1.000000
0.526532 0.526532 1.000000
1.000000 0.526532 1.000000
1.000000 0.526532 1.000000
0.000000 1.000000 1.000000
0.122164 1.000000 1.000000
0.526532 1.000000 1.000000
1.000000 1.000000 1.000000
1.000000 1.000000 1.000000
0.000000 1.000000 1.000000
0.122164 1.000000 1.000000
0.526532 1.000000 1.000000
1.000000 1.000000 1.000000
1.000000 1.000000 1.000000
0.000000 0.000000 1.000000
0.122164 0.000000 1.000000
0.526532 0.000000 1.000000
1.000000 0.000000 1.000000
1.000000 0.000000 1.000000
0.000000 0.122164 1.000000
0.122164 0.122164 1.000000
0.526532 0.122164 1.000000
1.000000 0.122164 1.000000
1.000000 0.122164 1.000000
0.000000 0.526532 1.000000
0.122164 0.526532 1.000000
0.526532 0.526532 1.000000
1.000000 0.526532 1.000000
1.000000 0.526532 1.000000
0.000000 1.000000 1.000000
0.122164 1.000000 1.000000
0.526532 1.000000 1.000000
1.000000 1.000000 1.000000
1.000000 1.000000 1.000000
0.000000 1.000000 1.000000
0.122164 1.000000 1.000000
0.526532 1.000000 1.000000
1.000000 1.000000 1.000000
1.000000 1.000000 1.000000
