luts/luts/cineon_log_to_rec709.cube
TITLE "Cineon Log to Rec.709"
LUT_3D_SIZE 33
DOMAIN_MIN 0.0 0.0 0.0
DOMAIN_MAX 1.0 1.0 1.0
0.000000 0.000000 0.000000
0.000000 0.000000 0.000000
0.000000 0.000000 0.000000
0.000130 0.000000 0.000000
0.016242 0.000000 0.000000
0.040911 0.000000 0.000000
0.066130 0.000000 0.000000
0.092943 0.000000 0.000000
0.122164 0.000000 0.000000
0.154493 0.000000 0.000000
0.190609 0.000000 0.000000
0.231222 0.000000 0.000000
0.277106 0.000000 0.000000
0.329114 0.000000 0.000000
0.388205 0.000000 0.000000
0.454877 0.000000 0.000000
0.526532 0.000000 0.000000
0.602605 0.000000 0.000000
0.682709 0.000000 0.000000
0.765931 0.000000 0.000000
0.850366 0.000000 0.000000
0.931868 0.000000 0.000000
0.997425 0.000000 0.000000
1.000000 0.000000 0.000000
1.000000 0.000000 0.000000
1.000000 0.000000 0.000000
1.000000 0.000000 0.000000
1.000000 0.000000 0.000000
1.000000 0.000000 0.000000
1.000000 0.000000 0.000000
1.000000 0.000000 0.000000
1.000000 0.000000 0.000000
1.000000 0.000000 0.000000
0.000000 0.000000 0.000000
0.000000 0.000000 0.000000
0.000000 0.000000 0.000000
0.000130 0.000000 0.000000
0.016242 0.000000 0.000000
0.040911 0.000000 0.000000
0.066130 0.000000 0.000000
0.092943 0.000000 0.000000
0.122164 0.000000 0.000000
0.154493 0.000000 0.000000
0.190609 0.000000 0.000000
0.231222 0.000000 0.000000
0.277106 0.000000 0.000000
0.329114 0.000000 0.000000
0.388205 0.000000 0.000000
0.454877 0.000000 0.000000
0.526532 0.000000 0.000000
0.602605 0.000000 0.000000
0.682709 0.000000 0.000000
0.765931 0.000000 0.000000
0.850366 0.000000 0.000000
0.931868 0.000000 0.000000
0.997425 0.000000 0.000000
1.000000 0.000000 0.000000
1.000000 0.000000 0.000000
1.000000 0.000000 0.000000
1.000000 0.000000 0.000000
1.000000 0.000000 0.000000
1.000000 0.000000 0.000000
1.000000 0.000000 0.000000
1.000000 0.000000 0.000000
1.000000 0.000000 0.000000
1.000000 0.000000 0.000000
0.000000 0.000000 0.000000
0.000000 0.000000 0.000000
0.000000 0.000000 0.000000
0.000130 0.000000 0.000000
0.016242 0.000000 0.000000
0.040911 0.000000 0.000000
0.066130 0.000000 0.000000
0.092943 0.000000 0.000000
0.122164 0.000000 0.000000
0.154493 0.000000 0.000000
0.190609 0.000000 0.000000
0.231222 0.000000 0.000000
0.277106 0.000000 0.000000
0.329114 0.000000 0.000000
0.388205 0.000000 0.000000
0.454877 0.000000 0.000000
0.526532 0.000000 0.000000
0.602605 0.000000 0.000000
0.682709 0.000000 0.000000
0.765931 0.000000 0.000000
0.850366 0.000000 0.000000
0.931868 0.000000 0.000000
0.997425 0.000000 0.000000
1.000000 0.000000 0.000000
1.000000 0.000000 0.000000
1.000000 0.000000 0.000000
1.000000 0.000000 0.000000
1.000000 0.000000 0.000000
1.000000 0.000000 0.000000
1.000000 0.000000 0.000000
1.000000 0.000000 0.000000
1.000000 0.000000 0.000000
1.000000 0.000000 0.000000
0.000000 0.000130 0.000000
0.000000 0.000130 0.000000
0.000000 0.000130 0.000000
0.000130 0.000130 0.000000
0.016242 0.000130 0.000000
0.040911 0.000130 0.000000
0.066130 0.000130 0.000000
0.092943 0.000130 0.000000
0.122164 0.000130 0.000000
0.154493 0.000130 0.000000
0.190609 0.000130 0.000000
0.231222 0.000130 0.000000
0.277106 0.000130 0.000000
0.329114 0.000130 0.000000
0.388205 0.000130 0.000000
0.454877 0.000130 0.000000
0.526532 0.000130 0.000000
0.602605 0.000130 0.000000
0.682709 0.000130 0.000000
0.765931 0.000130 0.000000
0.850366 0.000130 0.000000
0.931868 0.000130 0.000000
0.997425 0.000130 0.000000
1.000000 0.000130 0.000000
1.000000 0.000130 0.000000
1.000000 0.000130 0.000000
1.000000 0.000130 0.000000
1.000000 0.000130 0.000000
1.000000 0.000130 0.000000
1.000000 0.000130 0.000000
1.000000 0.000130 0.000000
1.000000 0.000130 0.000000
1.000000 0.000130 0.000000
0.000000 0.016242 0.000000
0.000000 0.016242 0.000000
0.000000 0.016242 0.000000
0.000130 0.016242 0.000000
0.016242 0.016242 0.000000
0.040911 0.016242 0.000000
0.066130 0.016242 0.000000
0.092943 0.016242 0.000000
0.122164 0.016242 0.000000
0.154493 0.016242 0.000000
0.190609 0.016242 0.000000
0.231222 0.016242 0.000000
0.277106 0.016242 0.000000
0.329114 0.016242 0.000000
0.388205 0.016242 0.000000
0.454877 0.016242 0.000000
0.526532 0.016242 0.000000
0.602605 0.016242 0.000000
0.682709 0.016242 0.000000
0.765931 0.016242 0.000000
0.850366 0.016242 0.000000
0.931868 0.016242 0.000000
0.997425 0.016242 0.000000
1.000000 0.016242 0.000000
1.000000 0.016242 0.000000
1.000000 0.016242 0.000000
1.000000 0.016242 0.000000
1.000000 0.016242 0.000000
1.000000 0.016242 0.000000
1.000000 0.016242 0.000000
1.000000 0.016242 0.000000
1.000000 0.016242 0.000000
1.000000 0.016242 0.000000
0.000000 0.040911 0.000000
0.000000 0.040911 0.000000
0.000000 0.040911 0.000000
0.000130 0.040911 0.000000
0.016242 0.040911 0.000000
0.040911 0.040911 0.000000
0.066130 0.040911 0.000000
0.092943 0.040911 0.000000
0.122164 0.040911 0.000000
0.154493 0.040911 0.000000
0.190609 0.040911 0.000000
0.231222 0.040911 0.000000
0.277106 0.040911 0.000000
0.329114 0.040911 0.000000
0.388205 0.040911 0.000000
0.454877 0.040911 0.000000
0.526532 0.040911 0.000000
0.602605 0.040911 0.000000
0.682709 0.040911 0.000000
0.765931 0.040911 0.000000
0.850366 0.040911 0.000000
0.931868 0.040911 0.000000
0.997425 0.040911 0.000000
1.000000 0.040911 0.000000
1.000000 0.040911 0.000000
1.000000 0.040911 0.000000
1.000000 0.040911 0.000000
1.000000 0.040911 0.000000
1.000000 0.040911 0.000000
1.000000 0.040911 0.000000
1.000000 0.040911 0.000000
1.000000 0.040911 0.000000
1.000000 0.040911 0.000000
0.000000 0.066130 0.000000
0.000000 0.066130 0.000000
0.000000 0.066130 0.000000
0.000130 0.066130 0.000000
0.016242 0.066130 0.000000
0.040911 0.066130 0.000000
0.066130 0.066130 0.000000
0.092943 0.066130 0.000000
0.122164 0.066130 0.000000
0.154493 0.066130 0.000000
0.190609 0.066130 0.000000
0.231222 0.066130 0.000000
0.277106 0.066130 0.000000
0.329114 0.066130 0.000000
0.388205 0.066130 0.000000
0.454877 0.066130 0.000000
0.526532 0.066130 0.000000
0.602605 0.066130 0.000000
0.682709 0.066130 0.000000
0.765931 0.066130 0.000000
0.850366 0.066130 0.000000
0.931868 0.066130 0.000000
0.997425 0.066130 0.000000
1.000000 0.066130 0.000000
1.000000 0.066130 0.000000
1.000000 0.066130 0.000000
1.000000 0.066130 0.000000
1.000000 0.066130 0.000000
1.000000 0.066130 0.000000
1.000000 0.066130 0.000000
1.000000 0.066130 0.000000
1.000000 0.066130 0.000000
1.000000 0.066130 0.000000
0.000000 0.092943 0.000000
0.000000 0.092943 0.000000
0.000000 0.092943 0.000000
0.000130 0.092943 0.000000
0.016242 0.092943 0.000000
0.040911 0.092943 0.000000
0.066130 0.092943 0.000000
0.092943 0.092943 0.000000
0.122164 0.092943 0.000000
0.154493 0.092943 0.000000
0.190609 0.092943 0.000000
0.231222 0.092943 0.000000
0.277106 0.092943 0.000000
0.329114 0.092943 0.000000
0.388205 0.092943 0.000000
0.454877 0.092943 0.000000
0.526532 0.092943 0.000000
0.602605 0.092943 0.000000
0.682709 0.092943 0.000000
0.765931 0.092943 0.000000
0.850366 0.092943 0.000000
0.931868 0.092943 0.000000
0.997425 0.092943 0.000000
1.000000 0.092943 0.000000
1.000000 0.092943 0.000000
1.000000 0.092943 0.000000
1.000000 0.092943 0.000000
1.000000 0.092943 0.000000
1.000000 0.092943 0.000000
1.000000 0.092943 0.000000
1.000000 0.092943 0.000000
1.000000 0.092943 0.000000
1.000000 0.092943 0.000000
0.000000 0.122164 0.000000
0.000000 0.122164 0.000000
0.000000 0.122164 0.000000
0.000130 0.122164 0.000000
0.016242 0.122164 0.000000
0.040911 0.122164 0.000000
0.066130 0.122164 0.000000
0.092943 0.122164 0.000000
0.122164 0.122164 0.000000
0.154493 0.122164 0.000000
0.190609 0.122164 0.000000
0.231222 0.122164 0.000000
0.277106 0.122164 0.000000
0.329114 0.122164 0.000000
0.388205 0.122164 0.000000
0.454877 0.122164 0.000000
0.526532 0.122164 0.000000
0.602605 0.122164 0.000000
0.682709 0.122164 0.000000
0.765931 0.122164 0.000000
0.850366 0.122164 0.000000
0.931868 0.122164 0.000000
0.997425 0.122164 0.000000
1.000000 0.122164 0.000000
1.000000 0.122164 0.000000
1.000000 0.122164 0.000000
1.000000 0.122164 0.000000
1.000000 0.122164 0.000000
1.000000 0.122164 0.000000
1.000000 0.122164 0.000000
1.000000 0.122164 0.000000
1.000000 0.122164 0.000000
1.000000 0.122164 0.000000
0.000000 0.154493 0.000000
0.000000 0.154493 0.000000
0.000000 0.154493 0.000000
0.000130 0.154493 0.000000
0.016242 0.154493 0.000000
0.040911 0.154493 0.000000
0.066130 0.154493 0.000000
0.092943 0.154493 0.000000
0.122164 0.154493 0.000000
0.154493 0.154493 0.000000
0.190609 0.154493 0.000000
0.231222 0.154493 0.000000
0.277106 0.154493 0.000000
0.329114 0.154493 0.000000
0.388205 0.154493 0.000000
0.454877 0.154493 0.000000
0.526532 0.154493 0.000000
0.602605 0.154493 0.000000
0.682709 0.154493 0.000000
0.765931 0.154493 0.000000
0.850366 0.154493 0.000000
0.931868 0.154493 0.000000
0.997425 0.154493 0.000000
1.000000 0.154493 0.000000
1.000000 0.154493 0.000000
1.000000 0.154493 0.000000
1.000000 0.154493 0.000000
1.000000 0.154493 0.000000
1.000000 0.154493 0.000000
1.000000 0.154493 0.000000
1.000000 0.154493 0.000000
1.000000 0.154493 0.000000
1.000000 0.154493 0.000000
0.000000 0.190609 0.000000
0.000000 0.190609 0.000000
0.000000 0.190609 0.000000
0.000130 0.190609 0.000000
0.016242 0.190609 0.000000
0.040911 0.190609 0.000000
0.066130 0.190609 0.000000
0.092943 0.190609 0.000000
0.122164 0.190609 0.000000
0.154493 0.190609 0.000000
0.190609 0.190609 0.000000
0.231222 0.190609 0.000000
0.277106 0.190609 0.000000
0.329114 0.190609 0.000000
0.388205 0.190609 0.000000
0.454877 0.190609 0.000000
0.526532 0.190609 0.000000
0.602605 0.190609 0.000000
0.682709 0.190609 0.000000
0.765931 0.190609 0.000000
0.850366 0.190609 0.000000
0.931868 0.190609 0.000000
0.997425 0.190609 0.000000
1.000000 0.190609 0.000000
1.000000 0.190609 0.000000
1.000000 0.190609 0.000000
1.000000 0.190609 0.000000
1.000000 0.190609 0.000000
1.000000 0.190609 0.000000
1.000000 0.190609 0.000000
1.000000 0.190609 0.000000
1.000000 0.190609 0.000000
1.000000 0.190609 0.000000
0.000000 0.231222 0.000000
0.000000 0.231222 0.000000
0.000000 0.231222 0.000000
0.000130 0.231222 0.000000
0.016242 0.231222 0.000000
0.040911 0.231222 0.000000
0.066130 0.231222 0.000000
0.092943 0.231222 0.000000
0.122164 0.231222 0.000000
0.154493 0.231222 0.000000
0.190609 0.231222 0.000000
0.231222 0.231222 0.000000
0.277106 0.231222 0.000000
0.329114 0.231222 0.000000
0.388205 0.231222 0.000000
0.454877 0.231222 0.000000
0.526532 0.231222 0.000000
0.602605 0.231222 0.000000
0.682709 0.231222 0.000000
0.765931 0.231222 0.000000
0.850366 0.231222 0.000000
0.931868 0.231222 0.000000
0.997425 0.231222 0.000000
1.000000 0.231222 0.000000
1.000000 0.231222 0.000000
1.000000 0.231222 0.000000
1.000000 0.231222 0.000000
1.000000 0.231222 0.000000
1.000000 0.231222 0.000000
1.000000 0.231222 0.000000
1.000000 0.231222 0.000000
1.000000 0.231222 0.000000
1.000000 0.231222 0.000000
0.000000 0.277106 0.000000
0.000000 0.277106 0.000000
0.000000 0.277106 0.000000
0.000130 0.277106 0.000000
0.016242 0.277106 0.000000
0.040911 0.277106 0.000000
0.066130 0.277106 0.000000
0.092943 0.277106 0.000000
0.122164 0.277106 0.000000
0.154493 0.277106 0.000000
0.190609 0.277106 0.000000
0.231222 0.277106 0.000000
0.277106 0.277106 0.000000
0.329114 0.277106 0.000000
0.388205 0.277106 0.000000
0.454877 0.277106 0.000000
0.526532 0.277106 0.000000
0.602605 0.277106 0.000000
0.682709 0.277106 0.000000
0.765931 0.277106 0.000000
0.850366 0.277106 0.000000
0.931868 0.277106 0.000000
0.997425 0.277106 0.000000
1.000000 0.277106 0.000000
1.000000 0.277106 0.000000
1.000000 0.277106 0.000000
1.000000 0.277106 0.000000
1.000000 0.277106 0.000000
1.000000 0.277106 0.000000
1.000000 0.277106 0.000000
1.000000 0.277106 0.000000
1.000000 0.277106 0.000000
1.000000 0.277106 0.000000
0.000000 0.329114 0.000000
0.000000 0.329114 0.000000
0.000000 0.329114 0.000000
0.000130 0.329114 0.000000
0.016242 0.329114 0.000000
0.040911 0.329114 0.000000
0.066130 0.329114 0.000000
0.092943 0.329114 0.000000
0.122164 0.329114 0.000000
0.154493 0.329114 0.000000
0.190609 0.329114 0.000000
0.231222 0.329114 0.000000
0.277106 0.329114 0.000000
0.329114 0.329114 0.000000
0.388205 0.329114 0.000000
0.454877 0.329114 0.000000
0.526532 0.329114 0.000000
0.602605 0.329114 0.000000
0.682709 0.329114 0.000000
0.765931 0.329114 0.000000
0.850366 0.329114 0.000000
0.931868 0.329114 0.000000
0.997425 0.329114 0.000000
1.000000 0.329114 0.000000
1.000000 0.329114 0.000000
1.000000 0.329114 0.000000
1.000000 0.329114 0.000000
1.000000 0.329114 0.000000
1.000000 0.329114 0.000000
1.000000 0.329114 0.000000
1.000000 0.329114 0.000000
1.000000 0.329114 0.000000
1.000000 0.329114 0.000000
0.000000 0.388205 0.000000
0.000000 0.388205 0.000000
0.000000 0.388205 0.000000
0.000130 0.388205 0.000000
0.016242 0.388205 0.000000
0.040911 0.388205 0.000000
0.066130 0.388205 0.000000
0.092943 0.388205 0.000000
0.122164 0.388205 0.000000
0.154493 0.388205 0.000000
0.190609 0.388205 0.000000
0.231222 0.388205 0.000000
0.277106 0.388205 0.000000
0.329114 0.388205 0.000000
0.388205 0.388205 0.000000
0.454877 0.388205 0.000000
0.526532 0.388205 0.000000
0.602605 0.388205 0.000000
0.682709 0.388205 0.000000
0.765931 0.388205 0.000000
0.850366 0.388205 0.000000
0.931868 0.388205 0.000000
0.997425 0.388205 0.000000
1.000000 0.388205 0.000000
1.000000 0.388205 0.000000
1.000000 0.388205 0.000000
1.000000 0.388205 0.000000
1.000000 0.388205 0.000000
1.000000 0.388205 0.000000
1.000000 0.388205 0.000000
1.000000 0.388205 0.000000
1.000000 0.388205 0.000000
1.000000 0.388205 0.000000
0.000000 0.454877 0.000000
0.000000 0.454877 0.000000
0.000000 0.454877 0.000000
0.000130 0.454877 0.000000
0.016242 0.454877 0.000000
0.040911 0.454877 0.000000
0.066130 0.454877 0.000000
0.092943 0.454877 0.000000
0.122164 0.454877 0.000000
0.154493 0.454877 0.000000
0.190609 0.454877 0.000000
0.231222 0.454877 0.000000
0.277106 0.454877 0.000000
0.329114 0.454877 0.000000
0.388205 0.454877 0.000000
0.454877 0.454877 0.000000
0.526532 0.454877 0.000000
0.602605 0.454877 0.000000
0.682709 0.454877 0.000000
0.765931 0.454877 0.000000
0.850366 0.454877 0.000000
0.931868 0.454877 0.000000
0.997425 0.454877 0.000000
1.000000 0.454877 0.000000
1.000000 0.454877 0.000000
1.000000 0.454877 0.000000
1.000000 0.454877 0.000000
1.000000 0.454877 0.000000
1.000000 0.454877 0.000000
1.000000 0.454877 0.000000
1.000000 0.454877 0.000000
1.000000 0.454877 0.000000
1.000000 0.454877 0.000000
0.000000 0.526532 0.000000
0.000000 0.526532 0.000000
0.000000 0.526532 0.000000
0.000130 0.526532 0.000000
0.016242 0.526532 0.000000
0.040911 0.526532 0.000000
0.066130 0.526532 0.000000
0.092943 0.526532 0.000000
0.122164 0.526532 0.000000
0.154493 0.526532 0.000000
0.190609 0.526532 0.000000
0.231222 0.526532 0.000000
0.277106 0.526532 0.000000
0.329114 0.526532 0.000000
0.388205 0.526532 0.000000
0.454877 0.526532 0.000000
0.526532 0.526532 0.000000
0.602605 0.526532 0.000000
0.682709 0.526532 0.000000
0.765931 0.526532 0.000000
0.850366 0.526532 0.000000
0.931868 0.526532 0.000000
0.997425 0.526532 0.000000
1.000000 0.526532 0.000000
1.000000 0.526532 0.000000
1.000000 0.526532 0.000000
1.000000 0.526532 0.000000
1.000000 0.526532 0.000000
1.000000 0.526532 0.000000
1.000000 0.526532 0.000000
1.000000 0.526532 0.000000
1.000000 0.526532 0.000000
1.000000 0.526532 0.000000
0.000000 0.602605 0.000000
0.000000 0.602605 0.000000
0.000000 0.602605 0.000000
0.000130 0.602605 0.000000
0.016242 0.602605 0.000000
0.040911 0.602605 0.000000
0.066130 0.602605 0.000000
0.092943 0.602605 0.000000
0.122164 0.602605 0.000000
0.154493 0.602605 0.000000
0.190609 0.602605 0.000000
0.231222 0.602605 0.000000
0.277106 0.602605 0.000000
0.329114 0.602605 0.000000
0.388205 0.602605 0.000000
0.454877 0.602605 0.000000
0.526532 0.602605 0.000000
0.602605 0.602605 0.000000
0.682709 0.602605 0.000000
0.765931 0.602605 0.000000
0.850366 0.602605 0.000000
0.931868 0.602605 0.000000
0.997425 0.602605 0.000000
1.000000 0.602605 0.000000
1.000000 0.602605 0.000000
1.000000 0.602605 0.000000
1.000000 0.602605 0.000000
1.000000 0.602605 0.000000
1.000000 0.602605 0.000000
1.000000 0.602605 0.000000
1.000000 0.602605 0.000000
1.000000 0.602605 0.000000
1.000000 0.602605 0.000000
0.000000 0.682709 0.000000
0.000000 0.682709 0.000000
0.000000 0.682709 0.000000
0.000130 0.682709 0.000000
0.016242 0.682709 0.000000
0.040911 0.682709 0.000000
0.066130 0.682709 0.000000
0.092943 0.682709 0.000000
0.122164 0.682709 0.000000
0.154493 0.682709 0.000000
0.190609 0.682709 0.000000
0.231222 0.682709 0.000000
0.277106 0.682709 0.000000
0.329114 0.682709 0.000000
0.388205 0.682709 0.000000
0.454877 0.682709 0.000000
0.526532 0.682709 0.000000
0.602605 0.682709 0.000000
0.682709 0.682709 0.000000
0.765931 0.682709 0.000000
0.850366 0.682709 0.000000
0.931868 0.682709 0.000000
0.997425 0.682709 0.000000
1.000000 0.682709 0.000000
1.000000 0.682709 0.000000
1.000000 0.682709 0.000000
1.000000 0.682709 0.000000
1.000000 0.682709 0.000000
1.000000 0.682709 0.000000
1.000000 0.682709 0.000000
1.000000 0.682709 0.000000
1.000000 0.682709 0.000000
1.000000 0.682709 0.000000
0.000000 0.765931 0.000000
0.000000 0.765931 0.000000
0.000000 0.765931 0.000000
0.000130 0.765931 0.000000
0.016242 0.765931 0.000000
0.040911 0.765931 0.000000
0.066130 0.765931 0.000000
0.092943 0.765931 0.000000
0.122164 0.765931 0.000000
0.154493 0.765931 0.000000
0.190609 0.765931 0.000000
0.231222 0.765931 0.000000
0.277106 0.765931 0.000000
0.329114 0.765931 0.000000
0.388205 0.765931 0.000000
0.454877 0.765931 0.000000
0.526532 0.765931 0.000000
0.602605 0.765931 0.000000
0.682709 0.765931 0.000000
0.765931 0.765931 0.000000
0.850366 0.765931 0.000000
0.931868 0.765931 0.000000
0.997425 0.765931 0.000000
1.000000 0.765931 0.000000
1.000000 0.765931 0.000000
1.000000 0.765931 0.000000
1.000000 0.765931 0.000000
1.000000 0.765931 0.000000
1.000000 0.765931 0.000000
1.000000 0.765931 0.000000
1.000000 0.765931 0.000000
1.000000 0.765931 0.000000
1.000000 0.765931 0.000000
0.000000 0.850366 0.000000
0.000000 0.850366 0.000000
0.000000 0.850366 0.000000
0.000130 0.850366 0.000000
0.016242 0.850366 0.000000
0.040911 0.850366 0.000000
0.066130 0.850366 0.000000
0.092943 0.850366 0.000000
0.122164 0.850366 0.000000
0.154493 0.850366 0.000000
0.190609 0.850366 0.000000
0.231222 0.850366 0.000000
0.277106 0.850366 0.000000
0.329114 0.850366 0.000000
0.388205 0.850366 0.000000
0.454877 0.850366 0.000000
0.526532 0.850366 0.000000
0.602605 0.850366 0.000000
0.682709 0.850366 0.000000
0.765931 0.850366 0.000000
0.850366 0.850366 0.000000
0.931868 0.850366 0.000000
0.997425 0.850366 0.000000
1.000000 0.850366 0.000000
1.000000 0.850366 0.000000
1.000000 0.850366 0.000000
1.000000 0.850366 0.000000
1.000000 0.850366 0.000000
1.000000 0.850366 0.000000
1.000000 0.850366 0.000000
1.000000 0.850366 0.000000
1.000000 0.850366 0.000000
1.000000 0.850366 0.000000
0.000000 0.931868 0.000000
0.000000 0.931868 0.000000
0.000000 0.931868 0.000000
0.000130 0.931868 0.000000
0.016242 0.931868 0.000000
0.040911 0.931868 0.000000
0.066130 0.931868 0.000000
0.092943 0.931868 0.000000
0.122164 0.931868 0.000000
0.154493 0.931868 0.000000
0.190609 0.931868 0.000000
0.231222 0.931868 0.000000
0.277106 0.931868 0.000000
0.329114 0.931868 0.000000
0.388205 0.931868 0.000000
0.454877 0.931868 0.000000
0.526532 0.931868 0.000000
0.602605 0.931868 0.000000
0.682709 0.931868 0.000000
0.765931 0.931868 0.000000
0.850366 0.931868 0.000000
0.931868 0.931868 0.000000
0.997425 0.931868 0.000000
1.000000 0.931868 0.000000
1.000000 0.931868 0.000000
1.000000 0.931868 0.000000
1.000000 0.931868 0.000000
1.000000 0.931868 0.000000
1.000000 0.931868 0.000000
1.000000 0.931868 0.000000
1.000000 0.931868 0.000000
1.000000 0.931868 0.000000
1.000000 0.931868 0.000000
0.000000 0.997425 0.000000
0.000000 0.997425 0.000000
0.000000 0.997425 0.000000
0.000130 0.997425 0.000000
0.016242 0.997425 0.000000
0.040911 0.997425 0.000000
0.066130 0.997425 0.000000
0.092943 0.997425 0.000000
0.122164 0.997425 0.000000
0.154493 0.997425 0.000000
0.190609 0.997425 0.000000
0.231222 0.997425 0.000000
0.277106 0.997425 0.000000
0.329114 0.997425 0.000000
0.388205 0.997425 0.000000
0.454877 0.997425 0.000000
0.526532 0.997425 0.000000
0.602605 0.997425 0.000000
0.682709 0.997425 0.000000
0.765931 0.997425 0.000000
0.850366 0.997425 0.000000
0.931868 0.997425 0.000000
0.997425 0.997425 0.000000
1.000000 0.997425 0.000000
1.000000 0.997425 0.000000
1.000000 0.997425 0.000000
1.000000 0.997425 0.000000
1.000000 0.997425 0.000000
1.000000 0.997425 0.000000
1.000000 0.997425 0.000000
1.000000 0.997425 0.000000
1.000000 0.997425 0.000000
1.000000 0.997425 0.000000
0.000000 1.000000 0.000000
0.000000 1.000000 0.000000
0.000000 1.000000 0.000000
0.000130 1.000000 0.000000
0.016242 1.000000 0.000000
0.040911 1.000000 0.000000
0.066130 1.000000 0.000000
0.092943 1.000000 0.000000
0.122164 1.000000 0.000000
0.154493 1.000000 0.000000
0.190609 1.000000 0.000000
0.231222 1.000000 0.000000
0.277106 1.000000 0.000000
0.329114 1.000000 0.000000
0.388205 1.000000 0.000000
0.454877 1.000000 0.000000
0.526532 1.000000 0.000000
0.602605 1.000000 0.000000
0.682709 1.000000 0.000000
0.765931 1.000000 0.000000
0.850366 1.000000 0.000000
0.931868 1.000000 0.000000
0.997425 1.000000 0.000000
1.000000 1.000000 0.000000
1.000000 1.000000 0.000000
1.000000 1.000000 0.000000
1.000000 1.000000 0.000000
1.000000 1.000000 0.000000
1.000000 1.000000 0.000000
1.000000 1.000000 0.000000
1.000000 1.000000 0.000000
1.000000 1.000000 0.000000
1.000000 1.000000 0.000000
0.000000 1.000000 0.000000
0.000000 1.000000 0.000000
0.000000 1.000000 0.000000
0.000130 1.000000 0.000000
0.016242 1.000000 0.000000
0.040911 1.000000 0.000000
0.066130 1.000000 0.000000
0.092943 1.000000 0.000000
0.122164 1.000000 0.000000
0.154493 1.000000 0.000000
0.190609 1.000000 0.000000
0.231222 1.000000 0.000000
0.277106 1.000000 0.000000
0.329114 1.000000 0.000000
0.388205 1.000000 0.000000
0.454877 1.000000 0.000000
0.526532 1.000000 0.000000
0.602605 1.000000 0.000000
0.682709 1.000000 0.000000
0.765931 1.000000 0.000000
0.850366 1.000000 0.000000
0.931868 1.000000 0.000000
0.997425 1.000000 0.000000
1.000000 1.000000 0.000000
1.000000 1.000000 0.000000
1.000000 1.000000 0.000000
1.000000 1.000000 0.000000
1.000000 1.000000 0.000000
1.000000 1.000000 0.000000
1.000000 1.000000 0.000000
1.000000 1.000000 0.000000
1.000000 1.000000 0.000000
1.000000 1.000000 0.000000
0.000000 1.000000 0.000000
0.000000 1.000000 0.000000
0.000000 1.000000 0.000000
0.000130 1.000000 0.000000
0.016242 1.000000 0.000000
0.040911 1.000000 0.000000
0.066130 1.000000 0.000000
0.092943 1.000000 0.000000
0.122164 1.000000 0.000000
0.154493 1.000000 0.000000
0.190609 1.000000 0.000000
0.231222 1.000000 0.000000
0.277106 1.000000 0.000000
0.329114 1.000000 0.000000
0.388205 1.000000 0.000000
0.454877 1.000000 0.000000
0.526532 1.000000 0.000000
0.602605 1.000000 0.000000
0.682709 1.000000 0.000000
0.765931 1.000000 0.000000
0.850366 1.000000 0.000000
0.931868 1.000000 0.000000
0.997425 1.000000 0.000000
1.000000 1.000000 0.000000
1.000000 1.000000 0.000000
1.000000 1.000000 0.000000
1.000000 1.000000 0.000000
1.000000 1.000000 0.000000
1.000000 1.000000 0.000000
1.000000 1.000000 0.000000
1.000000 1.000000 0.000000
1.000000 1.000000 0.000000
1.000000 1.000000 0.000000
0.000000 1.000000 0.000000
0.000000 1.000000 0.000000
0.000000 1.000000 0.000000
0.000130 1.000000 0.000000
0.016242 1.000000 0.000000
0.040911 1.000000 0.000000
0.066130 1.000000 0.000000
0.092943 1.000000 0.000000
0.122164 1.000000 0.000000
0.154493 1.000000 0.000000
0.190609 1.000000 0.000000
0.231222 1.000000 0.000000
0.277106 1.000000 0.000000
0.329114 1.000000 0.000000
0.388205 1.000000 0.000000
0.454877 1.000000 0.000000
0.526532 1.000000 0.000000
0.602605 1.000000 0.000000
0.682709 1.000000 0.000000
0.765931 1.000000 0.000000
0.850366 1.000000 0.000000
0.931868 1.000000 0.000000
0.997425 1.000000 0.000000
1.000000 1.000000 0.000000
1.000000 1.000000 0.000000
1.000000 1.000000 0.000000
1.000000 1.000000 0.000000
