luts/luts/cross_process.cube
TITLE "Cross Process"
LUT_3D_SIZE 9
DOMAIN_MIN 0.0 0.0 0.0
DOMAIN_MAX 1.0 1.0 1.0
0.004101 0.018517 0.117962
0.081486 0.014904 0.114999
0.181259 0.011017 0.109201
0.388134 0.008163 0.099087
0.586461 0.013916 0.096718
0.749880 0.019351 0.098629
0.852351 0.019351 0.098629
0.940036 0.019351 0.098629
1.000000 0.019351 0.098629
0.000000 0.113436 0.101838
0.064284 0.110230 0.098352
0.167647 0.105192 0.093379
0.386119 0.098464 0.087497
0.597421 0.099882 0.089864
0.749880 0.107883 0.098629
0.852351 0.107883 0.098629
0.940036 0.107883 0.098629
1.000000 0.107883 0.098629
0.000000 0.231610 0.084723
0.046667 0.230039 0.079452
0.146868 0.225918 0.074707
0.374628 0.216483 0.068286
0.604412 0.212050 0.074186
0.768879 0.215916 0.088555
0.852351 0.220547 0.098629
0.940036 0.220547 0.098629
1.000000 0.220547 0.098629
0.000000 0.385417 0.073996
0.035267 0.386039 0.066328
0.130582 0.383308 0.062199
0.351109 0.375483 0.061129
0.588898 0.369143 0.062348
0.781521 0.365788 0.065347
0.876694 0.366793 0.076882
0.949249 0.369840 0.091247
1.000000 0.371833 0.098629
0.000000 0.545643 0.078222
0.038764 0.548641 0.067959
0.128790 0.547414 0.064496
0.341485 0.541333 0.069220
0.570511 0.536944 0.076921
0.755766 0.535228 0.085371
0.856937 0.535055 0.090910
0.941835 0.535360 0.096103
1.000000 0.535639 0.098629
0.005189 0.686140 0.096452
0.056328 0.691305 0.083821
0.141528 0.691452 0.080966
0.347075 0.686961 0.090977
0.567527 0.685126 0.098629
0.749880 0.685126 0.098629
0.852351 0.685126 0.098629
0.940036 0.685126 0.098629
1.000000 0.685126 0.098629
0.007859 0.803943 0.098629
0.072085 0.803943 0.098629
0.156811 0.803943 0.098629
0.350650 0.803943 0.098629
0.567527 0.803943 0.098629
0.749880 0.803943 0.098629
0.852351 0.803943 0.098629
0.940036 0.803943 0.098629
1.000000 0.803943 0.098629
0.007859 0.907672 0.098629
0.072085 0.907672 0.098629
0.156811 0.907672 0.098629
0.350650 0.907672 0.098629
0.567527 0.907672 0.098629
0.749880 0.907672 0.098629
0.852351 0.907672 0.098629
0.940036 0.907672 0.098629
1.000000 0.907672 0.098629
0.007859 0.987464 0.098629
0.072085 0.987464 0.098629
0.156811 0.987464 0.098629
0.350650 0.987464 0.098629
0.567527 0.987464 0.098629
0.749880 0.987464 0.098629
0.852351 0.987464 0.098629
0.940036 0.987464 0.098629
1.000000 0.987464 0.098629
0.003663 0.017725 0.182369
0.079459 0.014500 0.180246
0.180543 0.009972 0.176937
0.388149 0.007384 0.162028
0.587294 0.013437 0.154293
0.749880 0.019351 0.153905
0.852351 0.019351 0.153905
0.940036 0.019351 0.153905
1.000000 0.019351 0.153905
0.000000 0.112383 0.169944
0.063583 0.109040 0.167479
0.166628 0.104056 0.162911
0.385831 0.097594 0.152235
0.597951 0.099311 0.149237
0.749880 0.107883 0.153905
0.852351 0.107883 0.153905
0.940036 0.107883 0.153905
1.000000 0.107883 0.153905
0.000000 0.230673 0.150542
0.045997 0.229013 0.146860
0.144513 0.225524 0.140819
0.375925 0.215163 0.132816
0.604556 0.211363 0.135845
0.769710 0.215480 0.145703
0.852351 0.220547 0.153905
0.940036 0.220547 0.153905
1.000000 0.220547 0.153905
0.000000 0.384635 0.136745
0.035115 0.385169 0.130666
0.125157 0.384499 0.121652
0.350479 0.375504 0.118046
0.593633 0.367857 0.116428
0.784967 0.364597 0.122270
0.877393 0.366342 0.134565
0.950279 0.369510 0.146761
1.000000 0.371833 0.153905
0.000000 0.545031 0.137646
0.039173 0.547940 0.128972
0.120040 0.550321 0.116740
0.337530 0.543070 0.118928
0.571921 0.537373 0.123791
0.761688 0.534557 0.129854
0.865394 0.533766 0.134053
0.952461 0.533542 0.138098
1.000000 0.533628 0.141105
0.006352 0.685682 0.152842
0.057249 0.690758 0.141801
0.129744 0.695925 0.126630
0.340087 0.690265 0.134105
0.566481 0.686348 0.144884
0.749880 0.685126 0.153905
0.852351 0.685126 0.153905
0.940036 0.685126 0.153905
1.000000 0.685126 0.153905
0.007859 0.803943 0.153905
0.072085 0.803943 0.153905
0.147241 0.807759 0.144275
0.350650 0.803943 0.153905
0.567527 0.803943 0.153905
0.749880 0.803943 0.153905
0.852351 0.803943 0.153905
0.940036 0.803943 0.153905
1.000000 0.803943 0.153905
0.007859 0.907672 0.153905
0.072085 0.907672 0.153905
0.156811 0.907672 0.153905
0.350650 0.907672 0.153905
0.567527 0.907672 0.153905
0.749880 0.907672 0.153905
0.852351 0.907672 0.153905
0.940036 0.907672 0.153905
1.000000 0.907672 0.153905
0.007859 0.987464 0.153905
0.072085 0.987464 0.153905
0.156811 0.987464 0.153905
0.350650 0.987464 0.153905
0.567527 0.987464 0.153905
0.749880 0.987464 0.153905
0.852351 0.987464 0.153905
0.940036 0.987464 0.153905
1.000000 0.987464 0.153905
0.003465 0.017142 0.249096
0.077526 0.014340 0.247891
0.176493 0.010301 0.245959
0.388144 0.006513 0.231041
0.588181 0.012891 0.217447
0.749880 0.019351 0.214267
0.852351 0.019351 0.214267
0.940036 0.019351 0.214267
1.000000 0.019351 0.214267
0.000000 0.110981 0.241622
0.063613 0.107867 0.239379
0.164430 0.103417 0.236079
0.385495 0.096623 0.223210
0.598507 0.098666 0.214353
0.750529 0.107695 0.214217
0.852351 0.107883 0.214267
0.940036 0.107883 0.214267
1.000000 0.107883 0.214267
0.000000 0.229672 0.222137
0.045287 0.227915 0.220189
0.143375 0.224331 0.216353
0.375167 0.214065 0.206288
0.604691 0.210591 0.203458
0.770596 0.214982 0.208390
0.852968 0.220381 0.214093
0.940036 0.220547 0.214267
1.000000 0.220547 0.214267
0.000000 0.383804 0.204986
0.034971 0.384241 0.200643
0.124396 0.383551 0.193645
0.349510 0.375247 0.183806
0.598523 0.366171 0.179088
0.785288 0.363928 0.188309
0.878135 0.365827 0.197836
0.951383 0.369127 0.207663
1.000000 0.371833 0.214267
0.000000 0.544384 0.202258
0.039642 0.547196 0.195319
0.119688 0.549639 0.184898
0.332931 0.544687 0.176814
0.573181 0.537561 0.178578
0.767874 0.533544 0.182036
0.874348 0.532078 0.184771
0.963783 0.531276 0.187564
1.000000 0.530967 0.189713
0.007645 0.685203 0.214141
0.058277 0.690183 0.204834
0.129765 0.695486 0.191289
0.332175 0.693592 0.184806
0.564428 0.688246 0.192486
0.752397 0.685726 0.200918
0.855093 0.685101 0.206448
0.941295 0.685018 0.211632
1.000000 0.685126 0.214267
0.007859 0.803943 0.214267
0.072085 0.803943 0.214267
0.147558 0.807512 0.206153
0.341358 0.808050 0.200943
0.567255 0.804119 0.213325
0.749880 0.803943 0.214267
0.852351 0.803943 0.214267
0.940036 0.803943 0.214267
1.000000 0.803943 0.214267
0.007859 0.907672 0.214267
0.072085 0.907672 0.214267
0.156811 0.907672 0.214267
0.350650 0.907672 0.214267
0.567527 0.907672 0.214267
0.749880 0.907672 0.214267
0.852351 0.907672 0.214267
0.940036 0.907672 0.214267
1.000000 0.907672 0.214267
0.007859 0.987464 0.214267
0.072085 0.987464 0.214267
0.156811 0.987464 0.214267
0.350650 0.987464 0.214267
0.567527 0.987464 0.214267
0.749880 0.987464 0.214267
0.852351 0.987464 0.214267
0.940036 0.987464 0.214267
1.000000 0.987464 0.214267
0.003635 0.016823 0.328057
0.075503 0.014556 0.328012
0.171576 0.011223 0.327610
0.388105 0.005378 0.318694
0.589271 0.012168 0.297695
0.749880 0.019351 0.290567
0.852351 0.019351 0.290567
0.940036 0.019351 0.290567
1.000000 0.019351 0.290567
0.000000 0.109382 0.325961
0.064069 0.106803 0.324879
0.161993 0.103058 0.323108
0.385037 0.095362 0.313344
0.599178 0.097817 0.297081
0.752149 0.107194 0.290719
0.852351 0.107883 0.290567
0.940036 0.107883 0.290567
1.000000 0.107883 0.290567
0.000000 0.228438 0.312216
0.044423 0.226560 0.312462
0.142840 0.222696 0.310423
0.374176 0.212644 0.299578
0.604829 0.209582 0.289342
0.771684 0.214320 0.288048
0.854589 0.219914 0.290252
0.940036 0.220547 0.290567
1.000000 0.220547 0.290567
0.000000 0.382786 0.290828
0.034822 0.383101 0.288677
0.123806 0.382249 0.284572
0.347867 0.374504 0.272314
0.600163 0.364542 0.266695
0.785660 0.363051 0.272205
0.879041 0.365145 0.278233
0.952745 0.368611 0.285066
1.000000 0.371833 0.290567
0.000000 0.543599 0.283510
0.040267 0.546289 0.278764
0.119872 0.548571 0.271237
0.326699 0.546312 0.255370
0.574355 0.537380 0.253217
0.775274 0.531844 0.253382
0.885247 0.529525 0.254266
0.973086 0.528925 0.259755
1.000000 0.529967 0.267739
0.007859 0.685126 0.290567
0.059609 0.689489 0.284092
0.130656 0.694630 0.273440
0.321755 0.697379 0.254280
0.561414 0.690227 0.258043
0.755610 0.686188 0.263182
0.861805 0.684709 0.266861
0.951001 0.683897 0.270461
1.000000 0.683581 0.273163
0.007859 0.803943 0.290567
0.072085 0.803943 0.290567
0.149011 0.806826 0.284975
0.327609 0.813555 0.263198
0.560912 0.807817 0.271663
0.749764 0.804968 0.280754
0.852956 0.804158 0.286655
0.940036 0.803943 0.290567
1.000000 0.803943 0.290567
0.007859 0.907672 0.290567
0.072085 0.907672 0.290567
0.156811 0.907672 0.290567
0.339805 0.912158 0.278068
0.567527 0.907672 0.290567
0.749880 0.907672 0.290567
0.852351 0.907672 0.290567
0.940036 0.907672 0.290567
1.000000 0.907672 0.290567
0.007859 0.987464 0.290567
0.072085 0.987464 0.290567
0.156811 0.987464 0.290567
0.350650 0.987464 0.290567
0.567527 0.987464 0.290567
0.749880 0.987464 0.290567
0.852351 0.987464 0.290567
0.940036 0.987464 0.290567
1.000000 0.987464 0.290567
0.005029 0.017374 0.450267
0.073109 0.016031 0.452225
0.164186 0.013916 0.454466
0.377981 0.007615 0.458129
0.591067 0.010835 0.437394
0.749880 0.019351 0.422344
0.852351 0.019351 0.422344
0.940036 0.019351 0.422344
1.000000 0.019351 0.422344
0.000000 0.107722 0.457461
0.065959 0.106067 0.458382
0.158886 0.103540 0.459254
0.376914 0.096297 0.459786
0.600251 0.096266 0.441062
0.754861 0.106241 0.423946
0.852351 0.107883 0.422344
0.940036 0.107883 0.422344
1.000000 0.107883 0.422344
0.000000 0.225467 0.459659
0.049903 0.223414 0.459260
0.145185 0.220364 0.458390
0.368599 0.211921 0.454937
0.604982 0.207755 0.438775
0.773476 0.213091 0.426726
0.857302 0.219021 0.422887
0.940036 0.220547 0.422344
1.000000 0.220547 0.422344
0.000000 0.381113 0.437981
0.034649 0.381218 0.439618
0.122872 0.380088 0.440510
0.345179 0.372064 0.436171
0.599080 0.362343 0.423447
0.786217 0.361450 0.418203
0.880519 0.363880 0.418187
0.955011 0.367634 0.419849
1.000000 0.371090 0.421875
0.000000 0.542328 0.422738
0.041432 0.544808 0.421780
0.120276 0.546812 0.419249
0.320747 0.545973 0.408035
0.575279 0.535965 0.396288
0.784171 0.528395 0.393134
0.889817 0.527035 0.397259
0.974015 0.527546 0.402463
1.000000 0.528784 0.406912
0.007859 0.685126 0.422344
0.061995 0.688375 0.419875
0.132280 0.693239 0.414220
0.313169 0.698942 0.395858
0.555106 0.692546 0.385428
0.760056 0.685884 0.384879
0.872294 0.682932 0.385361
0.966662 0.680858 0.386227
1.000000 0.679680 0.387059
0.007859 0.803943 0.422344
0.072085 0.803943 0.422344
0.151605 0.805726 0.420006
0.316930 0.816629 0.395964
0.548855 0.813103 0.386580
0.748461 0.807631 0.389984
0.857696 0.805348 0.392688
0.949494 0.803846 0.395454
1.000000 0.803059 0.397586
0.007859 0.907672 0.422344
0.072085 0.907672 0.422344
0.156811 0.907672 0.422344
0.327298 0.916553 0.403141
0.550483 0.915533 0.394670
0.745423 0.911099 0.401526
0.852037 0.909399 0.406169
0.941591 0.908396 0.410595
1.000000 0.907951 0.413862
0.007859 0.987464 0.422344
0.072085 0.987464 0.422344
0.156811 0.987464 0.422344
0.339768 0.991627 0.413156
0.556230 0.992534 0.405388
0.747581 0.988899 0.414898
0.852178 0.987648 0.421034
0.940036 0.987464 0.422344
1.000000 0.987464 0.422344
0.007859 0.019351 0.558722
0.072102 0.019027 0.561887
0.158008 0.018174 0.566863
0.359972 0.014757 0.576783
0.592811 0.009341 0.583439
0.749880 0.019351 0.558722
0.852351 0.019351 0.558722
0.940036 0.019351 0.558722
1.000000 0.019351 0.558722
0.003822 0.107474 0.574664
0.069385 0.106775 0.577658
0.157141 0.105510 0.581265
0.363338 0.101151 0.588054
0.601247 0.094547 0.591541
0.757554 0.105141 0.563295
0.852351 0.107883 0.558722
0.940036 0.107883 0.558722
1.000000 0.107883 0.558722
0.000000 0.222307 0.589097
0.058970 0.221210 0.590770
0.149081 0.219421 0.592636
0.360664 0.213864 0.595440
0.605026 0.205749 0.594894
0.775216 0.211704 0.571715
0.859996 0.217982 0.561622
0.940036 0.220547 0.558722
1.000000 0.220547 0.558722
0.000000 0.379497 0.588802
0.034585 0.379383 0.594359
0.126002 0.377264 0.595650
0.344819 0.370096 0.593103
0.597846 0.359952 0.587142
0.786679 0.359678 0.570768
0.881935 0.362456 0.564498
0.957242 0.366508 0.560808
1.000000 0.370168 0.559173
0.000000 0.541128 0.565357
0.042752 0.543390 0.568319
0.120808 0.545106 0.570959
0.319475 0.543609 0.571576
0.574230 0.533224 0.562907
0.783249 0.526207 0.553901
0.889848 0.525195 0.551772
0.974862 0.526003 0.551624
1.000000 0.527446 0.552413
0.007859 0.685126 0.558722
0.064579 0.687337 0.558929
0.134075 0.691913 0.558445
0.313161 0.696958 0.551914
0.547107 0.693475 0.536148
0.763187 0.684099 0.529712
0.881680 0.679622 0.526887
0.976568 0.677280 0.528870
1.000000 0.676699 0.531869
0.007859 0.803943 0.558722
0.072085 0.803943 0.558722
0.154404 0.804702 0.558282
0.317926 0.814947 0.546071
0.534908 0.817104 0.524397
0.745643 0.808918 0.521915
0.861133 0.805109 0.521311
0.958282 0.802302 0.521247
1.000000 0.800622 0.521443
0.007859 0.907672 0.558722
0.072085 0.907672 0.558722
0.156811 0.907672 0.558722
0.329171 0.915134 0.548054
0.531342 0.922214 0.521223
0.737412 0.915066 0.522192
0.850279 0.911841 0.523528
0.945186 0.909533 0.525124
1.000000 0.908195 0.526455
0.007859 0.987464 0.558722
0.072085 0.987464 0.558722
0.156811 0.987464 0.558722
0.342315 0.990411 0.554073
0.533093 1.000000 0.523276
0.735574 0.994929 0.526900
0.846425 0.992153 0.529728
0.939605 0.990229 0.532600
1.000000 0.989154 0.534804
0.007859 0.019351 0.690592
0.072085 0.019351 0.690592
0.156811 0.019351 0.690592
0.350650 0.019351 0.690592
0.567527 0.019351 0.690592
0.749880 0.019351 0.690592
0.852351 0.019351 0.690592
0.940036 0.019351 0.690592
1.000000 0.019351 0.690592
0.007859 0.107883 0.690592
0.072085 0.107883 0.690592
0.156811 0.107883 0.690592
0.351632 0.107267 0.693812
0.578482 0.103096 0.705762
0.760047 0.103966 0.699459
0.852351 0.107883 0.690592
0.940036 0.107883 0.690592
1.000000 0.107883 0.690592
0.005602 0.220674 0.695985
0.069159 0.220501 0.699664
0.154270 0.219931 0.704174
0.354413 0.217164 0.713029
0.587290 0.211651 0.720520
0.776789 0.210252 0.713334
0.862490 0.216867 0.697193
0.940036 0.220547 0.690592
1.000000 0.220547 0.690592
0.000000 0.375972 0.718996
0.050244 0.375266 0.720902
0.138516 0.373993 0.723073
0.345893 0.369615 0.726577
0.586863 0.362301 0.728082
0.787015 0.357855 0.719711
0.883193 0.360969 0.707394
0.959289 0.365309 0.698529
1.000000 0.369166 0.693356
0.000000 0.540078 0.701840
0.044140 0.542129 0.708593
0.121433 0.543567 0.716233
0.320827 0.540990 0.725406
0.570559 0.531726 0.720429
0.782247 0.523980 0.710776
0.889767 0.523305 0.702599
0.975570 0.524402 0.697276
1.000000 0.526041 0.694526
0.007859 0.685126 0.690592
0.067188 0.686444 0.691965
0.135922 0.690741 0.696481
0.313264 0.695150 0.701390
0.544818 0.691136 0.697936
0.763522 0.681308 0.688248
0.881394 0.677174 0.683849
0.976055 0.675311 0.681760
1.000000 0.674926 0.681220
0.007859 0.803943 0.690592
0.072085 0.803943 0.690592
0.156811 0.803943 0.690592
0.319000 0.813432 0.689794
0.533140 0.815235 0.679984
0.741497 0.808740 0.667755
0.863034 0.803456 0.663953
0.965358 0.799387 0.661152
1.000000 0.797160 0.660861
0.007859 0.907672 0.690592
0.072085 0.907672 0.690592
0.156811 0.907672 0.690592
0.331092 0.913874 0.686755
0.530030 0.920757 0.671396
0.728243 0.917481 0.657140
0.847158 0.912781 0.655278
0.947239 0.909211 0.654136
1.000000 0.907010 0.653596
0.007859 0.987464 0.690592
0.072085 0.987464 0.690592
0.156811 0.987464 0.690592
0.344888 0.989347 0.688911
0.532132 1.000000 0.669283
0.722542 0.999338 0.653469
0.839440 0.995087 0.653099
0.937796 0.991902 0.653234
1.000000 0.989963 0.653566
0.007859 0.019351 0.816232
0.072085 0.019351 0.816232
0.156811 0.019351 0.816232
0.350650 0.019351 0.816232
0.567527 0.019351 0.816232
0.749880 0.019351 0.816232
0.852351 0.019351 0.816232
0.940036 0.019351 0.816232
1.000000 0.019351 0.816232
0.007859 0.107883 0.816232
0.072085 0.107883 0.816232
0.156811 0.107883 0.816232
0.350650 0.107883 0.816232
0.567527 0.107883 0.816232
0.749880 0.107883 0.816232
0.852351 0.107883 0.816232
0.940036 0.107883 0.816232
1.000000 0.107883 0.816232
0.007859 0.220547 0.816232
0.072085 0.220547 0.816232
0.156811 0.220547 0.816232
0.350650 0.220547 0.816232
0.570440 0.219069 0.822293
0.763305 0.214961 0.832040
0.864765 0.215703 0.827660
0.940036 0.220547 0.816232
1.000000 0.220547 0.816232
0.005889 0.372113 0.819260
0.068231 0.372288 0.823076
0.151739 0.372177 0.827767
0.348216 0.370457 0.837036
0.576992 0.366117 0.844990
0.776661 0.360494 0.849704
0.884290 0.359451 0.844840
0.961138 0.364065 0.831044
1.000000 0.368110 0.822499
0.000000 0.539179 0.830575
0.045563 0.541029 0.840939
0.126397 0.541395 0.848777
0.330706 0.537932 0.852252
0.568244 0.531641 0.853725
0.775281 0.524378 0.852988
0.889590 0.521403 0.847600
0.976144 0.522774 0.837347
1.000000 0.524601 0.831225
0.007859 0.685126 0.816232
0.069774 0.685694 0.817415
0.137783 0.689726 0.826696
0.313463 0.693529 0.842504
0.545888 0.688420 0.847322
0.759649 0.679660 0.841612
0.880052 0.674922 0.835746
0.975465 0.673333 0.828727
1.000000 0.673136 0.824815
0.007859 0.803943 0.816232
0.072085 0.803943 0.816232
0.156811 0.803943 0.816232
0.320124 0.812089 0.825427
0.532406 0.813214 0.827811
0.737976 0.806848 0.822504
0.862688 0.800839 0.816541
0.965141 0.796898 0.812091
1.000000 0.795092 0.809937
0.007859 0.907672 0.816232
0.072085 0.907672 0.816232
0.156811 0.907672 0.816232
0.333024 0.912774 0.817603
0.530103 0.918978 0.814438
0.722891 0.916883 0.804465
0.842884 0.912376 0.797513
0.947896 0.907604 0.793764
1.000000 0.904581 0.791440
0.007859 0.987464 0.816232
0.072085 0.987464 0.816232
0.156811 0.987464 0.816232
0.347441 0.988434 0.816078
0.532826 0.998546 0.808645
0.715781 0.999736 0.795083
0.831486 0.996582 0.787351
0.934771 0.992194 0.784879
1.000000 0.989434 0.783428
0.007859 0.019351 0.923998
0.072085 0.019351 0.923998
0.156811 0.019351 0.923998
0.350650 0.019351 0.923998
0.567527 0.019351 0.923998
0.749880 0.019351 0.923998
0.852351 0.019351 0.923998
0.940036 0.019351 0.923998
1.000000 0.019351 0.923998
0.007859 0.107883 0.923998
0.072085 0.107883 0.923998
0.156811 0.107883 0.923998
0.350650 0.107883 0.923998
0.567527 0.107883 0.923998
0.749880 0.107883 0.923998
0.852351 0.107883 0.923998
0.940036 0.107883 0.923998
1.000000 0.107883 0.923998
0.007859 0.220547 0.923998
0.072085 0.220547 0.923998
0.156811 0.220547 0.923998
0.350650 0.220547 0.923998
0.567527 0.220547 0.923998
0.749880 0.220547 0.923998
0.852351 0.220547 0.923998
0.940036 0.220547 0.923998
1.000000 0.220547 0.923998
0.007859 0.371833 0.923998
0.072085 0.371833 0.923998
0.156811 0.371833 0.923998
0.350650 0.371833 0.923998
0.569536 0.370401 0.932274
0.760410 0.366922 0.941640
0.870601 0.364176 0.946111
0.962645 0.362920 0.945717
1.000000 0.367125 0.934280
0.000546 0.537027 0.931787
0.062386 0.537379 0.935322
0.145231 0.537502 0.939642
0.340192 0.536319 0.948061
0.567270 0.532580 0.955065
0.765512 0.527461 0.958980
0.879843 0.523793 0.960389
0.976557 0.521300 0.958502
1.000000 0.523287 0.949488
0.007859 0.685126 0.923998
0.072072 0.685129 0.924007
0.139457 0.688935 0.937374
0.315753 0.691825 0.960402
0.550828 0.686305 0.961491
0.755794 0.679690 0.960432
0.873904 0.675181 0.959046
0.974880 0.671559 0.955796
1.000000 0.671522 0.948993
0.007859 0.803943 0.923998
0.072085 0.803943 0.923998
0.156811 0.803943 0.923998
0.321167 0.811015 0.940752
0.531854 0.811559 0.953597
0.738286 0.804582 0.951802
0.859399 0.799405 0.948194
0.963763 0.794884 0.943861
1.000000 0.793239 0.938815
0.007859 0.907672 0.923998
0.072085 0.907672 0.923998
0.156811 0.907672 0.923998
0.334760 0.911909 0.928824
0.530244 0.917531 0.936119
0.721691 0.914947 0.934941
0.840130 0.910563 0.931348
0.946973 0.905372 0.926357
1.000000 0.902323 0.922845
0.007859 0.987464 0.923998
0.072085 0.987464 0.923998
0.156811 0.987464 0.923998
0.349710 0.987729 0.924143
0.533500 0.997259 0.927169
0.715114 0.997960 0.922402
0.828028 0.995422 0.916792
0.931166 0.991435 0.910786
1.000000 0.987969 0.907806
