luts/luts/cross_process.cube
TITLE "Cross Process"
LUT_3D_SIZE 33
DOMAIN_MIN 0.0 0.0 0.0
DOMAIN_MAX 1.0 1.0 1.0
0.004101 0.018517 0.117962
0.019793 0.017799 0.117377
0.038359 0.016941 0.116674
0.059051 0.015971 0.115878
0.081486 0.014904 0.114999
0.105425 0.013750 0.114044
0.130138 0.012726 0.112566
0.155393 0.011838 0.110866
0.181259 0.011017 0.109201
0.231802 0.009681 0.106179
0.283471 0.008713 0.103433
0.335731 0.008186 0.101045
0.388134 0.008163 0.099087
0.440295 0.008704 0.097625
0.491835 0.009863 0.096719
0.540847 0.011622 0.096424
0.586461 0.013916 0.096718
0.628772 0.016697 0.097553
0.669836 0.019351 0.098629
0.718480 0.019351 0.098629
0.749880 0.019351 0.098629
0.776631 0.019351 0.098629
0.802661 0.019351 0.098629
0.827921 0.019351 0.098629
0.852351 0.019351 0.098629
0.875880 0.019351 0.098629
0.898420 0.019351 0.098629
0.919855 0.019351 0.098629
0.940036 0.019351 0.098629
0.958746 0.019351 0.098629
0.975647 0.019351 0.098629
0.990110 0.019351 0.098629
1.000000 0.019351 0.098629
0.000442 0.038754 0.115037
0.016194 0.038023 0.114407
0.034832 0.037148 0.113651
0.055604 0.036161 0.112796
0.078125 0.035075 0.111854
0.102156 0.033900 0.110831
0.127079 0.032810 0.109394
0.152611 0.031830 0.107795
0.178763 0.030913 0.106234
0.229880 0.029385 0.103422
0.282154 0.028215 0.100896
0.335047 0.027476 0.098739
0.388108 0.027233 0.097022
0.440951 0.027547 0.095809
0.493193 0.028471 0.095159
0.542903 0.029996 0.095119
0.589198 0.032064 0.095661
0.632171 0.034623 0.096738
0.671912 0.037622 0.098299
0.718480 0.038206 0.098629
0.749880 0.038206 0.098629
0.776631 0.038206 0.098629
0.802661 0.038206 0.098629
0.827921 0.038206 0.098629
0.852351 0.038206 0.098629
0.875880 0.038206 0.098629
0.898420 0.038206 0.098629
0.919855 0.038206 0.098629
0.940036 0.038206 0.098629
0.958746 0.038206 0.098629
0.975647 0.038206 0.098629
0.990110 0.038206 0.098629
1.000000 0.038206 0.098629
0.000000 0.061798 0.111459
0.011852 0.061051 0.110777
0.030571 0.060158 0.109961
0.051434 0.059151 0.109039
0.074053 0.058043 0.108024
0.098188 0.056845 0.106924
0.123348 0.055679 0.105535
0.149193 0.054595 0.104050
0.175670 0.053569 0.102608
0.227437 0.051824 0.100033
0.280397 0.050425 0.097758
0.334008 0.049446 0.095863
0.387815 0.048954 0.094417
0.441430 0.049010 0.093486
0.494469 0.049668 0.093127
0.544971 0.050929 0.093376
0.592037 0.052738 0.094200
0.635760 0.055047 0.095551
0.676228 0.057803 0.097377
0.718480 0.059577 0.098629
0.749880 0.059577 0.098629
0.776631 0.059577 0.098629
0.802661 0.059577 0.098629
0.827921 0.059577 0.098629
0.852351 0.059577 0.098629
0.875880 0.059577 0.098629
0.898420 0.059577 0.098629
0.919855 0.059577 0.098629
0.940036 0.059577 0.098629
0.958746 0.059577 0.098629
0.975647 0.059577 0.098629
0.990110 0.059577 0.098629
1.000000 0.059577 0.098629
0.000000 0.086822 0.106687
0.007455 0.086163 0.106124
0.025900 0.085340 0.105417
0.046610 0.084370 0.104574
0.069285 0.083249 0.103523
0.093534 0.082026 0.102339
0.118953 0.080778 0.101001
0.145140 0.079579 0.099641
0.171974 0.078434 0.098329
0.224450 0.076452 0.096012
0.278159 0.074803 0.094011
0.332553 0.073563 0.092401
0.387175 0.072798 0.091254
0.441633 0.072572 0.090630
0.495541 0.072940 0.090589
0.546908 0.073912 0.091153
0.594817 0.075440 0.092284
0.639359 0.077475 0.093934
0.680621 0.079966 0.096051
0.718686 0.082855 0.098579
0.749880 0.082911 0.098629
0.776631 0.082911 0.098629
0.802661 0.082911 0.098629
0.827921 0.082911 0.098629
0.852351 0.082911 0.098629
0.875880 0.082911 0.098629
0.898420 0.082911 0.098629
0.919855 0.082911 0.098629
0.940036 0.082911 0.098629
0.958746 0.082911 0.098629
0.975647 0.082911 0.098629
0.990110 0.082911 0.098629
1.000000 0.082911 0.098629
0.000000 0.113436 0.101838
0.003358 0.112850 0.101195
0.021543 0.112115 0.100392
0.041963 0.111241 0.099444
0.064284 0.110230 0.098352
0.088307 0.109079 0.097115
0.113867 0.107786 0.095808
0.140433 0.106464 0.094552
0.167647 0.105192 0.093379
0.220883 0.102956 0.091340
0.275393 0.101040 0.089630
0.330625 0.099519 0.088327
0.386119 0.098464 0.087497
0.441480 0.097936 0.087203
0.496319 0.097993 0.087502
0.548610 0.098655 0.088404
0.597421 0.099882 0.089864
0.642840 0.101624 0.091834
0.684952 0.103831 0.094261
0.723838 0.106446 0.097088
0.749880 0.107883 0.098629
0.776631 0.107883 0.098629
0.802661 0.107883 0.098629
0.827921 0.107883 0.098629
0.852351 0.107883 0.098629
0.875880 0.107883 0.098629
0.898420 0.107883 0.098629
0.919855 0.107883 0.098629
0.940036 0.107883 0.098629
0.958746 0.107883 0.098629
0.975647 0.107883 0.098629
0.990110 0.107883 0.098629
1.000000 0.107883 0.098629
0.000000 0.141396 0.097130
0.000000 0.140889 0.096402
0.017355 0.140245 0.095499
0.037469 0.139474 0.094439
0.059458 0.138574 0.093226
0.083129 0.137540 0.091860
0.108477 0.136308 0.090576
0.134996 0.134996 0.089363
0.162444 0.133660 0.088130
0.216698 0.131132 0.085985
0.272055 0.128933 0.084585
0.328173 0.127116 0.083605
0.384588 0.125753 0.083112
0.440902 0.124906 0.083166
0.496724 0.124635 0.083823
0.549994 0.124971 0.085082
0.599758 0.125879 0.086890
0.646103 0.127312 0.089198
0.689113 0.129218 0.091953
0.728866 0.131544 0.095097
0.753593 0.133297 0.097379
0.776631 0.134275 0.098629
0.802661 0.134275 0.098629
0.827921 0.134275 0.098629
0.852351 0.134275 0.098629
0.875880 0.134275 0.098629
0.898420 0.134275 0.098629
0.919855 0.134275 0.098629
0.940036 0.134275 0.098629
0.958746 0.134275 0.098629
0.975647 0.134275 0.098629
0.990110 0.134275 0.098629
1.000000 0.134275 0.098629
0.000000 0.170509 0.092656
0.000000 0.170083 0.091839
0.013425 0.169536 0.090830
0.033218 0.168872 0.089653
0.054861 0.168087 0.088314
0.078164 0.167177 0.086813
0.103289 0.166008 0.085554
0.129659 0.164729 0.084450
0.156954 0.163427 0.083330
0.211180 0.160909 0.081176
0.267925 0.158373 0.079022
0.325144 0.156213 0.078199
0.382525 0.154527 0.078058
0.439839 0.153347 0.078477
0.496691 0.152731 0.079510
0.550985 0.152725 0.081143
0.601747 0.153300 0.083316
0.649063 0.154408 0.085978
0.693015 0.156000 0.089076
0.733676 0.158022 0.092552
0.758990 0.159579 0.095049
0.779976 0.161062 0.097332
0.802661 0.161926 0.098629
0.827921 0.161926 0.098629
0.852351 0.161926 0.098629
0.875880 0.161926 0.098629
0.898420 0.161926 0.098629
0.919855 0.161926 0.098629
0.940036 0.161926 0.098629
0.958746 0.161926 0.098629
0.975647 0.161926 0.098629
0.990110 0.161926 0.098629
1.000000 0.161926 0.098629
0.000000 0.200622 0.088496
0.000000 0.200281 0.087586
0.009832 0.199834 0.086468
0.029291 0.199281 0.085169
0.050574 0.198617 0.083698
0.073492 0.197835 0.082058
0.098386 0.196733 0.080823
0.124602 0.195488 0.079833
0.151737 0.194222 0.078831
0.205642 0.191775 0.076913
0.262051 0.189314 0.075010
0.320579 0.186870 0.073149
0.379878 0.184685 0.072298
0.438232 0.183157 0.073096
0.496157 0.182183 0.074521
0.551518 0.181820 0.076544
0.603320 0.182048 0.079096
0.651646 0.182819 0.082127
0.696578 0.184084 0.085582
0.738186 0.185789 0.089404
0.764110 0.187142 0.092123
0.785617 0.188451 0.094596
0.806033 0.189863 0.097141
0.827921 0.190716 0.098629
0.852351 0.190716 0.098629
0.875880 0.190716 0.098629
0.898420 0.190716 0.098629
0.919855 0.190716 0.098629
0.940036 0.190716 0.098629
0.958746 0.190716 0.098629
0.975647 0.190716 0.098629
0.990110 0.190716 0.098629
1.000000 0.190716 0.098629
0.000000 0.231610 0.084723
0.000000 0.231358 0.083717
0.006645 0.231015 0.082485
0.025759 0.230578 0.081059
0.046667 0.230039 0.079452
0.069188 0.229390 0.077666
0.093841 0.228356 0.076457
0.119898 0.227147 0.075586
0.146868 0.225918 0.074707
0.200442 0.223545 0.073034
0.256501 0.221161 0.071389
0.314664 0.218798 0.069798
0.374628 0.216483 0.068286
0.436031 0.214260 0.066984
0.495068 0.212915 0.068815
0.551533 0.212183 0.071241
0.604412 0.212050 0.074186
0.653786 0.212471 0.077599
0.699733 0.213397 0.081425
0.742322 0.214775 0.085605
0.768879 0.215916 0.088555
0.790925 0.217045 0.091225
0.811866 0.218282 0.093961
0.831706 0.219612 0.096746
0.852351 0.220547 0.098629
0.875880 0.220547 0.098629
0.898420 0.220547 0.098629
0.919855 0.220547 0.098629
0.940036 0.220547 0.098629
0.958746 0.220547 0.098629
0.975647 0.220547 0.098629
0.990110 0.220547 0.098629
1.000000 0.220547 0.098629
0.000000 0.268804 0.080889
0.000000 0.268658 0.079766
0.003521 0.268441 0.078397
0.022216 0.268143 0.076818
0.042672 0.267756 0.075046
0.064712 0.267267 0.073085
0.089075 0.266317 0.071907
0.114939 0.265150 0.071178
0.141708 0.263966 0.070448
0.194881 0.261682 0.069071
0.250517 0.259392 0.067739
0.308238 0.257128 0.066475
0.367742 0.254915 0.065304
0.428781 0.252776 0.064243
0.491100 0.250734 0.063312
0.550822 0.249200 0.064096
0.605004 0.248632 0.067517
0.655645 0.248630 0.071393
0.702820 0.249145 0.075667
0.746595 0.250126 0.080280
0.773917 0.251012 0.083510
0.796616 0.251924 0.086417
0.818192 0.252948 0.089385
0.838647 0.254072 0.092395
0.857979 0.255282 0.095428
0.876178 0.256560 0.098462
0.898420 0.256632 0.098629
0.919855 0.256632 0.098629
0.940036 0.256632 0.098629
0.958746 0.256632 0.098629
0.975647 0.256632 0.098629
0.990110 0.256632 0.098629
1.000000 0.256632 0.098629
0.000000 0.306913 0.077765
0.000000 0.306877 0.076522
0.001132 0.306790 0.075011
0.019394 0.306637 0.073275
0.039383 0.306406 0.071332
0.060925 0.306083 0.069189
0.084988 0.305219 0.068044
0.110653 0.304097 0.067462
0.137214 0.302959 0.066885
0.189973 0.300767 0.065815
0.245173 0.298575 0.064806
0.302436 0.296412 0.063881
0.361465 0.294305 0.063060
0.422012 0.292276 0.062364
0.483824 0.290346 0.061808
0.544687 0.288591 0.061419
0.603421 0.287038 0.061196
0.656726 0.286338 0.064137
0.705170 0.286429 0.068875
0.750171 0.287001 0.073935
0.778285 0.287623 0.077454
0.801658 0.288309 0.080608
0.823890 0.289114 0.083815
0.844982 0.290025 0.087057
0.864930 0.291029 0.090315
0.883722 0.292109 0.093566
0.901338 0.293248 0.096785
0.919855 0.293929 0.098629
0.940036 0.293929 0.098629
0.958746 0.293929 0.098629
0.975647 0.293929 0.098629
0.990110 0.293929 0.098629
1.000000 0.293929 0.098629
0.000000 0.345819 0.075441
0.000000 0.345896 0.074074
0.000000 0.345943 0.072416
0.017380 0.345939 0.070517
0.036887 0.345868 0.068398
0.057917 0.345717 0.066069
0.081671 0.344941 0.064956
0.107130 0.343865 0.064527
0.133478 0.342775 0.064108
0.185810 0.340678 0.063354
0.240559 0.338586 0.062677
0.297352 0.336528 0.062100
0.355892 0.334529 0.061642
0.415932 0.332613 0.061321
0.477221 0.330800 0.061151
0.537564 0.329161 0.061147
0.595792 0.327720 0.061299
0.651854 0.326468 0.061595
0.705683 0.325393 0.062022
0.752963 0.325346 0.066506
0.781892 0.325695 0.070323
0.805959 0.326149 0.073730
0.828867 0.326728 0.077184
0.850615 0.327421 0.080666
0.871198 0.328212 0.084155
0.890601 0.329088 0.087629
0.908802 0.330032 0.091061
0.925760 0.331023 0.094420
0.941414 0.332041 0.097666
0.958746 0.332354 0.098629
0.975647 0.332354 0.098629
0.990110 0.332354 0.098629
1.000000 0.332354 0.098629
0.000000 0.385417 0.073996
0.000000 0.385610 0.072502
0.000000 0.385795 0.070694
0.016255 0.385944 0.068628
0.035267 0.386039 0.066328
0.055770 0.386063 0.063806
0.079207 0.385379 0.062728
0.104454 0.384350 0.062455
0.130582 0.383308 0.062199
0.182476 0.381308 0.061769
0.236764 0.379319 0.061434
0.293073 0.377369 0.061215
0.351109 0.375483 0.061129
0.410628 0.373682 0.061193
0.471380 0.371989 0.061421
0.531190 0.370468 0.061811
0.588898 0.369143 0.062348
0.644454 0.368004 0.063019
0.697792 0.367038 0.063809
0.748828 0.366237 0.064702
0.781521 0.365788 0.065347
0.809217 0.365447 0.065939
0.833038 0.365752 0.069427
0.855460 0.366219 0.073155
0.876694 0.366793 0.076882
0.896725 0.367459 0.080585
0.915527 0.368201 0.084236
0.933057 0.369002 0.087804
0.949249 0.369840 0.091247
0.963990 0.370690 0.094512
0.977083 0.371518 0.097522
0.990110 0.371833 0.098629
1.000000 0.371833 0.098629
0.000000 0.425615 0.073508
0.000000 0.425928 0.071883
0.000000 0.426254 0.069921
0.016094 0.426560 0.067684
0.034599 0.426824 0.065199
0.054563 0.427029 0.062481
0.077673 0.426437 0.061438
0.102704 0.425456 0.061325
0.128608 0.424465 0.061235
0.180052 0.422565 0.061137
0.233865 0.420682 0.061153
0.289679 0.418842 0.061301
0.347199 0.417070 0.061596
0.406185 0.415389 0.062055
0.466386 0.413818 0.062690
0.525648 0.412419 0.063485
0.582823 0.411213 0.064417
0.637860 0.410189 0.065471
0.690696 0.409335 0.066633
0.741246 0.408642 0.067886
0.773626 0.408262 0.068763
0.801054 0.407981 0.069552
0.827606 0.407745 0.070357
0.853242 0.407551 0.071174
0.877914 0.407396 0.071996
0.901563 0.407277 0.072819
0.921428 0.407726 0.076247
0.939545 0.408331 0.080028
0.956288 0.408985 0.083673
0.971541 0.409664 0.087124
0.985096 0.410338 0.090303
0.996526 0.410960 0.093069
1.000000 0.411410 0.094984
0.000000 0.466325 0.074050
0.000000 0.466761 0.072291
0.000560 0.467231 0.070171
0.016970 0.467697 0.067759
0.034956 0.468135 0.065085
0.054368 0.468524 0.062165
0.077145 0.468028 0.061157
0.101955 0.467096 0.061208
0.127628 0.466156 0.061288
0.178613 0.464359 0.061531
0.231941 0.462583 0.061906
0.287247 0.460856 0.062429
0.344240 0.459202 0.063115
0.402679 0.457642 0.063977
0.462317 0.456197 0.065029
0.521019 0.454923 0.066238
0.577648 0.453838 0.067574
0.632155 0.452932 0.069021
0.684476 0.452193 0.070563
0.734530 0.451610 0.072183
0.766589 0.451302 0.073297
0.793744 0.451081 0.074288
0.820030 0.450904 0.075290
0.845408 0.450767 0.076298
0.869831 0.450668 0.077305
0.893239 0.450603 0.078306
0.915558 0.450569 0.079292
0.936690 0.450562 0.080256
0.956500 0.450578 0.081186
0.974793 0.450613 0.082069
0.991258 0.450661 0.082882
1.000000 0.450953 0.084791
1.000000 0.451310 0.086807
0.000000 0.506561 0.075640
0.000000 0.507118 0.073749
0.002965 0.507733 0.071471
0.018895 0.508359 0.068884
0.036363 0.508970 0.066021
0.055223 0.509543 0.062899
0.077668 0.509142 0.061928
0.102256 0.508260 0.062142
0.127700 0.507371 0.062392
0.178225 0.505676 0.062975
0.231069 0.504008 0.063708
0.285868 0.502394 0.064605
0.342334 0.500857 0.065681
0.400228 0.499419 0.066947
0.459304 0.498098 0.068415
0.517447 0.496949 0.070038
0.573531 0.495985 0.071776
0.627508 0.495197 0.073615
0.679316 0.494572 0.075537
0.728874 0.494100 0.077524
0.760612 0.493863 0.078875
0.787494 0.493703 0.080069
0.813515 0.493585 0.081267
0.838635 0.493506 0.082465
0.862809 0.493462 0.083656
0.885977 0.493450 0.084834
0.908066 0.493467 0.085991
0.928980 0.493509 0.087117
0.948584 0.493571 0.088199
0.966686 0.493648 0.089223
0.982978 0.493734 0.090164
0.996874 0.493820 0.090981
1.000000 0.493886 0.091546
0.000000 0.545643 0.078222
0.000000 0.546321 0.076199
0.006345 0.547076 0.073768
0.021805 0.547860 0.071008
0.038764 0.548641 0.067959
0.057083 0.549395 0.064640
0.079202 0.549088 0.063704
0.103573 0.548254 0.064079
0.128790 0.547414 0.064496
0.178865 0.545820 0.065412
0.231234 0.544258 0.066496
0.285536 0.542754 0.067762
0.341485 0.541333 0.069220
0.398843 0.540013 0.070882
0.457368 0.538816 0.072758
0.514962 0.537788 0.074787
0.570511 0.536944 0.076921
0.623968 0.536271 0.079145
0.675271 0.535759 0.081440
0.724342 0.535395 0.083787
0.755766 0.535228 0.085371
0.782381 0.535128 0.086762
0.808141 0.535068 0.088153
0.833008 0.535045 0.089538
0.856937 0.535055 0.090910
0.879870 0.535096 0.092263
0.901734 0.535163 0.093586
0.922433 0.535253 0.094871
0.941835 0.535360 0.096103
0.959750 0.535479 0.097264
0.975873 0.535602 0.098330
0.990110 0.535639 0.098629
1.000000 0.535639 0.098629
0.000000 0.583561 0.081734
0.000000 0.584357 0.079583
0.010639 0.585251 0.076999
0.025638 0.586189 0.074072
0.042098 0.587136 0.070841
0.059887 0.588068 0.067328
0.081686 0.587852 0.066426
0.105844 0.587065 0.066959
0.130840 0.586275 0.067540
0.180474 0.584779 0.068782
0.232376 0.583321 0.070211
0.286191 0.581926 0.071837
0.341633 0.580617 0.073670
0.398467 0.579414 0.075721
0.456450 0.578337 0.077997
0.513506 0.577429 0.080423
0.568531 0.576701 0.082945
0.621479 0.576142 0.085546
0.672288 0.575740 0.088206
0.720882 0.575482 0.090907
0.751998 0.575384 0.092718
0.778350 0.575342 0.094304
0.803854 0.575339 0.095884
0.828474 0.575371 0.097452
0.852351 0.575417 0.098629
0.875880 0.575417 0.098629
0.898420 0.575417 0.098629
0.919855 0.575417 0.098629
0.940036 0.575417 0.098629
0.958746 0.575417 0.098629
0.975647 0.575417 0.098629
0.990110 0.575417 0.098629
1.000000 0.575417 0.098629
0.000000 0.620302 0.086111
0.002882 0.621212 0.083835
0.015783 0.622242 0.081103
0.030331 0.623331 0.078011
0.046303 0.624441 0.074602
0.063572 0.625546 0.070900
0.085058 0.625420 0.070031
0.109007 0.624680 0.070718
0.133788 0.623938 0.071459
0.182988 0.622538 0.073021
0.234435 0.621181 0.074788
0.287773 0.619892 0.076767
0.342719 0.618694 0.078967
0.399039 0.617606 0.081397
0.456493 0.616647 0.084065
0.513022 0.615856 0.086881
0.567534 0.615242 0.089783
0.619983 0.614794 0.092752
0.670308 0.614500 0.095770
0.718480 0.614351 0.098629
0.749880 0.614351 0.098629
0.776631 0.614351 0.098629
0.802661 0.614351 0.098629
0.827921 0.614351 0.098629
0.852351 0.614351 0.098629
0.875880 0.614351 0.098629
0.898420 0.614351 0.098629
0.919855 0.614351 0.098629
0.940036 0.614351 0.098629
0.958746 0.614351 0.098629
0.975647 0.614351 0.098629
0.990110 0.614351 0.098629
1.000000 0.614351 0.098629
0.000000 0.655848 0.091288
0.009205 0.656870 0.088889
0.021709 0.658033 0.086012
0.035815 0.659269 0.082759
0.051310 0.660538 0.079176
0.068073 0.661813 0.075289
0.089252 0.661774 0.074453
0.112998 0.661080 0.075291
0.137567 0.660385 0.076188
0.186345 0.659079 0.078063
0.237346 0.657821 0.080159
0.290218 0.656636 0.082483
0.344679 0.655546 0.085041
0.400497 0.654569 0.087843
0.457433 0.653725 0.090893
0.513448 0.653049 0.094090
0.567459 0.652547 0.097363
0.619477 0.652399 0.098629
0.669836 0.652399 0.098629
0.718480 0.652399 0.098629
0.749880 0.652399 0.098629
0.776631 0.652399 0.098629
0.802661 0.652399 0.098629
0.827921 0.652399 0.098629
0.852351 0.652399 0.098629
0.875880 0.652399 0.098629
0.898420 0.652399 0.098629
0.919855 0.652399 0.098629
0.940036 0.652399 0.098629
0.958746 0.652399 0.098629
0.975647 0.652399 0.098629
0.990110 0.652399 0.098629
1.000000 0.652399 0.098629
0.005189 0.686140 0.096452
0.015354 0.687259 0.093947
0.027517 0.688536 0.090946
0.041243 0.689898 0.087554
0.056328 0.691305 0.083821
0.072655 0.692726 0.079775
0.093570 0.692763 0.078968
0.117141 0.692107 0.079935
0.141528 0.691452 0.080966
0.189943 0.690228 0.083110
0.240561 0.689055 0.085490
0.293031 0.687959 0.088110
0.347075 0.686961 0.090977
0.402462 0.686081 0.094098
0.458953 0.685336 0.097478
0.514094 0.685126 0.098629
0.567527 0.685126 0.098629
0.619477 0.685126 0.098629
0.669836 0.685126 0.098629
0.718480 0.685126 0.098629
0.749880 0.685126 0.098629
0.776631 0.685126 0.098629
0.802661 0.685126 0.098629
0.827921 0.685126 0.098629
0.852351 0.685126 0.098629
0.875880 0.685126 0.098629
0.898420 0.685126 0.098629
0.919855 0.685126 0.098629
0.940036 0.685126 0.098629
0.958746 0.685126 0.098629
0.975647 0.685126 0.098629
0.990110 0.685126 0.098629
1.000000 0.685126 0.098629
0.007859 0.716016 0.098629
0.020938 0.716016 0.098629
0.033602 0.717085 0.096206
0.046970 0.718568 0.092683
0.061668 0.720104 0.088809
0.077582 0.721662 0.084612
0.098249 0.721770 0.083832
0.121655 0.721151 0.084921
0.145870 0.720535 0.086080
0.193942 0.719386 0.088477
0.244198 0.718294 0.091124
0.296290 0.717283 0.094025
0.349941 0.716373 0.097183
0.404135 0.716016 0.098629
0.459268 0.716016 0.098629
0.514094 0.716016 0.098629
0.567527 0.716016 0.098629
0.619477 0.716016 0.098629
0.669836 0.716016 0.098629
0.718480 0.716016 0.098629
0.749880 0.716016 0.098629
0.776631 0.716016 0.098629
0.802661 0.716016 0.098629
0.827921 0.716016 0.098629
0.852351 0.716016 0.098629
0.875880 0.716016 0.098629
0.898420 0.716016 0.098629
0.919855 0.716016 0.098629
0.940036 0.716016 0.098629
0.958746 0.716016 0.098629
0.975647 0.716016 0.098629
0.990110 0.716016 0.098629
1.000000 0.716016 0.098629
0.007859 0.746148 0.098629
0.020938 0.746148 0.098629
0.036377 0.746148 0.098629
0.053121 0.746309 0.098251
0.067441 0.747972 0.094239
0.082953 0.749664 0.089895
0.103378 0.749841 0.089141
0.126623 0.749258 0.090349
0.150670 0.748679 0.091632
0.198407 0.747605 0.094277
0.248311 0.746592 0.097185
0.298989 0.746148 0.098629
0.350650 0.746148 0.098629
0.404135 0.746148 0.098629
0.459268 0.746148 0.098629
0.514094 0.746148 0.098629
0.567527 0.746148 0.098629
0.619477 0.746148 0.098629
0.669836 0.746148 0.098629
0.718480 0.746148 0.098629
0.749880 0.746148 0.098629
0.776631 0.746148 0.098629
0.802661 0.746148 0.098629
0.827921 0.746148 0.098629
0.852351 0.746148 0.098629
0.875880 0.746148 0.098629
0.898420 0.746148 0.098629
0.919855 0.746148 0.098629
0.940036 0.746148 0.098629
0.958746 0.746148 0.098629
0.975647 0.746148 0.098629
0.990110 0.746148 0.098629
1.000000 0.746148 0.098629
0.007859 0.775475 0.098629
0.020938 0.775475 0.098629
0.036377 0.775475 0.098629
0.053536 0.775475 0.098629
0.072085 0.775475 0.098629
0.088716 0.776705 0.095572
0.108905 0.776950 0.094843
0.131992 0.776402 0.096168
0.155877 0.775859 0.097571
0.201833 0.775475 0.098629
0.249315 0.775475 0.098629
0.298989 0.775475 0.098629
0.350650 0.775475 0.098629
0.404135 0.775475 0.098629
0.459268 0.775475 0.098629
0.514094 0.775475 0.098629
0.567527 0.775475 0.098629
0.619477 0.775475 0.098629
0.669836 0.775475 0.098629
0.718480 0.775475 0.098629
0.749880 0.775475 0.098629
0.776631 0.775475 0.098629
0.802661 0.775475 0.098629
0.827921 0.775475 0.098629
0.852351 0.775475 0.098629
0.875880 0.775475 0.098629
0.898420 0.775475 0.098629
0.919855 0.775475 0.098629
0.940036 0.775475 0.098629
0.958746 0.775475 0.098629
0.975647 0.775475 0.098629
0.990110 0.775475 0.098629
1.000000 0.775475 0.098629
0.007859 0.803943 0.098629
0.020938 0.803943 0.098629
0.036377 0.803943 0.098629
0.053536 0.803943 0.098629
0.072085 0.803943 0.098629
0.091816 0.803943 0.098629
0.112582 0.803943 0.098629
0.134275 0.803943 0.098629
0.156811 0.803943 0.098629
0.201833 0.803943 0.098629
0.249315 0.803943 0.098629
0.298989 0.803943 0.098629
0.350650 0.803943 0.098629
0.404135 0.803943 0.098629
0.459268 0.803943 0.098629
0.514094 0.803943 0.098629
0.567527 0.803943 0.098629
0.619477 0.803943 0.098629
0.669836 0.803943 0.098629
0.718480 0.803943 0.098629
0.749880 0.803943 0.098629
0.776631 0.803943 0.098629
0.802661 0.803943 0.098629
0.827921 0.803943 0.098629
0.852351 0.803943 0.098629
0.875880 0.803943 0.098629
0.898420 0.803943 0.098629
0.919855 0.803943 0.098629
0.940036 0.803943 0.098629
0.958746 0.803943 0.098629
0.975647 0.803943 0.098629
0.990110 0.803943 0.098629
1.000000 0.803943 0.098629
0.007859 0.831485 0.098629
0.020938 0.831485 0.098629
0.036377 0.831485 0.098629
0.053536 0.831485 0.098629
0.072085 0.831485 0.098629
0.091816 0.831485 0.098629
0.112582 0.831485 0.098629
0.134275 0.831485 0.098629
0.156811 0.831485 0.098629
0.201833 0.831485 0.098629
0.249315 0.831485 0.098629
0.298989 0.831485 0.098629
0.350650 0.831485 0.098629
0.404135 0.831485 0.098629
0.459268 0.831485 0.098629
0.514094 0.831485 0.098629
0.567527 0.831485 0.098629
0.619477 0.831485 0.098629
0.669836 0.831485 0.098629
0.718480 0.831485 0.098629
0.749880 0.831485 0.098629
0.776631 0.831485 0.098629
0.802661 0.831485 0.098629
0.827921 0.831485 0.098629
0.852351 0.831485 0.098629
0.875880 0.831485 0.098629
0.898420 0.831485 0.098629
0.919855 0.831485 0.098629
0.940036 0.831485 0.098629
0.958746 0.831485 0.098629
0.975647 0.831485 0.098629
0.990110 0.831485 0.098629
1.000000 0.831485 0.098629
0.007859 0.858024 0.098629
0.020938 0.858024 0.098629
0.036377 0.858024 0.098629
0.053536 0.858024 0.098629
0.072085 0.858024 0.098629
0.091816 0.858024 0.098629
0.112582 0.858024 0.098629
0.134275 0.858024 0.098629
0.156811 0.858024 0.098629
0.201833 0.858024 0.098629
0.249315 0.858024 0.098629
0.298989 0.858024 0.098629
0.350650 0.858024 0.098629
0.404135 0.858024 0.098629
0.459268 0.858024 0.098629
0.514094 0.858024 0.098629
0.567527 0.858024 0.098629
0.619477 0.858024 0.098629
0.669836 0.858024 0.098629
0.718480 0.858024 0.098629
0.749880 0.858024 0.098629
0.776631 0.858024 0.098629
0.802661 0.858024 0.098629
0.827921 0.858024 0.098629
0.852351 0.858024 0.098629
0.875880 0.858024 0.098629
0.898420 0.858024 0.098629
