luts/luts/cross_process.cube
TITLE "Cross Process"
LUT_3D_SIZE 5
DOMAIN_MIN 0.0 0.0 0.0
DOMAIN_MAX 1.0 1.0 1.0
0.004101 0.018517 0.117962
0.181259 0.011017 0.109201
0.586461 0.013916 0.096718
0.852351 0.019351 0.098629
1.000000 0.019351 0.098629
0.000000 0.231610 0.084723
0.146868 0.225918 0.074707
0.604412 0.212050 0.074186
0.852351 0.220547 0.098629
1.000000 0.220547 0.098629
0.000000 0.545643 0.078222
0.128790 0.547414 0.064496
0.570511 0.536944 0.076921
0.856937 0.535055 0.090910
1.000000 0.535639 0.098629
0.007859 0.803943 0.098629
0.156811 0.803943 0.098629
0.567527 0.803943 0.098629
0.852351 0.803943 0.098629
1.000000 0.803943 0.098629
0.007859 0.987464 0.098629
0.156811 0.987464 0.098629
0.567527 0.987464 0.098629
0.852351 0.987464 0.098629
1.000000 0.987464 0.098629
0.003465 0.017142 0.249096
0.176493 0.010301 0.245959
0.588181 0.012891 0.217447
0.852351 0.019351 0.214267
1.000000 0.019351 0.214267
0.000000 0.229672 0.222137
0.143375 0.224331 0.216353
0.604691 0.210591 0.203458
0.852968 0.220381 0.214093
1.000000 0.220547 0.214267
0.000000 0.544384 0.202258
0.119688 0.549639 0.184898
0.573181 0.537561 0.178578
0.874348 0.532078 0.184771
1.000000 0.530967 0.189713
0.007859 0.803943 0.214267
0.147558 0.807512 0.206153
0.567255 0.804119 0.213325
0.852351 0.803943 0.214267
1.000000 0.803943 0.214267
0.007859 0.987464 0.214267
0.156811 0.987464 0.214267
0.567527 0.987464 0.214267
0.852351 0.987464 0.214267
1.000000 0.987464 0.214267
0.005029 0.017374 0.450267
0.164186 0.013916 0.454466
0.591067 0.010835 0.437394
0.852351 0.019351 0.422344
1.000000 0.019351 0.422344
0.000000 0.225467 0.459659
0.145185 0.220364 0.458390
0.604982 0.207755 0.438775
0.857302 0.219021 0.422887
1.000000 0.220547 0.422344
0.000000 0.542328 0.422738
0.120276 0.546812 0.419249
0.575279 0.535965 0.396288
0.889817 0.527035 0.397259
1.000000 0.528784 0.406912
0.007859 0.803943 0.422344
0.151605 0.805726 0.420006
0.548855 0.813103 0.386580
0.857696 0.805348 0.392688
1.000000 0.803059 0.397586
0.007859 0.987464 0.422344
0.156811 0.987464 0.422344
0.556230 0.992534 0.405388
0.852178 0.987648 0.421034
1.000000 0.987464 0.422344
0.007859 0.019351 0.690592
0.156811 0.019351 0.690592
0.567527 0.019351 0.690592
0.852351 0.019351 0.690592
1.000000 0.019351 0.690592
0.005602 0.220674 0.695985
0.154270 0.219931 0.704174
0.587290 0.211651 0.720520
0.862490 0.216867 0.697193
1.000000 0.220547 0.690592
0.000000 0.540078 0.701840
0.121433 0.543567 0.716233
0.570559 0.531726 0.720429
0.889767 0.523305 0.702599
1.000000 0.526041 0.694526
0.007859 0.803943 0.690592
0.156811 0.803943 0.690592
0.533140 0.815235 0.679984
0.863034 0.803456 0.663953
1.000000 0.797160 0.660861
0.007859 0.987464 0.690592
0.156811 0.987464 0.690592
0.532132 1.000000 0.669283
0.839440 0.995087 0.653099
1.000000 0.989963 0.653566
0.007859 0.019351 0.923998
0.156811 0.019351 0.923998
0.567527 0.019351 0.923998
0.852351 0.019351 0.923998
1.000000 0.019351 0.923998
0.007859 0.220547 0.923998
0.156811 0.220547 0.923998
0.567527 0.220547 0.923998
0.852351 0.220547 0.923998
1.000000 0.220547 0.923998
0.000546 0.537027 0.931787
0.145231 0.537502 0.939642
0.567270 0.532580 0.955065
0.879843 0.523793 0.960389
1.000000 0.523287 0.949488
0.007859 0.803943 0.923998
0.156811 0.803943 0.923998
0.531854 0.811559 0.953597
0.859399 0.799405 0.948194
1.000000 0.793239 0.938815
0.007859 0.987464 0.923998
0.156811 0.987464 0.923998
0.533500 0.997259 0.927169
0.828028 0.995422 0.916792
1.000000 0.987969 0.907806
