luts/luts/day_for_night.cube
TITLE "Day for Night"
LUT_3D_SIZE 5
DOMAIN_MIN 0.0 0.0 0.0
DOMAIN_MAX 1.0 1.0 1.0
0.000000 0.000000 0.030000
0.085859 0.006838 0.034528
0.241570 0.018690 0.042544
0.414126 0.031827 0.051683
0.567850 0.043532 0.060064
0.020812 0.109287 0.046054
0.110638 0.116126 0.050833
0.266289 0.127977 0.059296
0.438776 0.141114 0.068956
0.592434 0.152819 0.077825
0.063524 0.298691 0.076050
0.153284 0.305529 0.081321
0.308816 0.317381 0.090675
0.481163 0.330518 0.101392
0.634685 0.342223 0.111284
0.109756 0.505929 0.112633
0.199422 0.512767 0.118608
0.354774 0.524619 0.129313
0.526869 0.537761 0.141942
0.680148 0.549605 0.154107
0.149958 0.689205 0.150249
0.239509 0.696158 0.157469
0.394708 0.708282 0.170228
0.566732 0.721811 0.184675
0.720012 0.733936 0.197780
0.000000 0.002493 0.120432
0.088462 0.009331 0.124986
0.244167 0.021183 0.133046
0.416716 0.034320 0.142238
0.570433 0.046025 0.150668
0.023407 0.111780 0.136576
0.113229 0.118619 0.141383
0.268873 0.130470 0.149895
0.441353 0.143607 0.159613
0.595003 0.155312 0.168536
0.066095 0.301184 0.166750
0.155850 0.308022 0.172054
0.311374 0.319874 0.181468
0.483711 0.333011 0.192259
0.637223 0.344716 0.202225
0.112293 0.508422 0.203585
0.201953 0.515260 0.209610
0.357291 0.527112 0.220420
0.529362 0.540272 0.233282
0.682641 0.552142 0.245538
0.152451 0.691736 0.241657
0.242002 0.698701 0.248918
0.397201 0.710842 0.261736
0.569225 0.724388 0.276237
0.722505 0.736527 0.289386
0.003120 0.006814 0.277179
0.092970 0.013652 0.281777
0.248664 0.025504 0.289917
0.421202 0.038640 0.299201
0.574907 0.050345 0.307717
0.027900 0.116101 0.293482
0.117715 0.122939 0.298337
0.273348 0.134791 0.306936
0.445814 0.147927 0.316755
0.599452 0.159633 0.325774
0.070546 0.305504 0.323969
0.160294 0.312343 0.329331
0.315804 0.324195 0.338853
0.488123 0.337331 0.349776
0.641617 0.349036 0.359874
0.116684 0.512742 0.361254
0.206332 0.519581 0.367371
0.361643 0.531432 0.378384
0.533682 0.544640 0.391638
0.686962 0.556550 0.404028
0.156772 0.696132 0.400110
0.246323 0.703117 0.407437
0.401522 0.715288 0.420352
0.573546 0.728862 0.434945
0.726826 0.741022 0.448168
0.007978 0.011467 0.446031
0.097821 0.018305 0.450677
0.253504 0.030157 0.458904
0.426028 0.043293 0.468289
0.579721 0.054999 0.476898
0.032734 0.120754 0.462508
0.122542 0.127593 0.467415
0.278163 0.139444 0.476109
0.450614 0.152581 0.486039
0.604238 0.164286 0.495164
0.075335 0.310158 0.493337
0.165074 0.316996 0.498764
0.320568 0.328848 0.508406
0.492867 0.341984 0.519476
0.646341 0.353689 0.529728
0.121405 0.517395 0.531130
0.211038 0.524234 0.537355
0.366312 0.536086 0.548650
0.538336 0.549362 0.562253
0.691615 0.561310 0.574769
0.161425 0.700882 0.570815
0.250976 0.707887 0.578207
0.406175 0.720087 0.591220
0.578199 0.733689 0.605909
0.731479 0.745872 0.619208
0.012230 0.015544 0.593992
0.102068 0.022382 0.598682
0.257740 0.034234 0.606985
0.430252 0.047370 0.616459
0.583934 0.059075 0.625153
0.036966 0.124831 0.610623
0.126768 0.131670 0.615577
0.282377 0.143521 0.624356
0.454815 0.156658 0.634386
0.608426 0.168363 0.643607
0.079525 0.314235 0.641760
0.169257 0.321073 0.647245
0.324736 0.332925 0.656996
0.497017 0.346061 0.668202
0.650472 0.357766 0.678596
0.125534 0.521472 0.680020
0.215152 0.528311 0.686353
0.370388 0.540185 0.698002
0.542412 0.553514 0.711777
0.695692 0.565492 0.724393
0.165502 0.705055 0.720410
0.255053 0.712075 0.727855
0.410252 0.724300 0.740950
0.582276 0.737926 0.755718
0.735556 0.750129 0.769083
