luts/luts/day_for_night.cube
TITLE "Day for Night"
LUT_3D_SIZE 33
DOMAIN_MIN 0.0 0.0 0.0
DOMAIN_MAX 1.0 1.0 1.0
0.000000 0.000000 0.030000
0.000000 0.000239 0.030157
0.004720 0.000664 0.030436
0.014392 0.001400 0.030921
0.026306 0.002306 0.031519
0.039602 0.003318 0.032189
0.054053 0.004418 0.032918
0.069508 0.005594 0.033699
0.085859 0.006838 0.034528
0.103022 0.008145 0.035401
0.120932 0.009508 0.036315
0.139535 0.010924 0.037267
0.158785 0.012389 0.038255
0.178644 0.013900 0.039278
0.199080 0.015456 0.040335
0.220064 0.017053 0.041424
0.241570 0.018690 0.042544
0.263575 0.020365 0.043694
0.285869 0.022062 0.044864
0.307932 0.023742 0.046026
0.329728 0.025401 0.047178
0.351252 0.027040 0.048321
0.372498 0.028657 0.049453
0.393459 0.030253 0.050574
0.414126 0.031827 0.051683
0.434494 0.033377 0.052781
0.454552 0.034905 0.053865
0.474292 0.036408 0.054936
0.493704 0.037886 0.055993
0.512778 0.039338 0.057035
0.531502 0.040764 0.058062
0.549864 0.042162 0.059071
0.567850 0.043532 0.060064
0.000000 0.003817 0.030546
0.000007 0.004056 0.030704
0.005588 0.004481 0.030984
0.015260 0.005217 0.031469
0.027174 0.006123 0.032069
0.040470 0.007135 0.032739
0.054921 0.008235 0.033469
0.070376 0.009411 0.034252
0.086726 0.010656 0.035083
0.103890 0.011962 0.035958
0.121799 0.013325 0.036873
0.140401 0.014741 0.037827
0.159651 0.016206 0.038817
0.179511 0.017718 0.039842
0.199946 0.019273 0.040901
0.220930 0.020870 0.041991
0.242435 0.022507 0.043113
0.264440 0.024182 0.044266
0.286734 0.025880 0.045438
0.308796 0.027559 0.046602
0.330592 0.029218 0.047757
0.352116 0.030857 0.048902
0.373362 0.032474 0.050036
0.394322 0.034070 0.051159
0.414990 0.035644 0.052271
0.435356 0.037195 0.053370
0.455414 0.038722 0.054457
0.475154 0.040225 0.055530
0.494566 0.041703 0.056589
0.513640 0.043155 0.057633
0.532364 0.044581 0.058661
0.550725 0.045979 0.059673
0.568711 0.047349 0.060667
0.000000 0.010604 0.031520
0.001551 0.010843 0.031678
0.007132 0.011268 0.031959
0.016804 0.012004 0.032446
0.028718 0.012911 0.033048
0.042013 0.013923 0.033720
0.056463 0.015022 0.034453
0.071918 0.016199 0.035239
0.088268 0.017443 0.036072
0.105431 0.018749 0.036950
0.123340 0.020112 0.037868
0.141942 0.021528 0.038825
0.161192 0.022993 0.039819
0.181050 0.024505 0.040847
0.201486 0.026060 0.041909
0.222469 0.027658 0.043004
0.243974 0.029295 0.044129
0.265978 0.030970 0.045286
0.288272 0.032667 0.046462
0.310333 0.034346 0.047630
0.332128 0.036006 0.048789
0.353652 0.037644 0.049937
0.374897 0.039262 0.051075
0.395857 0.040857 0.052202
0.416524 0.042431 0.053318
0.436890 0.043982 0.054421
0.456948 0.045509 0.055511
0.476687 0.047012 0.056588
0.496099 0.048490 0.057650
0.515172 0.049942 0.058698
0.533895 0.051368 0.059730
0.552256 0.052766 0.060745
0.570241 0.054136 0.061743
0.001087 0.022367 0.033216
0.004226 0.022606 0.033375
0.009806 0.023031 0.033657
0.019478 0.023767 0.034147
0.031391 0.024673 0.034752
0.044686 0.025685 0.035429
0.059136 0.026785 0.036166
0.074590 0.027961 0.036956
0.090940 0.029206 0.037794
0.108102 0.030512 0.038677
0.126010 0.031875 0.039600
0.144611 0.033291 0.040563
0.163860 0.034756 0.041562
0.183718 0.036267 0.042597
0.204153 0.037823 0.043665
0.225135 0.039420 0.044766
0.246639 0.041057 0.045898
0.268642 0.042732 0.047061
0.290935 0.044429 0.048244
0.312995 0.046109 0.049419
0.334790 0.047768 0.050585
0.356313 0.049407 0.051740
0.377557 0.051024 0.052885
0.398516 0.052620 0.054019
0.419182 0.054194 0.055141
0.439547 0.055744 0.056250
0.459604 0.057272 0.057347
0.479342 0.058775 0.058430
0.498753 0.060253 0.059499
0.517825 0.061705 0.060553
0.536548 0.063131 0.061591
0.554908 0.064529 0.062613
0.572892 0.065899 0.063617
0.004381 0.036857 0.035318
0.007519 0.037096 0.035478
0.013099 0.037521 0.035763
0.022770 0.038257 0.036256
0.034683 0.039164 0.036865
0.047977 0.040175 0.037547
0.062427 0.041275 0.038289
0.077880 0.042451 0.039085
0.094229 0.043696 0.039929
0.111390 0.045002 0.040818
0.129298 0.046365 0.041748
0.147898 0.047781 0.042718
0.167145 0.049246 0.043724
0.187003 0.050758 0.044766
0.207436 0.052313 0.045842
0.228417 0.053910 0.046951
0.249920 0.055547 0.048091
0.271922 0.057222 0.049263
0.294214 0.058920 0.050454
0.316273 0.060599 0.051638
0.338067 0.062258 0.052812
0.359588 0.063897 0.053976
0.380831 0.065515 0.055129
0.401789 0.067110 0.056271
0.422454 0.068684 0.057401
0.442818 0.070235 0.058519
0.462874 0.071762 0.059624
0.482611 0.073265 0.060715
0.502021 0.074743 0.061792
0.521092 0.076195 0.062854
0.539814 0.077621 0.063900
0.558173 0.079019 0.064929
0.576156 0.080389 0.065941
0.008054 0.053028 0.037682
0.011192 0.053267 0.037843
0.016772 0.053691 0.038130
0.026442 0.054427 0.038627
0.038354 0.055334 0.039241
0.051648 0.056346 0.039928
0.066096 0.057446 0.040676
0.081549 0.058622 0.041478
0.097897 0.059866 0.042330
0.115057 0.061172 0.043226
0.132964 0.062536 0.044163
0.151563 0.063951 0.045141
0.170809 0.065417 0.046155
0.190665 0.066928 0.047205
0.211097 0.068484 0.048290
0.232077 0.070081 0.049408
0.253579 0.071718 0.050557
0.275580 0.073393 0.051738
0.297870 0.075090 0.052940
0.319928 0.076770 0.054133
0.341721 0.078429 0.055317
0.363241 0.080067 0.056490
0.384483 0.081685 0.057653
0.405439 0.083281 0.058804
0.426103 0.084854 0.059944
0.446466 0.086405 0.061071
0.466520 0.087932 0.062185
0.486257 0.089435 0.063285
0.505665 0.090913 0.064371
0.524735 0.092366 0.065442
0.543456 0.093792 0.066497
0.561813 0.095190 0.067535
0.579795 0.096559 0.068555
0.012043 0.070603 0.040272
0.015181 0.070842 0.040435
0.020760 0.071267 0.040724
0.030430 0.072003 0.041226
0.042342 0.072909 0.041845
0.055634 0.073921 0.042538
0.070082 0.075021 0.043293
0.085534 0.076197 0.044102
0.101880 0.077442 0.044960
0.119040 0.078748 0.045864
0.136945 0.080111 0.046810
0.155543 0.081527 0.047796
0.174789 0.082992 0.048819
0.194643 0.084503 0.049879
0.215074 0.086059 0.050973
0.236053 0.087656 0.052101
0.257553 0.089293 0.053261
0.279553 0.090968 0.054452
0.301842 0.092665 0.055664
0.323898 0.094345 0.056868
0.345689 0.096004 0.058062
0.367208 0.097643 0.059246
0.388448 0.099260 0.060419
0.409403 0.100856 0.061581
0.430066 0.102430 0.062731
0.450428 0.103980 0.063868
0.470481 0.105508 0.064993
0.490215 0.107011 0.066103
0.509623 0.108489 0.067199
0.528691 0.109941 0.068279
0.547410 0.111367 0.069344
0.565767 0.112765 0.070391
0.583748 0.114135 0.071421
0.016306 0.089400 0.043068
0.019444 0.089639 0.043232
0.025023 0.090064 0.043524
0.034692 0.090800 0.044030
0.046603 0.091707 0.044655
0.059895 0.092719 0.045355
0.074341 0.093818 0.046116
0.089792 0.094994 0.046933
0.106138 0.096239 0.047800
0.123296 0.097545 0.048712
0.141200 0.098908 0.049667
0.159797 0.100324 0.050662
0.179041 0.101789 0.051695
0.198894 0.103301 0.052765
0.219324 0.104856 0.053869
0.240301 0.106454 0.055007
0.261800 0.108091 0.056178
0.283798 0.109766 0.057381
0.306085 0.111463 0.058605
0.328140 0.113142 0.059820
0.349930 0.114802 0.061026
0.371447 0.116440 0.062222
0.392686 0.118058 0.063406
0.413640 0.119653 0.064579
0.434300 0.121227 0.065740
0.454661 0.122778 0.066889
0.474712 0.124305 0.068024
0.494446 0.125808 0.069145
0.513851 0.127286 0.070252
0.532919 0.128738 0.071343
0.551636 0.130164 0.072418
0.569992 0.131562 0.073476
0.587971 0.132932 0.074516
0.020812 0.109287 0.046054
0.023950 0.109526 0.046219
0.029529 0.109951 0.046514
0.039197 0.110687 0.047026
0.051107 0.111594 0.047657
0.064398 0.112605 0.048363
0.078844 0.113705 0.049132
0.094293 0.114881 0.049957
0.110638 0.116126 0.050833
0.127795 0.117432 0.051754
0.145698 0.118795 0.052719
0.164293 0.120211 0.053724
0.183536 0.121676 0.054767
0.203388 0.123188 0.055847
0.223816 0.124743 0.056963
0.244791 0.126340 0.058113
0.266289 0.127977 0.059296
0.288286 0.129652 0.060511
0.310571 0.131350 0.061747
0.332624 0.133029 0.062975
0.354412 0.134688 0.064193
0.375928 0.136327 0.065401
0.397165 0.137945 0.066597
0.418117 0.139540 0.067783
0.438776 0.141114 0.068956
0.459135 0.142665 0.070116
0.479185 0.144192 0.071263
0.498917 0.145695 0.072397
0.518321 0.147173 0.073515
0.537387 0.148625 0.074618
0.556103 0.150051 0.075704
0.574457 0.151449 0.076774
0.592434 0.152819 0.077825
0.025539 0.130163 0.049220
0.028676 0.130402 0.049387
0.034254 0.130826 0.049685
0.043922 0.131562 0.050202
0.055831 0.132469 0.050840
0.069121 0.133481 0.051554
0.083566 0.134581 0.052331
0.099014 0.135757 0.053165
0.115357 0.137001 0.054049
0.132513 0.138307 0.054980
0.150415 0.139671 0.055955
0.169009 0.141086 0.056971
0.188250 0.142552 0.058025
0.208100 0.144063 0.059117
0.228527 0.145619 0.060245
0.249501 0.147216 0.061407
0.270996 0.148853 0.062602
0.292991 0.150528 0.063831
0.315275 0.152225 0.065080
0.337327 0.153905 0.066321
0.359112 0.155564 0.067553
0.380626 0.157202 0.068774
0.401862 0.158820 0.069983
0.422812 0.160416 0.071182
0.443470 0.161989 0.072368
0.463827 0.163540 0.073541
0.483875 0.165067 0.074701
0.503605 0.166570 0.075847
0.523008 0.168048 0.076978
0.542072 0.169501 0.078093
0.560786 0.170927 0.079192
0.579138 0.172325 0.080273
0.597115 0.173694 0.081336
0.030466 0.151947 0.052559
0.033603 0.152185 0.052729
0.039181 0.152610 0.053030
0.048848 0.153346 0.053552
0.060756 0.154253 0.054197
0.074045 0.155265 0.054919
0.088488 0.156364 0.055705
0.103935 0.157541 0.056547
0.120278 0.158785 0.057442
0.137432 0.160091 0.058383
0.155332 0.161454 0.059369
0.173924 0.162870 0.060396
0.193164 0.164335 0.061462
0.213013 0.165847 0.062566
0.233438 0.167402 0.063706
0.254410 0.169000 0.064882
0.275904 0.170637 0.066091
0.297897 0.172312 0.067333
0.320179 0.174009 0.068597
0.342228 0.175688 0.069852
0.364012 0.177348 0.071098
0.385524 0.178986 0.072333
0.406758 0.180604 0.073556
0.427706 0.182200 0.074769
0.448362 0.183773 0.075968
0.468717 0.185324 0.077156
0.488764 0.186851 0.078329
0.508492 0.188354 0.079488
0.527893 0.189832 0.080633
0.546955 0.191285 0.081761
0.565668 0.192710 0.082873
0.584018 0.194109 0.083968
0.601993 0.195478 0.085044
0.035578 0.174573 0.056067
0.038715 0.174812 0.056238
0.044293 0.175237 0.056543
0.053959 0.175973 0.057071
0.065866 0.176880 0.057724
0.079154 0.177892 0.058453
0.093596 0.178991 0.059248
0.109042 0.180167 0.060101
0.125383 0.181412 0.061006
0.142535 0.182718 0.061958
0.160434 0.184081 0.062955
0.179025 0.185497 0.063994
0.198263 0.186962 0.065073
0.218110 0.188474 0.066190
0.238533 0.190029 0.067344
0.259503 0.191627 0.068533
0.280995 0.193264 0.069756
0.302986 0.194939 0.071013
0.325266 0.196636 0.072292
0.347314 0.198315 0.073563
0.369096 0.199975 0.074823
0.390606 0.201613 0.076073
0.411838 0.203231 0.077312
0.432784 0.204826 0.078539
0.453438 0.206400 0.079753
0.473791 0.207951 0.080955
0.493835 0.209478 0.082143
0.513562 0.210981 0.083317
0.532961 0.212459 0.084476
0.552021 0.213911 0.085619
0.570732 0.215337 0.086745
0.589080 0.216735 0.087853
0.607053 0.218105 0.088942
0.040863 0.197988 0.059739
0.044000 0.198227 0.059912
0.049577 0.198652 0.060221
0.059242 0.199388 0.060756
0.071149 0.200295 0.061416
0.084435 0.201307 0.062154
0.098876 0.202406 0.062959
0.114320 0.203583 0.063822
0.130660 0.204827 0.064738
0.147811 0.206133 0.065702
0.165708 0.207496 0.066711
0.184297 0.208912 0.067762
0.203533 0.210377 0.068855
0.223379 0.211889 0.069985
0.243800 0.213444 0.071153
0.264768 0.215042 0.072357
0.286258 0.216679 0.073596
0.308247 0.218354 0.074868
0.330525 0.220051 0.076163
0.352570 0.221730 0.077450
0.374350 0.223390 0.078726
0.395858 0.225028 0.079992
0.417088 0.226646 0.081247
0.438032 0.228242 0.082489
0.458684 0.229815 0.083720
0.479035 0.231366 0.084937
0.499077 0.232893 0.086141
0.518801 0.234396 0.087330
0.538198 0.235874 0.088504
0.557257 0.237327 0.089662
0.575965 0.238752 0.090803
0.594312 0.240151 0.091926
0.612283 0.241520 0.093030
0.046310 0.222145 0.063574
0.049446 0.222384 0.063750
0.055023 0.222809 0.064062
0.064687 0.223545 0.064603
0.076592 0.224452 0.065272
0.089877 0.225464 0.066020
0.104317 0.226563 0.066834
0.119760 0.227740 0.067708
0.136098 0.228984 0.068635
0.153247 0.230290 0.069612
0.171143 0.231653 0.070634
0.189730 0.233069 0.071699
0.208964 0.234534 0.072805
0.228808 0.236046 0.073950
0.249227 0.237601 0.075133
0.270193 0.239199 0.076353
0.291681 0.240836 0.077607
0.313668 0.242511 0.078897
0.335943 0.244208 0.080208
0.357986 0.245887 0.081512
0.379764 0.247547 0.082806
0.401270 0.249185 0.084088
0.422497 0.250803 0.085360
0.443439 0.252398 0.086619
0.464088 0.253972 0.087866
0.484437 0.255523 0.089100
0.504477 0.257050 0.090320
0.524200 0.258553 0.091526
0.543594 0.260031 0.092716
0.562651 0.261484 0.093890
0.581357 0.262909 0.095048
0.599702 0.264308 0.096187
0.617670 0.265677 0.097307
0.051908 0.247004 0.067571
0.055044 0.247243 0.067749
0.060620 0.247668 0.068065
0.070283 0.248404 0.068613
0.082187 0.249310 0.069291
0.095471 0.250322 0.070048
0.109909 0.251422 0.070874
0.125351 0.252598 0.071759
0.141687 0.253843 0.072698
0.158835 0.255149 0.073687
0.176728 0.256512 0.074723
0.195314 0.257928 0.075802
0.214546 0.259393 0.076923
0.234387 0.260905 0.078084
0.254804 0.262460 0.079283
0.275768 0.264057 0.080519
0.297254 0.265694 0.081791
0.319238 0.267369 0.083097
0.341511 0.269066 0.084427
0.363552 0.270746 0.085749
0.385327 0.272405 0.087060
0.406831 0.274044 0.088361
0.428056 0.275661 0.089650
0.448995 0.277257 0.090928
0.469642 0.278831 0.092193
0.489989 0.280381 0.093444
0.510027 0.281909 0.094682
0.529746 0.283412 0.095905
0.549139 0.284890 0.097113
0.568193 0.286342 0.098305
0.586897 0.287768 0.099479
0.605239 0.289166 0.100635
0.623205 0.290536 0.101772
0.057648 0.272530 0.071729
0.060784 0.272768 0.071909
0.066359 0.273193 0.072230
0.076022 0.273929 0.072786
0.087925 0.274836 0.073472
0.101207 0.275848 0.074240
0.115644 0.276947 0.075077
0.131084 0.278124 0.075974
0.147418 0.279368 0.076926
0.164564 0.280674 0.077929
0.182456 0.282037 0.078979
0.201039 0.283453 0.080073
0.220270 0.284918 0.081210
0.240109 0.286430 0.082387
0.260524 0.287985 0.083602
0.281485 0.289583 0.084856
0.302968 0.291220 0.086146
0.324950 0.292895 0.087471
0.347221 0.294592 0.088820
0.369259 0.296271 0.090161
0.391032 0.297931 0.091492
0.412532 0.299569 0.092812
0.433755 0.301187 0.094120
0.454692 0.302783 0.095416
0.475336 0.304356 0.096700
0.495680 0.305907 0.097971
0.515716 0.307434 0.099228
0.535433 0.308937 0.100470
0.554823 0.310415 0.101696
0.573874 0.311868 0.102907
0.592576 0.313293 0.104100
0.610916 0.314692 0.105275
0.628880 0.316061 0.106430
0.063524 0.298691 0.076050
0.066660 0.298930 0.076232
0.072234 0.299354 0.076557
0.081896 0.300090 0.077121
0.093797 0.300997 0.077817
0.107079 0.302009 0.078596
0.121513 0.303109 0.079445
0.136952 0.304285 0.080355
0.153284 0.305529 0.081321
0.170428 0.306836 0.082338
0.188318 0.308199 0.083403
0.206899 0.309615 0.084513
0.226128 0.311080 0.085666
0.245964 0.312591 0.086860
0.266377 0.314147 0.088094
0.287336 0.315744 0.089366
0.308816 0.317381 0.090675
0.330796 0.319056 0.092020
0.353063 0.320753 0.093390
0.375099 0.322433 0.094751
0.396869 0.324092 0.096102
0.418367 0.325731 0.097442
0.439587 0.327348 0.098771
0.460521 0.328944 0.100088
0.481163 0.330518 0.101392
0.501504 0.332068 0.102683
0.521537 0.333595 0.103960
0.541251 0.335098 0.105223
0.560638 0.336577 0.106470
0.579687 0.338029 0.107700
0.598386 0.339455 0.108913
0.616723 0.340853 0.110108
0.634685 0.342223 0.111284
0.069527 0.325454 0.080533
0.072662 0.325692 0.080718
0.078236 0.326117 0.081048
0.087896 0.326853 0.081620
0.099796 0.327760 0.082326
0.113076 0.328772 0.083116
0.127509 0.329871 0.083978
0.142946 0.331048 0.084901
0.159276 0.332292 0.085881
0.176419 0.333598 0.086914
0.194306 0.334961 0.087995
0.212885 0.336377 0.089122
0.232111 0.337842 0.090292
0.251945 0.339354 0.091505
0.272355 0.340910 0.092757
0.293312 0.342507 0.094049
0.314789 0.344144 0.095379
0.336766 0.345819 0.096746
0.359031 0.347516 0.098137
0.381064 0.349195 0.099520
0.402830 0.350855 0.100893
0.424326 0.352493 0.102255
0.445542 0.354111 0.103606
0.466474 0.355707 0.104944
0.487113 0.357280 0.106271
0.507451 0.358831 0.107584
0.527481 0.360358 0.108883
0.547192 0.361861 0.110168
0.566576 0.363339 0.111436
0.585622 0.364792 0.112689
0.604319 0.366217 0.113924
0.622653 0.367616 0.115141
0.640611 0.368985 0.116338
0.075527 0.352247 0.085087
0.078662 0.352486 0.085275
0.084236 0.352911 0.085610
0.093895 0.353647 0.086191
0.105793 0.354554 0.086908
0.119072 0.355565 0.087710
0.133503 0.356665 0.088584
0.148938 0.357841 0.089521
0.165266 0.359086 0.090517
0.182406 0.360392 0.091565
0.200292 0.361755 0.092663
0.218868 0.363171 0.093807
0.238092 0.364636 0.094996
0.257924 0.366148 0.096227
0.278331 0.367703 0.097500
0.299285 0.369300 0.098812
0.320759 0.370937 0.100163
0.342733 0.372612 0.101552
0.364995 0.374310 0.102966
0.387024 0.375989 0.104373
0.408788 0.377648 0.105769
0.430280 0.379287 0.107154
0.451494 0.380904 0.108528
0.472422 0.382500 0.109890
0.493058 0.384074 0.111240
0.513393 0.385625 0.112576
0.533420 0.387152 0.113899
0.553128 0.388655 0.115207
0.572509 0.390133 0.116500
0.591552 0.391585 0.117776
0.610245 0.393011 0.119036
0.628576 0.394409 0.120276
0.646531 0.395779 0.121498
0.081447 0.378717 0.089654
0.084581 0.378956 0.089845
0.090154 0.379381 0.090185
0.099812 0.380117 0.090774
0.111709 0.381023 0.091502
0.124986 0.382035 0.092316
0.139415 0.383135 0.093204
0.154848 0.384311 0.094156
0.171174 0.385556 0.095166
0.188312 0.386862 0.096231
0.206195 0.388225 0.097346
0.224770 0.389641 0.098508
0.243991 0.391106 0.099716
0.263820 0.392617 0.100967
0.284224 0.394173 0.102260
0.305175 0.395770 0.103594
0.326647 0.397407 0.104968
0.348617 0.399082 0.106380
0.370876 0.400779 0.107818
0.392902 0.402459 0.109248
0.414663 0.404118 0.110668
0.436152 0.405757 0.112078
0.457362 0.407374 0.113477
0.478287 0.408970 0.114863
0.498920 0.410544 0.116238
0.519252 0.412094 0.117600
0.539275 0.413622 0.118948
0.558980 0.415125 0.120281
0.578357 0.416603 0.121600
0.597397 0.418055 0.122902
0.616086 0.419481 0.124187
0.634414 0.420879 0.125454
0.652365 0.422249 0.126702
0.087283 0.404856 0.094232
0.090417 0.405094 0.094426
0.095989 0.405519 0.094771
0.105645 0.406255 0.095369
0.117541 0.407162 0.096108
0.130816 0.408174 0.096935
0.145244 0.409273 0.097836
0.160675 0.410450 0.098803
0.176999 0.411694 0.099830
0.194135 0.413000 0.100911
0.212015 0.414363 0.102044
0.230587 0.415779 0.103225
0.249805 0.417244 0.104452
0.269632 0.418756 0.105724
0.290033 0.420311 0.107039
0.310981 0.421909 0.108395
0.332450 0.423546 0.109792
0.354417 0.425221 0.111228
0.376673 0.426918 0.112691
0.398696 0.428597 0.114147
0.420453 0.430257 0.115593
0.441938 0.431895 0.117028
0.463145 0.433513 0.118453
0.484067 0.435109 0.119867
0.504695 0.436682 0.121268
0.525024 0.438233 0.122657
0.545043 0.439760 0.124032
0.564745 0.441263 0.125394
0.584118 0.442741 0.126741
0.603154 0.444194 0.128072
0.621839 0.445619 0.129387
0.640163 0.447018 0.130684
0.658110 0.448387 0.131963
0.093034 0.430655 0.098820
0.096167 0.430894 0.099017
0.101739 0.431318 0.099367
0.111394 0.432054 0.099975
0.123288 0.432961 0.100725
0.136561 0.433973 0.101565
0.150987 0.435073 0.102481
0.166416 0.436249 0.103463
0.182738 0.437493 0.104506
0.199871 0.438799 0.105605
0.217750 0.440163 0.106756
0.236319 0.441578 0.107957
0.255534 0.443044 0.109205
0.275358 0.444555 0.110498
0.295757 0.446111 0.111835
0.316701 0.447708 0.113215
0.338167 0.449345 0.114636
0.360131 0.451020 0.116099
0.382382 0.452717 0.117588
0.404402 0.454397 0.119071
0.426155 0.456056 0.120544
0.447637 0.457694 0.122008
0.468840 0.459312 0.123461
0.489758 0.460908 0.124903
0.510383 0.462481 0.126334
0.530707 0.464032 0.127753
0.550722 0.465559 0.129160
0.570419 0.467062 0.130553
0.589789 0.468540 0.131933
0.608819 0.469993 0.133298
0.627500 0.471419 0.134648
0.645819 0.472817 0.135983
0.663761 0.474186 0.137302
0.098698 0.456106 0.103416
0.101831 0.456345 0.103616
0.107401 0.456770 0.103972
0.117056 0.457506 0.104590
0.128948 0.458412 0.105352
0.142220 0.459424 0.106205
0.156644 0.460524 0.107136
0.172070 0.461700 0.108134
0.188390 0.462945 0.109195
0.205521 0.464251 0.110312
0.223396 0.465614 0.111482
0.241963 0.467030 0.112703
0.261176 0.468495 0.113973
0.280996 0.470006 0.115289
0.301391 0.471562 0.116650
0.322333 0.473159 0.118055
0.343795 0.474796 0.119502
0.365755 0.476471 0.120992
0.388003 0.478168 0.122511
0.410018 0.479848 0.124023
0.431768 0.481507 0.125527
0.453245 0.483146 0.127021
0.474444 0.484763 0.128506
0.495358 0.486359 0.129981
0.515978 0.487933 0.131446
0.536298 0.489483 0.132900
0.556308 0.491011 0.134343
0.576000 0.492514 0.135776
0.595364 0.493992 0.137198
0.614388 0.495444 0.138610
0.633061 0.496870 0.140017
0.651371 0.498272 0.141428
0.669307 0.499649 0.142822
0.104273 0.481201 0.108021
0.107405 0.481439 0.108224
0.112975 0.481864 0.108586
0.122628 0.482600 0.109213
0.134519 0.483507 0.109988
0.147788 0.484519 0.110856
0.162210 0.485618 0.111802
0.177635 0.486795 0.112817
0.193952 0.488039 0.113895
0.211080 0.489345 0.115032
0.228953 0.490708 0.116223
0.247517 0.492124 0.117466
0.266726 0.493589 0.118758
0.286544 0.495101 0.120098
0.306936 0.496656 0.121485
0.327874 0.498254 0.122917
0.349332 0.499891 0.124393
0.371288 0.501566 0.125913
0.393531 0.503263 0.127464
0.415543 0.504942 0.129009
0.437288 0.506602 0.130547
0.458760 0.508240 0.132076
0.479954 0.509858 0.133599
0.500862 0.511454 0.135113
0.521477 0.513027 0.136621
0.541790 0.514578 0.138122
0.561793 0.516105 0.139620
0.581476 0.517611 0.141130
0.600832 0.519096 0.142633
0.619851 0.520559 0.144121
0.638522 0.521998 0.145589
0.656832 0.523411 0.147037
0.674767 0.524797 0.148461
0.109756 0.505929 0.112633
0.112888 0.506167 0.112839
0.118457 0.506592 0.113207
0.128109 0.507328 0.113845
0.139998 0.508235 0.114633
0.153266 0.509247 0.115516
0.167685 0.510346 0.116478
0.183107 0.511523 0.117511
0.199422 0.512767 0.118608
0.216548 0.514073 0.119765
0.234418 0.515436 0.120979
0.252978 0.516852 0.122245
0.272184 0.518317 0.123562
0.291998 0.519829 0.124929
0.312386 0.521384 0.126343
0.333320 0.522982 0.127805
0.354774 0.524619 0.129313
0.376726 0.526294 0.130868
0.398964 0.527991 0.132455
0.420970 0.529670 0.134039
0.442710 0.531330 0.135619
0.464176 0.532968 0.137194
0.485363 0.534586 0.138768
0.506263 0.536182 0.140349
0.526869 0.537761 0.141942
0.547175 0.539322 0.143526
0.567175 0.540862 0.145096
0.586857 0.542380 0.146649
0.606213 0.543876 0.148185
0.625232 0.545347 0.149700
0.643903 0.546793 0.151193
0.662213 0.548212 0.152663
0.680148 0.549605 0.154107
0.115146 0.530280 0.117251
0.118278 0.530518 0.117461
0.123846 0.530943 0.117835
0.133496 0.531679 0.118485
0.145383 0.532586 0.119287
0.158649 0.533598 0.120185
0.173066 0.534697 0.121165
0.188485 0.535874 0.122217
0.204798 0.537118 0.123336
0.221920 0.538424 0.124515
0.239787 0.539787 0.125752
0.258344 0.541203 0.127044
0.277546 0.542668 0.128388
0.297356 0.544180 0.129785
0.317740 0.545735 0.131231
0.338669 0.547333 0.132727
0.360118 0.548970 0.134274
0.382064 0.550645 0.135870
0.404297 0.552342 0.137505
0.426295 0.554021 0.139144
0.448025 0.555682 0.140800
0.469483 0.557328 0.142464
0.490664 0.558958 0.144120
0.511562 0.560568 0.145764
0.532168 0.562158 0.147394
0.552474 0.563728 0.149009
0.572474 0.565276 0.150605
0.592156 0.566802 0.152183
0.611512 0.568304 0.153741
0.630531 0.569781 0.155277
0.649202 0.571233 0.156789
0.667512 0.572658 0.158277
0.685447 0.574055 0.159739
0.120439 0.554242 0.121877
0.123570 0.554481 0.122091
0.129137 0.554906 0.122472
0.138786 0.555642 0.123134
0.150671 0.556549 0.123951
0.163934 0.557561 0.124866
0.178349 0.558660 0.125865
0.193766 0.559837 0.126938
0.210075 0.561081 0.128080
0.227194 0.562387 0.129284
0.245057 0.563750 0.130548
0.263610 0.565166 0.131869
0.282809 0.566631 0.133246
0.302614 0.568143 0.134677
0.322992 0.569698 0.136163
0.343916 0.571296 0.137704
0.365357 0.572933 0.139305
0.387294 0.574610 0.140980
0.409518 0.576315 0.142706
0.431511 0.578008 0.144427
0.453240 0.579683 0.146139
0.474698 0.581340 0.147839
0.495879 0.582978 0.149525
0.516776 0.584596 0.151196
0.537382 0.586194 0.152850
0.557689 0.587770 0.154487
0.577688 0.589325 0.156105
