luts/luts/day_for_night.cube
TITLE "Day for Night"
LUT_3D_SIZE 9
DOMAIN_MIN 0.0 0.0 0.0
DOMAIN_MAX 1.0 1.0 1.0
0.000000 0.000000 0.030000
0.026306 0.002306 0.031519
0.085859 0.006838 0.034528
0.158785 0.012389 0.038255
0.241570 0.018690 0.042544
0.329728 0.025401 0.047178
0.414126 0.031827 0.051683
0.493704 0.037886 0.055993
0.567850 0.043532 0.060064
0.004381 0.036857 0.035318
0.034683 0.039164 0.036865
0.094229 0.043696 0.039929
0.167145 0.049246 0.043724
0.249920 0.055547 0.048091
0.338067 0.062258 0.052812
0.422454 0.068684 0.057401
0.502021 0.074743 0.061792
0.576156 0.080389 0.065941
0.020812 0.109287 0.046054
0.051107 0.111594 0.047657
0.110638 0.116126 0.050833
0.183536 0.121676 0.054767
0.266289 0.127977 0.059296
0.354412 0.134688 0.064193
0.438776 0.141114 0.068956
0.518321 0.147173 0.073515
0.592434 0.152819 0.077825
0.040863 0.197988 0.059739
0.071149 0.200295 0.061416
0.130660 0.204827 0.064738
0.203533 0.210377 0.068855
0.286258 0.216679 0.073596
0.374350 0.223390 0.078726
0.458684 0.229815 0.083720
0.538198 0.235874 0.088504
0.612283 0.241520 0.093030
0.063524 0.298691 0.076050
0.093797 0.300997 0.077817
0.153284 0.305529 0.081321
0.226128 0.311080 0.085666
0.308816 0.317381 0.090675
0.396869 0.324092 0.096102
0.481163 0.330518 0.101392
0.560638 0.336577 0.106470
0.634685 0.342223 0.111284
0.087283 0.404856 0.094232
0.117541 0.407162 0.096108
0.176999 0.411694 0.099830
0.249805 0.417244 0.104452
0.332450 0.423546 0.109792
0.420453 0.430257 0.115593
0.504695 0.436682 0.121268
0.584118 0.442741 0.126741
0.658110 0.448387 0.131963
0.109756 0.505929 0.112633
0.139998 0.508235 0.114633
0.199422 0.512767 0.118608
0.272184 0.518317 0.123562
0.354774 0.524619 0.129313
0.442710 0.531330 0.135619
0.526869 0.537761 0.141942
0.606213 0.543876 0.148185
0.680148 0.549605 0.154107
0.130722 0.600955 0.131160
0.160942 0.603261 0.133324
0.220318 0.607793 0.137656
0.293007 0.613358 0.143209
0.375523 0.619726 0.149732
0.463405 0.626546 0.156807
0.547547 0.633106 0.163681
0.626892 0.639315 0.170240
0.700827 0.645119 0.176413
0.149958 0.689205 0.150249
0.180159 0.691546 0.152671
0.239509 0.696158 0.157469
0.312192 0.701825 0.163409
0.394708 0.708282 0.170228
0.482590 0.715182 0.177572
0.566732 0.721811 0.184675
0.646077 0.728080 0.191433
0.720012 0.733936 0.197780
0.000000 0.000841 0.060497
0.027185 0.003147 0.062020
0.086737 0.007679 0.065034
0.159662 0.013230 0.068768
0.242446 0.019531 0.073065
0.330603 0.026242 0.077708
0.415000 0.032667 0.082222
0.494577 0.038726 0.086540
0.568721 0.044372 0.090619
0.005259 0.037698 0.065825
0.035561 0.040004 0.067375
0.095105 0.044537 0.070445
0.168021 0.050087 0.074247
0.250794 0.056388 0.078623
0.338940 0.063099 0.083353
0.423326 0.069525 0.087951
0.502892 0.075584 0.092351
0.577026 0.081230 0.096507
0.021687 0.110128 0.076581
0.051982 0.112434 0.078188
0.111512 0.116967 0.081370
0.184409 0.122517 0.085312
0.267160 0.128818 0.089849
0.355282 0.135529 0.094756
0.439645 0.141955 0.099529
0.519189 0.148014 0.104097
0.593301 0.153660 0.108416
0.041735 0.198829 0.090294
0.072020 0.201136 0.091974
0.131530 0.205668 0.095302
0.204403 0.211218 0.099427
0.287126 0.217519 0.104178
0.375216 0.224230 0.109319
0.459548 0.230656 0.114323
0.539062 0.236715 0.119118
0.613145 0.242361 0.123655
0.064391 0.299532 0.106637
0.094664 0.301838 0.108408
0.154150 0.306370 0.111919
0.226992 0.311921 0.116274
0.309679 0.318222 0.121294
0.397730 0.324933 0.126733
0.482022 0.331358 0.132036
0.561496 0.337417 0.137126
0.635541 0.343063 0.141952
0.088145 0.405696 0.124859
0.118402 0.408003 0.126739
0.177859 0.412535 0.130470
0.250664 0.418085 0.135103
0.333307 0.424386 0.140456
0.421308 0.431097 0.146273
0.505548 0.437523 0.151964
0.584968 0.443582 0.157455
0.658958 0.449228 0.162696
0.110612 0.506769 0.143305
0.140853 0.509076 0.145310
0.200276 0.513608 0.149297
0.273036 0.519158 0.154265
0.355623 0.525459 0.160036
0.443555 0.532170 0.166369
0.527709 0.538607 0.172744
0.607054 0.544727 0.179005
0.680989 0.550460 0.184941
0.131570 0.601796 0.161890
0.161789 0.604102 0.164063
0.221162 0.608634 0.168419
0.293848 0.614205 0.174015
0.376364 0.620578 0.180556
0.464245 0.627403 0.187646
0.548388 0.633966 0.194531
0.627733 0.640178 0.201099
0.701668 0.645985 0.207281
0.150799 0.690058 0.181075
0.181000 0.692400 0.183501
0.240350 0.697015 0.188309
0.313033 0.702685 0.194258
0.395549 0.709145 0.201088
0.483430 0.716049 0.208441
0.567573 0.722680 0.215553
0.646918 0.728951 0.222319
0.720853 0.734810 0.228673
0.000000 0.002493 0.120432
0.028911 0.004799 0.121960
0.088462 0.009331 0.124986
0.161385 0.014882 0.128734
0.244167 0.021183 0.133046
0.332321 0.027894 0.137707
0.416716 0.034320 0.142238
0.496291 0.040379 0.146573
0.570433 0.046025 0.150668
0.006983 0.039350 0.125780
0.037284 0.041657 0.127336
0.096828 0.046189 0.130417
0.169741 0.051739 0.134233
0.252513 0.058040 0.138625
0.340656 0.064751 0.143373
0.425039 0.071177 0.147989
0.504603 0.077236 0.152406
0.578735 0.082882 0.156579
0.023407 0.111780 0.136576
0.053700 0.114087 0.138189
0.113229 0.118619 0.141383
0.186124 0.124169 0.145340
0.268873 0.130470 0.149895
0.356992 0.137181 0.154821
0.441353 0.143607 0.159613
0.520894 0.149666 0.164199
0.595003 0.155312 0.168536
0.043447 0.200481 0.150341
0.073731 0.202788 0.152028
0.133239 0.207320 0.155369
0.206110 0.212870 0.159511
0.288831 0.219172 0.164281
0.376918 0.225883 0.169443
0.461248 0.232308 0.174468
0.540758 0.238367 0.179283
0.614839 0.244013 0.183840
0.066095 0.301184 0.166750
0.096366 0.303490 0.168528
0.155850 0.308022 0.172054
0.228690 0.313573 0.176427
0.311374 0.319874 0.181468
0.399422 0.326585 0.186932
0.483711 0.333011 0.192259
0.563182 0.339070 0.197374
0.637223 0.344716 0.202225
0.089838 0.407349 0.185049
0.120094 0.409655 0.186938
0.179549 0.414187 0.190686
0.252351 0.419737 0.195342
0.334990 0.426039 0.200722
0.422987 0.432750 0.206569
0.507223 0.439175 0.212294
0.586638 0.445234 0.217820
0.660622 0.450880 0.223102
0.112293 0.508422 0.203585
0.142533 0.510728 0.205601
0.201953 0.515260 0.209610
0.274709 0.520810 0.214609
0.357291 0.527112 0.220420
0.445215 0.533823 0.226811
0.529362 0.540272 0.233282
0.608706 0.546402 0.239578
0.682641 0.552142 0.245538
0.133235 0.603448 0.222289
0.163451 0.605754 0.224481
0.222817 0.610286 0.228894
0.295500 0.615872 0.234562
0.378016 0.622255 0.241136
0.465898 0.629088 0.248252
0.550040 0.635658 0.255160
0.629385 0.641876 0.261747
0.703320 0.647687 0.267945
0.152451 0.691736 0.241657
0.182652 0.694081 0.244093
0.242002 0.698701 0.248918
0.314685 0.704377 0.254886
0.397201 0.710842 0.261736
0.485083 0.717752 0.269108
0.569225 0.724388 0.276237
0.648570 0.730664 0.283018
0.722505 0.736527 0.289386
0.000721 0.004516 0.193836
0.031025 0.006823 0.195371
0.090574 0.011355 0.198411
0.163494 0.016905 0.202176
0.246273 0.023207 0.206508
0.334425 0.029918 0.211191
0.418817 0.036343 0.215743
0.498389 0.042402 0.220098
0.572529 0.048048 0.224213
0.009094 0.041374 0.199208
0.039395 0.043680 0.200771
0.098936 0.048212 0.203867
0.171848 0.053763 0.207701
0.254616 0.060064 0.212113
0.342756 0.066775 0.216884
0.427137 0.073200 0.221521
0.506698 0.079259 0.225959
0.580827 0.084905 0.230153
0.025511 0.113804 0.210055
0.055804 0.116110 0.211675
0.115330 0.120642 0.214883
0.188223 0.126193 0.218859
0.270969 0.132494 0.223436
0.359085 0.139205 0.228386
0.443443 0.145630 0.233201
0.522980 0.151689 0.237811
0.597087 0.157335 0.242169
0.045543 0.202505 0.223884
0.075826 0.204811 0.225579
0.135332 0.209343 0.228937
0.208200 0.214894 0.233099
0.290917 0.221195 0.237892
0.379002 0.227906 0.243081
0.463328 0.234331 0.248132
0.542835 0.240391 0.252972
0.616912 0.246037 0.257554
0.068180 0.303207 0.240374
0.098450 0.305514 0.242161
0.157932 0.310046 0.245705
0.230769 0.315596 0.250101
0.313449 0.321897 0.255169
0.401493 0.328608 0.260664
0.485778 0.335034 0.266021
0.565244 0.341093 0.271167
0.639282 0.346739 0.276048
0.091910 0.409372 0.258770
0.122165 0.411678 0.260670
0.181617 0.416210 0.264439
0.254415 0.421761 0.269122
0.337050 0.428062 0.274535
0.425041 0.434773 0.280422
0.509272 0.441198 0.286188
0.588681 0.447258 0.291760
0.662658 0.452904 0.297097
0.114351 0.510445 0.277417
0.144589 0.512751 0.279448
0.204004 0.517283 0.283485
0.276755 0.522834 0.288522
0.359330 0.529135 0.294386
0.447243 0.535846 0.300865
0.531385 0.542315 0.307436
0.610730 0.548456 0.313769
0.684665 0.554205 0.319756
0.135272 0.605471 0.296275
0.165485 0.607778 0.298494
0.224841 0.612317 0.303006
0.297523 0.617918 0.308724
0.380040 0.624312 0.315334
0.467921 0.631154 0.322482
0.552064 0.637732 0.329416
0.631408 0.643956 0.336026
0.705343 0.649774 0.342243
0.154475 0.693793 0.315858
0.184676 0.696142 0.318305
0.244026 0.700768 0.323150
0.316708 0.706450 0.329142
0.399225 0.712923 0.336014
0.487106 0.719840 0.343410
0.571249 0.726482 0.350560
0.650593 0.732763 0.357359
0.724528 0.738631 0.363743
0.003120 0.006814 0.277179
0.033423 0.009120 0.278722
0.092970 0.013652 0.281777
0.165888 0.019202 0.285562
0.248664 0.025504 0.289917
0.336813 0.032215 0.294625
0.421202 0.038640 0.299201
0.500770 0.044699 0.303580
0.574907 0.050345 0.307717
0.011490 0.043671 0.282579
0.041790 0.045977 0.284151
0.101329 0.050509 0.287262
0.174238 0.056060 0.291116
0.257003 0.062361 0.295552
0.345139 0.069072 0.300348
0.429517 0.075497 0.305011
0.509075 0.081557 0.309473
0.583200 0.087203 0.313690
0.027900 0.116101 0.293482
0.058191 0.118407 0.295111
0.117715 0.122939 0.298337
0.190605 0.128490 0.302334
0.273348 0.134791 0.306936
0.361460 0.141502 0.311913
0.445814 0.147927 0.316755
0.525348 0.153987 0.321391
0.599452 0.159633 0.325774
0.047921 0.204802 0.307387
0.078203 0.207108 0.309091
0.137707 0.211641 0.312467
0.210572 0.217191 0.316652
0.293285 0.223492 0.321473
0.381366 0.230203 0.326691
0.465688 0.236629 0.331772
0.545191 0.242688 0.336642
0.619264 0.248334 0.341253
0.070546 0.305504 0.323969
0.100815 0.307811 0.325767
0.160294 0.312343 0.329331
0.233127 0.317893 0.333753
0.315804 0.324195 0.338853
0.403843 0.330906 0.344382
0.488123 0.337331 0.349776
0.567584 0.343390 0.354957
0.641617 0.349036 0.359874
0.094261 0.411669 0.342477
0.124515 0.413975 0.344388
0.183963 0.418508 0.348182
0.256757 0.424058 0.352898
0.339387 0.430359 0.358350
0.427372 0.437070 0.364282
0.511596 0.443496 0.370099
0.590998 0.449555 0.375727
0.664965 0.455201 0.381135
0.116684 0.512742 0.361254
0.146920 0.515048 0.363300
0.206332 0.519581 0.367371
0.279076 0.525131 0.372455
0.361643 0.531432 0.378384
0.449540 0.538152 0.385005
0.533682 0.544640 0.391638
0.613027 0.550792 0.398010
0.686962 0.556550 0.404028
0.137581 0.607768 0.380299
0.167788 0.610075 0.382561
0.227138 0.614631 0.387172
0.299820 0.620245 0.392935
0.382337 0.626650 0.399584
0.470218 0.633503 0.406766
0.554361 0.640089 0.413729
0.633705 0.646321 0.420363
0.707641 0.652145 0.426602
0.156772 0.696132 0.400110
0.186973 0.698485 0.402570
0.246323 0.703117 0.407437
0.319005 0.708808 0.413453
0.401522 0.715288 0.420352
0.489403 0.722212 0.427773
0.573546 0.728862 0.434945
0.652890 0.735149 0.441766
0.726826 0.741022 0.448168
0.005616 0.009203 0.363889
0.035918 0.011510 0.365440
0.095462 0.016042 0.368512
0.168377 0.021592 0.372317
0.251150 0.027893 0.376696
0.339295 0.034604 0.381430
0.423681 0.041030 0.386032
0.503246 0.047089 0.390435
0.577380 0.052735 0.394595
0.013982 0.046061 0.369318
0.044280 0.048367 0.370898
0.103817 0.052899 0.374026
0.176723 0.058449 0.377902
0.259485 0.064751 0.382362
0.347618 0.071462 0.387185
0.431992 0.077887 0.391874
0.511546 0.083946 0.396361
0.585668 0.089592 0.400603
0.030383 0.118491 0.380281
0.060673 0.120797 0.381919
0.120195 0.125329 0.385162
0.193081 0.130879 0.389182
0.275821 0.137181 0.393810
0.363930 0.143892 0.398816
0.448280 0.150317 0.403686
0.527810 0.156376 0.408349
0.601911 0.162022 0.412759
0.050394 0.207192 0.394263
0.080675 0.209498 0.395977
0.140176 0.214030 0.399372
0.213037 0.219581 0.403582
0.295747 0.225882 0.408432
0.383823 0.232593 0.413682
0.468141 0.239018 0.418795
0.547640 0.245077 0.423696
0.621709 0.250723 0.428336
0.073006 0.307894 0.410943
0.103274 0.310200 0.412751
0.162749 0.314733 0.416338
0.235579 0.320283 0.420788
0.318251 0.326584 0.425921
0.406285 0.333295 0.431487
0.490560 0.339721 0.436918
0.570017 0.345780 0.442138
0.644044 0.351426 0.447094
0.096705 0.414059 0.429569
0.126957 0.416365 0.431493
0.186402 0.420897 0.435314
0.259191 0.426448 0.440063
0.341816 0.432749 0.445558
0.429794 0.439460 0.451540
0.514010 0.445885 0.457411
0.593404 0.451944 0.463104
0.667357 0.457592 0.468619
0.119110 0.515132 0.448485
0.149344 0.517438 0.450549
0.208750 0.521970 0.454656
0.281488 0.527521 0.459792
0.364044 0.533822 0.465800
0.451929 0.540559 0.472565
0.536072 0.547063 0.479250
0.615417 0.553227 0.485659
0.689352 0.558993 0.491706
0.139976 0.610158 0.467755
0.170178 0.612473 0.470089
0.229528 0.617044 0.474752
0.302210 0.622671 0.480555
0.384727 0.629087 0.487241
0.472608 0.635950 0.494457
0.556750 0.642545 0.501448
0.636095 0.648784 0.508108
0.710030 0.654615 0.514369
0.159161 0.698570 0.487770
0.189363 0.700926 0.490242
0.248712 0.705565 0.495131
0.321395 0.711263 0.501172
0.403912 0.717751 0.508097
0.491793 0.724683 0.515544
0.575935 0.731340 0.522740
0.655280 0.737633 0.529581
0.729215 0.743512 0.536002
0.007978 0.011467 0.446031
0.038279 0.013773 0.447590
0.097821 0.018305 0.450677
0.170734 0.023856 0.454502
0.253504 0.030157 0.458904
0.341645 0.036868 0.463662
0.426028 0.043293 0.468289
0.505590 0.049353 0.472715
0.579721 0.054999 0.476898
0.016340 0.048324 0.451488
0.046637 0.050630 0.453076
0.106172 0.055163 0.456220
0.179075 0.060713 0.460116
0.261834 0.067014 0.464600
0.349964 0.073725 0.469448
0.434335 0.080151 0.474162
0.513886 0.086210 0.478674
0.588005 0.091856 0.482939
0.032734 0.120754 0.462508
0.063023 0.123060 0.464154
0.122542 0.127593 0.467415
0.195426 0.133143 0.471456
0.278163 0.139444 0.476109
0.366268 0.146155 0.481142
0.450614 0.152581 0.486039
0.530141 0.158640 0.490729
0.604238 0.164286 0.495164
0.052736 0.209455 0.476564
0.083014 0.211762 0.478288
0.142513 0.216294 0.481702
0.215372 0.221844 0.485935
0.298078 0.228146 0.490812
0.386150 0.234857 0.496093
0.470464 0.241282 0.501236
0.549959 0.247341 0.506167
0.624024 0.252987 0.510837
0.075335 0.310158 0.493337
0.105601 0.312464 0.495157
0.165074 0.316996 0.498764
0.237900 0.322547 0.503241
0.320568 0.328848 0.508406
0.408597 0.335559 0.514008
0.492867 0.341984 0.519476
0.572319 0.348043 0.524733
0.646341 0.353689 0.529728
0.099019 0.416322 0.512077
0.129269 0.418629 0.514014
0.188710 0.423161 0.517860
0.261495 0.428711 0.522644
0.344114 0.435013 0.528179
0.432086 0.441724 0.534210
0.516295 0.448149 0.540137
0.595679 0.454208 0.545900
0.669621 0.459868 0.551541
0.121405 0.517395 0.531130
0.151637 0.519702 0.533211
0.211038 0.524234 0.537355
0.283769 0.529784 0.542545
0.366312 0.536086 0.548650
0.454193 0.542846 0.555524
0.538336 0.549362 0.562253
0.617680 0.555536 0.568695
0.691615 0.561310 0.574769
0.142240 0.612430 0.550664
0.172441 0.614753 0.553027
0.231791 0.619336 0.557727
0.304474 0.624972 0.563565
0.386990 0.631399 0.570284
0.474872 0.638271 0.577531
0.559014 0.644874 0.584548
0.638359 0.651120 0.591232
0.712294 0.656957 0.597513
0.161425 0.700882 0.570815
0.191626 0.703241 0.573298
0.250976 0.707887 0.578207
0.323659 0.713591 0.584271
0.406175 0.720087 0.591220
0.494057 0.727026 0.598691
0.578199 0.733689 0.605909
0.657544 0.739988 0.612769
0.731479 0.745872 0.619208
0.010190 0.013587 0.522983
0.040490 0.015894 0.524549
0.100030 0.020426 0.527652
0.172941 0.025976 0.531495
0.255707 0.032277 0.535919
0.343846 0.038988 0.540701
0.428225 0.045414 0.545350
0.507785 0.051473 0.549799
0.581912 0.057119 0.554003
0.018549 0.050445 0.528466
0.048845 0.052751 0.530062
0.108378 0.057283 0.533222
0.181278 0.062833 0.537137
0.264034 0.069135 0.541642
0.352161 0.075846 0.546515
0.436528 0.082271 0.551253
0.516076 0.088330 0.555788
0.590193 0.093976 0.560075
0.034935 0.122875 0.539540
0.065223 0.125181 0.541194
0.124741 0.129713 0.544472
0.197622 0.135263 0.548533
0.280355 0.141565 0.553209
0.368456 0.148276 0.558269
0.452799 0.154701 0.563191
0.532323 0.160760 0.567906
0.606417 0.166406 0.572366
0.054927 0.211576 0.553667
0.085205 0.213882 0.555399
0.144702 0.218414 0.558831
0.217557 0.223965 0.563087
0.300260 0.230266 0.567990
0.388328 0.236977 0.573299
0.472638 0.243402 0.578471
0.552129 0.249461 0.583431
0.626191 0.255107 0.588129
0.077515 0.312278 0.570529
0.107780 0.314584 0.572358
0.167250 0.319117 0.575986
0.240072 0.324667 0.580488
0.322736 0.330968 0.585683
0.410761 0.337679 0.591320
0.495026 0.344105 0.596824
0.574473 0.350164 0.602117
0.648490 0.355810 0.607148
0.101184 0.418443 0.589377
0.131433 0.420749 0.591326
0.190871 0.425281 0.595197
0.263652 0.430832 0.600012
0.346265 0.437133 0.605588
0.434231 0.443844 0.611667
0.518432 0.450269 0.617651
0.597806 0.456328 0.623493
0.671741 0.462006 0.629239
0.123554 0.519516 0.608561
0.153783 0.521822 0.610659
0.213179 0.526354 0.614841
0.285902 0.531905 0.620086
0.368432 0.538215 0.626318
0.456313 0.544992 0.633251
0.540456 0.551520 0.640017
0.619801 0.557702 0.646487
0.693736 0.563484 0.652585
0.144361 0.614566 0.628355
0.174562 0.616895 0.630737
0.233912 0.621486 0.635467
0.306594 0.627132 0.641335
0.389111 0.633567 0.648083
0.476992 0.640447 0.655357
0.561135 0.647058 0.662399
0.640479 0.653310 0.669104
0.714414 0.659152 0.675403
0.163546 0.703051 0.648616
0.193747 0.705413 0.651109
0.253097 0.710064 0.656036
0.325779 0.715775 0.662121
0.408296 0.722277 0.669092
0.496177 0.729223 0.676585
0.580320 0.735892 0.683823
0.659664 0.742197 0.690701
0.733599 0.748085 0.697156
0.012230 0.015544 0.593992
0.042529 0.017850 0.595565
0.102068 0.022382 0.598682
0.174976 0.027933 0.602542
0.257740 0.034234 0.606985
0.345876 0.040945 0.611789
0.430252 0.047370 0.616459
0.509809 0.053429 0.620929
0.583934 0.059075 0.625153
0.020586 0.052401 0.599500
0.050881 0.054707 0.601102
0.110412 0.059240 0.604276
0.183310 0.064790 0.608209
0.266063 0.071091 0.612735
0.354187 0.077802 0.617630
0.438551 0.084228 0.622390
0.518096 0.090287 0.626947
0.592210 0.095933 0.631254
0.036966 0.124831 0.610623
0.067253 0.127137 0.612285
0.126768 0.131670 0.615577
0.199646 0.137220 0.619658
0.282377 0.143521 0.624356
0.370475 0.150232 0.629439
0.454815 0.156658 0.634386
0.534335 0.162717 0.639124
0.608426 0.168363 0.643607
0.056949 0.213532 0.624816
0.087226 0.215839 0.626556
0.146720 0.220371 0.630005
0.219572 0.225921 0.634281
0.302272 0.232222 0.639208
0.390337 0.238933 0.644545
0.474643 0.245359 0.649744
0.554130 0.251418 0.654731
0.628189 0.257064 0.659455
0.079525 0.314235 0.641760
0.109789 0.316541 0.643599
0.169257 0.321073 0.647245
0.242076 0.326624 0.651772
0.324736 0.332925 0.656996
0.412756 0.339636 0.662665
0.497017 0.346061 0.668202
0.576460 0.352120 0.673529
0.650472 0.357766 0.678596
0.103181 0.420399 0.660710
0.133429 0.422706 0.662671
0.192864 0.427238 0.666565
0.265640 0.432788 0.671411
0.348248 0.439089 0.677024
0.436208 0.445800 0.683151
0.520401 0.452226 0.689191
0.599763 0.458289 0.695141
0.673698 0.463983 0.700945
0.125534 0.521472 0.680020
0.155760 0.523779 0.682135
0.215152 0.528311 0.686353
0.287868 0.533861 0.691657
0.370388 0.540185 0.698002
0.458270 0.546976 0.704980
0.542412 0.553514 0.711777
0.621757 0.559704 0.718273
0.695692 0.565492 0.724393
0.146317 0.616541 0.700054
0.176518 0.618874 0.702451
0.235868 0.623474 0.707207
0.308551 0.629127 0.713101
0.391067 0.635570 0.719875
0.478948 0.642458 0.727174
0.563091 0.649075 0.734238
0.642436 0.655333 0.740961
0.716371 0.661180 0.747278
0.165502 0.705055 0.720410
0.195703 0.707420 0.722911
0.255053 0.712075 0.727855
0.327736 0.717791 0.733959
0.410252 0.724300 0.740950
0.498133 0.731251 0.748463
0.582276 0.737926 0.755718
0.661621 0.744236 0.762613
0.735556 0.750129 0.769083
