luts/luts/faded_matte.cube
TITLE "Faded Matte"
LUT_3D_SIZE 5
DOMAIN_MIN 0.0 0.0 0.0
DOMAIN_MAX 1.0 1.0 1.0
0.154616 0.143911 0.152730
0.322989 0.148282 0.156900
0.491525 0.152684 0.161116
0.662008 0.157166 0.165426
0.832575 0.161682 0.169787
0.167343 0.319996 0.166668
0.335974 0.324470 0.170993
0.504785 0.328982 0.175374
0.675570 0.333586 0.179865
0.846471 0.338235 0.184426
0.181025 0.496798 0.181191
0.349999 0.501410 0.185722
0.519216 0.506084 0.190347
0.690601 0.510935 0.195119
0.862192 0.515885 0.199824
0.196928 0.681464 0.197128
0.366597 0.686382 0.201753
0.536458 0.691354 0.206330
0.708289 0.696424 0.210915
0.880199 0.701534 0.215461
0.214758 0.867024 0.212852
0.384722 0.872090 0.217330
0.554844 0.877193 0.221777
0.726917 0.882384 0.226241
0.899050 0.887605 0.230675
0.155799 0.145289 0.307163
0.324195 0.149668 0.311347
0.492755 0.154080 0.315577
0.663263 0.158573 0.319902
0.833857 0.163100 0.324279
0.168606 0.321406 0.321149
0.337264 0.325891 0.325490
0.506106 0.330415 0.329890
0.676925 0.335032 0.334402
0.847868 0.339699 0.338987
0.182391 0.498250 0.335734
0.351408 0.502878 0.340291
0.520692 0.507579 0.344956
0.692171 0.512474 0.349715
0.863801 0.517443 0.354401
0.198516 0.683011 0.351715
0.368219 0.687947 0.356323
0.538108 0.692933 0.360886
0.709965 0.698016 0.365458
0.881897 0.703137 0.369993
0.216444 0.868621 0.367391
0.386429 0.873698 0.371858
0.556572 0.878810 0.376295
0.728664 0.884011 0.380749
0.900816 0.889242 0.385173
0.156993 0.146674 0.462132
0.325412 0.151063 0.466330
0.493996 0.155485 0.470575
0.664531 0.159988 0.474916
0.835153 0.164526 0.479310
0.169881 0.322824 0.476167
0.338569 0.327320 0.480526
0.507442 0.331857 0.484944
0.678297 0.336489 0.489478
0.849284 0.341173 0.494090
0.183775 0.499711 0.490818
0.352840 0.504358 0.495403
0.522222 0.509101 0.500107
0.693760 0.514024 0.504838
0.865425 0.519012 0.509506
0.200121 0.684570 0.506829
0.369856 0.689522 0.511422
0.539773 0.694522 0.515971
0.711654 0.699617 0.520531
0.883608 0.704749 0.525054
0.218142 0.870227 0.522459
0.388149 0.875314 0.526915
0.558312 0.880437 0.531342
0.730423 0.885647 0.535787
0.902593 0.890887 0.540202
0.158281 0.148161 0.628157
0.326724 0.152560 0.632370
0.495335 0.156992 0.636631
0.665899 0.161507 0.640989
0.836552 0.166058 0.645401
0.171258 0.324346 0.642245
0.339976 0.328855 0.646623
0.508885 0.333407 0.651062
0.679781 0.338055 0.655621
0.850820 0.342759 0.660264
0.185273 0.501282 0.656968
0.354395 0.505953 0.661588
0.523890 0.510745 0.666308
0.695475 0.515693 0.671015
0.867176 0.520698 0.675665
0.201853 0.686247 0.672998
0.371620 0.691214 0.677575
0.541564 0.696228 0.682110
0.713471 0.701336 0.686658
0.885449 0.706479 0.691169
0.219970 0.871951 0.688580
0.389999 0.877049 0.693025
0.560183 0.882182 0.697441
0.732314 0.887403 0.701876
0.904503 0.892652 0.706281
0.159576 0.149652 0.794187
0.328046 0.154061 0.798415
0.496684 0.158504 0.802692
0.667277 0.163031 0.807068
0.837962 0.167594 0.811500
0.172645 0.325874 0.808330
0.341396 0.330396 0.812727
0.510341 0.334962 0.817188
0.681281 0.339627 0.821773
0.852379 0.344355 0.826452
0.186787 0.502860 0.823129
0.355979 0.507559 0.827791
0.525576 0.512398 0.832500
0.697204 0.517367 0.837186
0.868937 0.522389 0.841819
0.203596 0.687928 0.839162
0.373394 0.692911 0.843723
0.543365 0.697938 0.848245
0.715296 0.703059 0.852780
0.887297 0.708214 0.857280
0.221805 0.873678 0.854697
0.391856 0.878788 0.859132
0.562060 0.883931 0.863537
0.734212 0.889162 0.867962
0.906420 0.894421 0.872358
