luts/luts/faded_matte.cube
TITLE "Faded Matte"
LUT_3D_SIZE 33
DOMAIN_MIN 0.0 0.0 0.0
DOMAIN_MAX 1.0 1.0 1.0
0.154616 0.143911 0.152730
0.175659 0.144456 0.153249
0.196703 0.145001 0.153769
0.217748 0.145547 0.154289
0.238794 0.146093 0.154810
0.259841 0.146639 0.155331
0.280889 0.147186 0.155854
0.301939 0.147734 0.156377
0.322989 0.148282 0.156900
0.344041 0.148830 0.157424
0.365094 0.149379 0.157949
0.386148 0.149928 0.158475
0.407203 0.150478 0.159001
0.428259 0.151028 0.159529
0.449317 0.151579 0.160056
0.470375 0.152130 0.160585
0.491525 0.152684 0.161116
0.512831 0.153242 0.161652
0.534138 0.153802 0.162189
0.555447 0.154361 0.162727
0.576756 0.154921 0.163265
0.598067 0.155482 0.163804
0.619380 0.156043 0.164344
0.640693 0.156604 0.164885
0.662008 0.157166 0.165426
0.683324 0.157729 0.165968
0.704642 0.158292 0.166511
0.725960 0.158856 0.167055
0.747281 0.159420 0.167600
0.768602 0.159985 0.168145
0.789925 0.160550 0.168692
0.811249 0.161116 0.169239
0.832575 0.161682 0.169787
0.156163 0.165904 0.154446
0.177209 0.166450 0.154967
0.198257 0.166997 0.155489
0.219306 0.167544 0.156011
0.240355 0.168092 0.156534
0.261406 0.168640 0.157058
0.282458 0.169188 0.157583
0.303511 0.169737 0.158108
0.324566 0.170287 0.158634
0.345621 0.170836 0.159160
0.366678 0.171387 0.159688
0.387736 0.171938 0.160216
0.408795 0.172489 0.160744
0.429855 0.173041 0.161274
0.450916 0.173593 0.161804
0.471979 0.174146 0.162335
0.493133 0.174701 0.162869
0.514443 0.175261 0.163407
0.535754 0.175822 0.163947
0.557067 0.176383 0.164487
0.578381 0.176945 0.165027
0.599696 0.177507 0.165569
0.621012 0.178070 0.166111
0.642330 0.178633 0.166655
0.663649 0.179197 0.167199
0.684970 0.179762 0.167744
0.706292 0.180326 0.168289
0.727615 0.180892 0.168836
0.748939 0.181458 0.169383
0.770265 0.182025 0.169931
0.791593 0.182592 0.170480
0.812922 0.183159 0.171030
0.834252 0.183728 0.171581
0.157722 0.187902 0.156169
0.178772 0.188449 0.156692
0.199823 0.188998 0.157216
0.220876 0.189546 0.157741
0.241929 0.190095 0.158266
0.262984 0.190645 0.158792
0.284040 0.191195 0.159319
0.305097 0.191745 0.159847
0.326155 0.192296 0.160375
0.347214 0.192848 0.160904
0.368275 0.193400 0.161433
0.389336 0.193952 0.161964
0.410399 0.194505 0.162495
0.431464 0.195059 0.163027
0.452529 0.195612 0.163559
0.473596 0.196167 0.164093
0.494754 0.196724 0.164629
0.516068 0.197286 0.165170
0.537384 0.197848 0.165712
0.558700 0.198411 0.166255
0.580019 0.198975 0.166798
0.601338 0.199539 0.167342
0.622659 0.200103 0.167887
0.643981 0.200668 0.168433
0.665305 0.201234 0.168980
0.686630 0.201800 0.169527
0.707956 0.202367 0.170076
0.729284 0.202934 0.170625
0.750613 0.203502 0.171175
0.771944 0.204070 0.171726
0.793276 0.204639 0.172278
0.814610 0.205209 0.172830
0.835945 0.205779 0.173384
0.159293 0.209904 0.157899
0.180347 0.210454 0.158425
0.201402 0.211003 0.158951
0.222458 0.211554 0.159478
0.243515 0.212104 0.160006
0.264574 0.212655 0.160534
0.285634 0.213207 0.161063
0.306695 0.213759 0.161593
0.327757 0.214312 0.162124
0.348820 0.214865 0.162655
0.369885 0.215418 0.163187
0.390951 0.215972 0.163720
0.412018 0.216527 0.164254
0.433086 0.217082 0.164788
0.454156 0.217637 0.165323
0.475226 0.218193 0.165859
0.496389 0.218752 0.166398
0.517707 0.219316 0.166941
0.539027 0.219880 0.167486
0.560348 0.220445 0.168031
0.581671 0.221010 0.168577
0.602995 0.221576 0.169124
0.624320 0.222142 0.169672
0.645647 0.222709 0.170220
0.666975 0.223276 0.170770
0.688305 0.223844 0.171320
0.709636 0.224413 0.171871
0.730968 0.224982 0.172423
0.752302 0.225552 0.172976
0.773638 0.226122 0.173530
0.794975 0.226693 0.174085
0.816314 0.227265 0.174641
0.837654 0.227837 0.175197
0.160877 0.231912 0.159637
0.181934 0.232463 0.160165
0.202993 0.233014 0.160694
0.224053 0.233566 0.161223
0.245115 0.234118 0.161753
0.266177 0.234671 0.162284
0.287241 0.235224 0.162816
0.308306 0.235778 0.163348
0.329372 0.236332 0.163881
0.350440 0.236887 0.164415
0.371508 0.237442 0.164949
0.392578 0.237998 0.165484
0.413650 0.238554 0.166020
0.434722 0.239111 0.166557
0.455796 0.239668 0.167095
0.476871 0.240226 0.167633
0.498038 0.240786 0.168175
0.519361 0.241352 0.168721
0.540685 0.241917 0.169268
0.562011 0.242484 0.169816
0.583338 0.243051 0.170365
0.604666 0.243619 0.170915
0.625996 0.244187 0.171465
0.647328 0.244755 0.172017
0.668661 0.245325 0.172569
0.689995 0.245895 0.173122
0.711331 0.246465 0.173676
0.732669 0.247036 0.174231
0.754008 0.247608 0.174787
0.775348 0.248181 0.175344
0.796691 0.248754 0.175902
0.818034 0.249327 0.176461
0.839380 0.249902 0.177020
0.162473 0.253925 0.161383
0.183535 0.254478 0.161913
0.204598 0.255030 0.162444
0.225662 0.255584 0.162976
0.246727 0.256138 0.163508
0.267794 0.256692 0.164042
0.288862 0.257247 0.164576
0.309931 0.257802 0.165110
0.331001 0.258358 0.165646
0.352073 0.258914 0.166182
0.373146 0.259471 0.166719
0.394220 0.260029 0.167257
0.415296 0.260586 0.167796
0.436372 0.261145 0.168335
0.457451 0.261704 0.168876
0.478530 0.262263 0.169417
0.499701 0.262826 0.169961
0.521029 0.263393 0.170510
0.542358 0.263961 0.171060
0.563688 0.264529 0.171610
0.585020 0.265098 0.172162
0.606353 0.265668 0.172715
0.627688 0.266238 0.173268
0.649025 0.266808 0.173822
0.670363 0.267380 0.174378
0.691702 0.267952 0.174934
0.713043 0.268524 0.175491
0.734386 0.269097 0.176049
0.755730 0.269671 0.176608
0.777076 0.270246 0.177168
0.798423 0.270821 0.177729
0.819772 0.271397 0.178291
0.841123 0.271973 0.178854
0.164083 0.275943 0.163136
0.185149 0.276497 0.163669
0.206216 0.277052 0.164203
0.227284 0.277607 0.164737
0.248353 0.278162 0.165272
0.269424 0.278718 0.165808
0.290496 0.279275 0.166344
0.311569 0.279832 0.166881
0.332644 0.280389 0.167419
0.353720 0.280947 0.167958
0.374797 0.281506 0.168498
0.395876 0.282065 0.169039
0.416956 0.282625 0.169580
0.438037 0.283185 0.170122
0.459120 0.283746 0.170665
0.480204 0.284307 0.171209
0.501380 0.284872 0.171756
0.522712 0.285441 0.172308
0.544046 0.286010 0.172860
0.565381 0.286581 0.173414
0.586718 0.287152 0.173969
0.608056 0.287723 0.174524
0.629396 0.288295 0.175081
0.650738 0.288868 0.175638
0.672081 0.289441 0.176196
0.693425 0.290015 0.176756
0.714772 0.290590 0.177316
0.736120 0.291165 0.177877
0.757469 0.291741 0.178440
0.778821 0.292318 0.179003
0.800174 0.292896 0.179567
0.821529 0.293474 0.180133
0.842886 0.294053 0.180699
0.165706 0.297967 0.164898
0.186776 0.298523 0.165433
0.207847 0.299079 0.165969
0.228920 0.299635 0.166506
0.249993 0.300193 0.167044
0.271068 0.300750 0.167582
0.292145 0.301309 0.168121
0.313222 0.301867 0.168661
0.334301 0.302427 0.169202
0.355382 0.302987 0.169743
0.376464 0.303547 0.170286
0.397547 0.304108 0.170829
0.418631 0.304669 0.171373
0.439718 0.305232 0.171918
0.460805 0.305794 0.172464
0.481894 0.306358 0.173010
0.503075 0.306924 0.173560
0.524412 0.307495 0.174115
0.545750 0.308066 0.174671
0.567091 0.308639 0.175227
0.588432 0.309212 0.175785
0.609776 0.309785 0.176344
0.631121 0.310359 0.176903
0.652468 0.310934 0.177464
0.673816 0.311510 0.178025
0.695166 0.312086 0.178588
0.716518 0.312663 0.179152
0.737872 0.313241 0.179716
0.759227 0.313819 0.180282
0.780585 0.314398 0.180849
0.801944 0.314978 0.181417
0.823305 0.315558 0.181986
0.844668 0.316140 0.182556
0.167343 0.319996 0.166668
0.188417 0.320553 0.167206
0.209493 0.321111 0.167744
0.230569 0.321670 0.168284
0.251648 0.322229 0.168824
0.272727 0.322788 0.169365
0.293808 0.323348 0.169907
0.314890 0.323909 0.170449
0.335974 0.324470 0.170993
0.357059 0.325032 0.171537
0.378145 0.325594 0.172082
0.399233 0.326157 0.172628
0.420322 0.326720 0.173175
0.441413 0.327284 0.173723
0.462506 0.327849 0.174272
0.483600 0.328414 0.174821
0.504785 0.328982 0.175374
0.526127 0.329555 0.175932
0.547471 0.330129 0.176491
0.568817 0.330704 0.177051
0.590164 0.331279 0.177612
0.611513 0.331854 0.178173
0.632863 0.332431 0.178736
0.654216 0.333008 0.179300
0.675570 0.333586 0.179865
0.696926 0.334164 0.180431
0.718284 0.334743 0.180999
0.739643 0.335323 0.181567
0.761005 0.335904 0.182136
0.782368 0.336486 0.182707
0.803734 0.337068 0.183279
0.825102 0.337651 0.183852
0.846471 0.338235 0.184426
0.168994 0.342031 0.168446
0.190073 0.342590 0.168987
0.211153 0.343150 0.169528
0.232234 0.343710 0.170070
0.253317 0.344271 0.170613
0.274401 0.344832 0.171157
0.295486 0.345394 0.171701
0.316573 0.345956 0.172247
0.337661 0.346519 0.172793
0.358751 0.347083 0.173340
0.379842 0.347647 0.173888
0.400935 0.348212 0.174437
0.422030 0.348777 0.174987
0.443125 0.349343 0.175538
0.464223 0.349910 0.176090
0.485322 0.350477 0.176642
0.506513 0.351048 0.177199
0.527860 0.351623 0.177760
0.549210 0.352199 0.178322
0.570561 0.352775 0.178885
0.591913 0.353353 0.179449
0.613268 0.353931 0.180014
0.634624 0.354509 0.180581
0.655983 0.355089 0.181148
0.677343 0.355669 0.181717
0.698705 0.356250 0.182287
0.720069 0.356832 0.182858
0.741435 0.357414 0.183430
0.762803 0.357998 0.184003
0.784174 0.358582 0.184578
0.805546 0.359167 0.185154
0.826921 0.359754 0.185731
0.848298 0.360341 0.186310
0.170660 0.364071 0.170234
0.191743 0.364632 0.170777
0.212828 0.365194 0.171321
0.233914 0.365756 0.171866
0.255001 0.366319 0.172411
0.276090 0.366882 0.172958
0.297180 0.367446 0.173505
0.318272 0.368010 0.174054
0.339365 0.368575 0.174603
0.360460 0.369141 0.175153
0.381556 0.369707 0.175704
0.402654 0.370274 0.176256
0.423753 0.370841 0.176809
0.444855 0.371409 0.177363
0.465957 0.371978 0.177918
0.487062 0.372548 0.178474
0.508258 0.373120 0.179033
0.529611 0.373698 0.179598
0.550966 0.374276 0.180163
0.572323 0.374855 0.180730
0.593682 0.375434 0.181298
0.615043 0.376015 0.181867
0.636405 0.376596 0.182437
0.657770 0.377178 0.183008
0.679137 0.377761 0.183581
0.700505 0.378345 0.184155
0.721876 0.378929 0.184730
0.743249 0.379514 0.185306
0.764625 0.380101 0.185884
0.786003 0.380688 0.186463
0.807383 0.381276 0.187044
0.828766 0.381866 0.187626
0.850152 0.382456 0.188210
0.172341 0.386118 0.172030
0.193429 0.386681 0.172576
0.214518 0.387244 0.173123
0.235609 0.387808 0.173671
0.256701 0.388373 0.174219
0.277795 0.388938 0.174769
0.298890 0.389504 0.175319
0.319987 0.390070 0.175871
0.341085 0.390637 0.176423
0.362185 0.391205 0.176976
0.383287 0.391773 0.177530
0.404390 0.392342 0.178086
0.425495 0.392912 0.178642
0.446602 0.393482 0.179199
0.467710 0.394053 0.179757
0.488820 0.394625 0.180317
0.510022 0.395200 0.180880
0.531381 0.395780 0.181448
0.552743 0.396361 0.182017
0.574106 0.396942 0.182587
0.595471 0.397524 0.183159
0.616838 0.398107 0.183732
0.638207 0.398691 0.184306
0.659579 0.399276 0.184881
0.680953 0.399862 0.185458
0.702329 0.400448 0.186036
0.723707 0.401036 0.186616
0.745088 0.401624 0.187197
0.766472 0.402214 0.187780
0.787859 0.402805 0.188364
0.809248 0.403397 0.188950
0.830641 0.403990 0.189539
0.852037 0.404585 0.190129
0.174038 0.408171 0.173836
0.195131 0.408736 0.174385
0.216225 0.409301 0.174935
0.237321 0.409867 0.175485
0.258418 0.410434 0.176037
0.279517 0.411001 0.176590
0.300617 0.411569 0.177143
0.321719 0.412138 0.177698
0.342823 0.412707 0.178253
0.363928 0.413277 0.178810
0.385036 0.413847 0.179367
0.406144 0.414418 0.179926
0.427255 0.414990 0.180486
0.448367 0.415563 0.181046
0.469482 0.416137 0.181608
0.490598 0.416711 0.182171
0.511806 0.417288 0.182738
0.533172 0.417871 0.183310
0.554540 0.418454 0.183883
0.575910 0.419038 0.184457
0.597282 0.419623 0.185033
0.618656 0.420209 0.185610
0.640033 0.420796 0.186189
0.661412 0.421384 0.186769
0.682794 0.421972 0.187351
0.704178 0.422562 0.187934
0.725565 0.423153 0.188519
0.746956 0.423746 0.189105
0.768349 0.424339 0.189694
0.789746 0.424934 0.190285
0.811147 0.425531 0.190878
0.832553 0.426129 0.191474
0.853966 0.426731 0.192074
0.175751 0.430231 0.175652
0.196849 0.430798 0.176203
0.217948 0.431365 0.176756
0.239049 0.431933 0.177310
0.260152 0.432502 0.177865
0.281256 0.433071 0.178421
0.302362 0.433641 0.178978
0.323470 0.434212 0.179536
0.344579 0.434784 0.180095
0.365690 0.435356 0.180655
0.386803 0.435929 0.181216
0.407918 0.436502 0.181778
0.429035 0.437077 0.182341
0.450154 0.437652 0.182906
0.471274 0.438228 0.183472
0.492397 0.438805 0.184038
0.513612 0.439385 0.184609
0.534985 0.439970 0.185185
0.556360 0.440556 0.185763
0.577737 0.441143 0.186342
0.599117 0.441731 0.186922
0.620499 0.442320 0.187504
0.641885 0.442911 0.188088
0.663273 0.443502 0.188673
0.684664 0.444095 0.189260
0.706058 0.444689 0.189849
0.727456 0.445284 0.190441
0.748858 0.445881 0.191035
0.770266 0.446480 0.191632
0.791682 0.447083 0.192233
0.813108 0.447690 0.192832
0.834538 0.448299 0.193430
0.855971 0.448911 0.194026
0.177481 0.452297 0.177477
0.198585 0.452866 0.178033
0.219689 0.453436 0.178589
0.240796 0.454006 0.179146
0.261904 0.454577 0.179704
0.283014 0.455149 0.180263
0.304126 0.455721 0.180824
0.325239 0.456294 0.181385
0.346355 0.456868 0.181948
0.367472 0.457443 0.182511
0.388591 0.458018 0.183076
0.409712 0.458594 0.183642
0.430836 0.459171 0.184210
0.451961 0.459749 0.184778
0.473089 0.460328 0.185348
0.494219 0.460908 0.185919
0.515442 0.461491 0.186494
0.536822 0.462079 0.187075
0.558205 0.462669 0.187658
0.579591 0.463259 0.188242
0.600980 0.463851 0.188828
0.622372 0.464444 0.189415
0.643767 0.465038 0.190005
0.665166 0.465634 0.190597
0.686570 0.466231 0.191192
0.707979 0.466831 0.191790
0.729398 0.467435 0.192391
0.750825 0.468043 0.192990
0.772256 0.468653 0.193587
0.793691 0.469265 0.194182
0.815128 0.469878 0.194776
0.836568 0.470492 0.195369
0.858011 0.471108 0.195960
0.179230 0.474371 0.179314
0.200338 0.474942 0.179873
0.221449 0.475514 0.180432
0.242561 0.476086 0.180993
0.263675 0.476660 0.181555
0.284791 0.477234 0.182117
0.305909 0.477809 0.182682
0.327029 0.478384 0.183247
0.348151 0.478961 0.183813
0.369275 0.479538 0.184381
0.390401 0.480116 0.184950
0.411529 0.480695 0.185520
0.432660 0.481275 0.186092
0.453793 0.481856 0.186665
0.474928 0.482438 0.187240
0.496067 0.483021 0.187816
0.517298 0.483608 0.188396
0.538687 0.484200 0.188982
0.560080 0.484793 0.189570
0.581476 0.485388 0.190161
0.602877 0.485984 0.190753
0.624281 0.486582 0.191349
0.645693 0.487182 0.191948
0.667115 0.487788 0.192549
0.688543 0.488396 0.193148
0.709975 0.489007 0.193744
0.731410 0.489619 0.194339
0.752848 0.490232 0.194933
0.774289 0.490847 0.195525
0.795732 0.491463 0.196116
0.817177 0.492080 0.196706
0.838625 0.492698 0.197294
0.860074 0.493317 0.197882
0.181025 0.496798 0.181191
0.202139 0.497372 0.181753
0.223256 0.497946 0.182317
0.244375 0.498522 0.182881
0.265495 0.499097 0.183447
0.286618 0.499674 0.184014
0.307743 0.500252 0.184582
0.328870 0.500830 0.185151
0.349999 0.501410 0.185722
0.371130 0.501990 0.186294
0.392264 0.502571 0.186868
0.413400 0.503153 0.187443
0.434539 0.503737 0.188020
0.455681 0.504321 0.188598
0.476826 0.504907 0.189178
0.497974 0.505494 0.189760
0.519216 0.506084 0.190347
0.540618 0.506681 0.190940
0.562024 0.507280 0.191537
0.583439 0.507882 0.192138
0.604863 0.508489 0.192738
0.626293 0.509098 0.193335
0.647726 0.509709 0.193932
0.669162 0.510321 0.194526
0.690601 0.510935 0.195119
0.712042 0.511550 0.195711
0.733486 0.512166 0.196302
0.754932 0.512784 0.196891
0.776380 0.513402 0.197480
0.797830 0.514021 0.198067
0.819282 0.514642 0.198654
0.840736 0.515263 0.199239
0.862192 0.515885 0.199824
0.182889 0.519830 0.183131
0.204011 0.520406 0.183697
0.225134 0.520984 0.184265
0.246260 0.521562 0.184833
0.267388 0.522140 0.185403
0.288518 0.522720 0.185975
0.309650 0.523301 0.186548
0.330785 0.523883 0.187122
0.351923 0.524465 0.187698
0.373063 0.525049 0.188275
0.394206 0.525634 0.188854
0.415352 0.526220 0.189435
0.436502 0.526808 0.190018
0.457655 0.527397 0.190604
0.478813 0.527987 0.191191
0.499976 0.528580 0.191783
0.521239 0.529180 0.192380
0.542666 0.529788 0.192979
0.564097 0.530398 0.193576
0.585531 0.531009 0.194171
0.606969 0.531622 0.194765
0.628409 0.532236 0.195358
0.649851 0.532852 0.195949
0.671296 0.533469 0.196539
0.692743 0.534086 0.197128
0.714191 0.534705 0.197716
0.735642 0.535325 0.198303
0.757095 0.535946 0.198890
0.778550 0.536567 0.199475
0.800006 0.537190 0.200059
0.821464 0.537813 0.200643
0.842924 0.538438 0.201225
0.864385 0.539063 0.201807
0.184777 0.542871 0.185085
0.205906 0.543451 0.185656
0.227037 0.544031 0.186228
0.248171 0.544612 0.186802
0.269307 0.545194 0.187376
0.290446 0.545777 0.187953
0.311587 0.546362 0.188531
0.332732 0.546947 0.189111
0.353879 0.547534 0.189693
0.375030 0.548122 0.190277
0.396185 0.548712 0.190863
0.417345 0.549303 0.191452
0.438512 0.549898 0.192046
0.459689 0.550497 0.192639
0.480872 0.551099 0.193231
0.502058 0.551702 0.193820
0.523338 0.552310 0.194410
0.544776 0.552923 0.195004
0.566217 0.553538 0.195596
0.587660 0.554154 0.196187
0.609106 0.554771 0.196776
0.630553 0.555390 0.197365
0.652003 0.556009 0.197953
0.673455 0.556629 0.198540
0.694908 0.557250 0.199125
0.716364 0.557872 0.199710
0.737821 0.558495 0.200294
0.759280 0.559119 0.200877
0.780740 0.559743 0.201460
0.802202 0.560369 0.202041
0.823666 0.560995 0.202622
0.845131 0.561622 0.203202
0.866598 0.562249 0.203781
0.186692 0.565923 0.187056
0.207829 0.566506 0.187631
0.228969 0.567090 0.188209
0.250112 0.567674 0.188787
0.271258 0.568260 0.189368
0.292407 0.568848 0.189951
0.313560 0.569437 0.190536
0.334717 0.570027 0.191123
0.355879 0.570620 0.191714
0.377051 0.571216 0.192309
0.398231 0.571817 0.192901
0.419415 0.572419 0.193491
0.440602 0.573024 0.194080
0.461793 0.573629 0.194668
0.482986 0.574236 0.195253
0.504181 0.574845 0.195838
0.525470 0.575457 0.196424
0.546916 0.576074 0.197014
0.568365 0.576693 0.197602
0.589815 0.577312 0.198189
0.611268 0.577933 0.198776
0.632722 0.578554 0.199361
0.654178 0.579177 0.199945
0.675636 0.579800 0.200529
0.697095 0.580424 0.201112
0.718556 0.581049 0.201694
0.740019 0.581675 0.202275
0.761483 0.582301 0.202855
0.782949 0.582928 0.203435
0.804416 0.583556 0.204014
0.825885 0.584185 0.204592
0.847355 0.584815 0.205170
0.868827 0.585445 0.205746
0.188637 0.588987 0.189044
0.209785 0.589574 0.189626
0.230935 0.590162 0.190209
0.252090 0.590752 0.190795
0.273249 0.591343 0.191384
0.294414 0.591937 0.191977
0.315591 0.592536 0.192571
0.336773 0.593137 0.193162
0.357959 0.593740 0.193752
0.379148 0.594345 0.194340
0.400339 0.594952 0.194927
0.421533 0.595559 0.195512
0.442730 0.596168 0.196097
0.463929 0.596778 0.196680
0.485129 0.597389 0.197262
0.506332 0.598001 0.197843
0.527628 0.598616 0.198425
0.549081 0.599237 0.199011
0.570536 0.599859 0.199596
0.591992 0.600482 0.200181
0.613451 0.601105 0.200764
0.634911 0.601730 0.201346
0.656373 0.602355 0.201928
0.677836 0.602981 0.202509
0.699301 0.603608 0.203089
0.720767 0.604235 0.203668
0.742235 0.604864 0.204247
0.763705 0.605493 0.204825
0.785175 0.606122 0.205402
0.806647 0.606753 0.205978
0.828121 0.607384 0.206554
0.849596 0.608016 0.207129
0.871072 0.608648 0.207704
0.190621 0.612067 0.191056
0.211782 0.612659 0.191646
0.232953 0.613255 0.192240
0.254132 0.613855 0.192833
0.275316 0.614458 0.193423
0.296503 0.615062 0.194012
0.317693 0.615667 0.194600
0.338886 0.616274 0.195186
0.360081 0.616882 0.195771
0.381279 0.617492 0.196355
0.402478 0.618102 0.196937
0.423680 0.618713 0.197519
0.444884 0.619326 0.198100
0.466089 0.619939 0.198679
0.487297 0.620553 0.199258
0.508506 0.621168 0.199836
0.529807 0.621787 0.200416
0.551266 0.622411 0.200999
0.572727 0.623035 0.201581
0.594190 0.623661 0.202162
0.615654 0.624287 0.202743
0.637119 0.624914 0.203322
0.658586 0.625542 0.203901
0.680054 0.626171 0.204480
0.701524 0.626800 0.205057
0.722996 0.627430 0.205634
0.744468 0.628061 0.206210
0.765942 0.628692 0.206786
0.787418 0.629324 0.207361
0.808895 0.629957 0.207935
0.830373 0.630590 0.208508
0.851852 0.631224 0.209081
0.873333 0.631859 0.209654
0.192674 0.635176 0.193094
0.213860 0.635779 0.193684
0.235048 0.636384 0.194272
0.256239 0.636990 0.194859
0.277433 0.637597 0.195445
0.298630 0.638206 0.196029
0.319828 0.638815 0.196612
0.341029 0.639426 0.197195
0.362231 0.640038 0.197776
0.383436 0.640651 0.198356
0.404642 0.641264 0.198935
0.425850 0.641879 0.199514
0.447060 0.642494 0.200091
0.468272 0.643111 0.200668
0.489485 0.643728 0.201244
0.510700 0.644346 0.201819
0.532007 0.644967 0.202396
0.553471 0.645594 0.202976
0.574937 0.646221 0.203556
0.596405 0.646849 0.204134
0.617874 0.647478 0.204712
0.639344 0.648108 0.205290
0.660816 0.648738 0.205866
0.682289 0.649369 0.206442
0.703764 0.650001 0.207017
0.725240 0.650633 0.207592
0.746717 0.651266 0.208166
0.768196 0.651899 0.208739
0.789676 0.652534 0.209312
0.811157 0.653169 0.209884
0.832639 0.653804 0.210455
0.854123 0.654440 0.211026
0.875607 0.655077 0.211596
0.194786 0.658312 0.195118
0.215981 0.658920 0.195703
0.237178 0.659529 0.196287
0.258378 0.660139 0.196870
0.279579 0.660751 0.197452
0.300783 0.661363 0.198033
0.321988 0.661976 0.198612
0.343195 0.662590 0.199191
0.364404 0.663205 0.199769
0.385615 0.663821 0.200347
0.406827 0.664438 0.200923
0.428041 0.665055 0.201499
0.449256 0.665673 0.202073
0.470473 0.666292 0.202647
0.491692 0.666912 0.203221
0.512912 0.667533 0.203793
0.534224 0.668156 0.204367
0.555694 0.668786 0.204945
0.577165 0.669415 0.205522
0.598637 0.670046 0.206098
0.620111 0.670677 0.206674
0.641586 0.671309 0.207249
0.663062 0.671942 0.207823
0.684540 0.672575 0.208397
0.706019 0.673209 0.208970
0.727500 0.673843 0.209542
0.748981 0.674479 0.210114
0.770464 0.675114 0.210685
0.791948 0.675751 0.211256
0.813433 0.676388 0.211826
0.834920 0.677025 0.212395
0.856408 0.677663 0.212964
0.877896 0.678302 0.213532
0.196928 0.681464 0.197128
0.218130 0.682075 0.197709
0.239334 0.682688 0.198289
0.260541 0.683302 0.198869
0.281749 0.683916 0.199447
0.302958 0.684531 0.200025
0.324170 0.685148 0.200602
0.345383 0.685765 0.201178
0.366597 0.686382 0.201753
0.387813 0.687001 0.202327
0.409031 0.687620 0.202901
0.430250 0.688240 0.203474
0.451471 0.688861 0.204046
0.472693 0.689483 0.204618
0.493916 0.690105 0.205188
0.515141 0.690728 0.205758
0.536458 0.691354 0.206330
0.557932 0.691986 0.206906
0.579408 0.692618 0.207480
0.600885 0.693251 0.208054
0.622363 0.693884 0.208628
0.643843 0.694518 0.209200
0.665324 0.695153 0.209773
0.686806 0.695788 0.210344
0.708289 0.696424 0.210915
0.729774 0.697061 0.211485
0.751260 0.697698 0.212055
0.772746 0.698336 0.212624
0.794235 0.698975 0.213192
0.815724 0.699614 0.213760
0.837214 0.700253 0.214328
0.858706 0.700893 0.214894
0.880199 0.701534 0.215461
0.199094 0.704627 0.199125
0.220302 0.705242 0.199703
0.241513 0.705858 0.200280
0.262725 0.706474 0.200857
0.283939 0.707092 0.201432
0.305154 0.707710 0.202007
0.326371 0.708329 0.202581
0.347589 0.708948 0.203154
0.368809 0.709569 0.203727
0.390030 0.710190 0.204299
0.411253 0.710812 0.204870
0.432477 0.711434 0.205441
0.453702 0.712058 0.206010
0.474929 0.712681 0.206579
0.496157 0.713306 0.207148
0.517386 0.713931 0.207716
0.538708 0.714560 0.208285
0.560187 0.715193 0.208858
0.581667 0.715828 0.209431
0.603148 0.716463 0.210003
0.624631 0.717099 0.210574
0.646115 0.717735 0.211145
0.667600 0.718372 0.211715
0.689086 0.719009 0.212284
0.710573 0.719647 0.212853
0.732062 0.720286 0.213421
0.753552 0.720925 0.213989
0.775042 0.721565 0.214556
0.796534 0.722205 0.215122
0.818028 0.722846 0.215688
0.839522 0.723488 0.216254
0.861017 0.724130 0.216819
0.882514 0.724772 0.217383
0.201280 0.727801 0.201111
0.222495 0.728419 0.201687
0.243711 0.729038 0.202261
0.264928 0.729657 0.202835
0.286147 0.730277 0.203408
0.307368 0.730898 0.203980
0.328590 0.731519 0.204552
0.349813 0.732141 0.205122
0.371038 0.732764 0.205693
0.392264 0.733387 0.206262
0.413491 0.734012 0.206831
0.434720 0.734636 0.207399
0.455950 0.735262 0.207967
0.477181 0.735888 0.208534
0.498413 0.736515 0.209100
0.519647 0.737142 0.209665
0.540973 0.737773 0.210233
0.562456 0.738409 0.210804
0.583940 0.739045 0.211374
0.605426 0.739682 0.211944
0.626912 0.740320 0.212513
0.648400 0.740958 0.213082
0.669889 0.741597 0.213650
0.691379 0.742237 0.214217
0.712871 0.742877 0.214784
0.734363 0.743517 0.215350
0.755857 0.744158 0.215916
