luts/luts/faded_matte.cube
TITLE "Faded Matte"
LUT_3D_SIZE 9
DOMAIN_MIN 0.0 0.0 0.0
DOMAIN_MAX 1.0 1.0 1.0
0.154616 0.143911 0.152730
0.238794 0.146093 0.154810
0.322989 0.148282 0.156900
0.407203 0.150478 0.159001
0.491525 0.152684 0.161116
0.576756 0.154921 0.163265
0.662008 0.157166 0.165426
0.747281 0.159420 0.167600
0.832575 0.161682 0.169787
0.160877 0.231912 0.159637
0.245115 0.234118 0.161753
0.329372 0.236332 0.163881
0.413650 0.238554 0.166020
0.498038 0.240786 0.168175
0.583338 0.243051 0.170365
0.668661 0.245325 0.172569
0.754008 0.247608 0.174787
0.839380 0.249902 0.177020
0.167343 0.319996 0.166668
0.251648 0.322229 0.168824
0.335974 0.324470 0.170993
0.420322 0.326720 0.173175
0.504785 0.328982 0.175374
0.590164 0.331279 0.177612
0.675570 0.333586 0.179865
0.761005 0.335904 0.182136
0.846471 0.338235 0.184426
0.174038 0.408171 0.173836
0.258418 0.410434 0.176037
0.342823 0.412707 0.178253
0.427255 0.414990 0.180486
0.511806 0.417288 0.182738
0.597282 0.419623 0.185033
0.682794 0.421972 0.187351
0.768349 0.424339 0.189694
0.853966 0.426731 0.192074
0.181025 0.496798 0.181191
0.265495 0.499097 0.183447
0.349999 0.501410 0.185722
0.434539 0.503737 0.188020
0.519216 0.506084 0.190347
0.604863 0.508489 0.192738
0.690601 0.510935 0.195119
0.776380 0.513402 0.197480
0.862192 0.515885 0.199824
0.188637 0.588987 0.189044
0.273249 0.591343 0.191384
0.357959 0.593740 0.193752
0.442730 0.596168 0.196097
0.527628 0.598616 0.198425
0.613451 0.601105 0.200764
0.699301 0.603608 0.203089
0.785175 0.606122 0.205402
0.871072 0.608648 0.207704
0.196928 0.681464 0.197128
0.281749 0.683916 0.199447
0.366597 0.686382 0.201753
0.451471 0.688861 0.204046
0.536458 0.691354 0.206330
0.622363 0.693884 0.208628
0.708289 0.696424 0.210915
0.794235 0.698975 0.213192
0.880199 0.701534 0.215461
0.205710 0.774177 0.205057
0.290616 0.776672 0.207334
0.375542 0.779178 0.209600
0.460489 0.781693 0.211857
0.545545 0.784220 0.214107
0.631516 0.786783 0.216371
0.717505 0.789355 0.218627
0.803510 0.791935 0.220875
0.889532 0.794523 0.223114
0.214758 0.867024 0.212852
0.299731 0.869553 0.215096
0.384722 0.872090 0.217330
0.469729 0.874636 0.219557
0.554844 0.877193 0.221777
0.640873 0.879784 0.224013
0.726917 0.882384 0.226241
0.812976 0.884991 0.228462
0.899050 0.887605 0.230675
0.155207 0.144599 0.229946
0.239390 0.146783 0.232029
0.323591 0.148975 0.234123
0.407811 0.151173 0.236228
0.492139 0.153382 0.238346
0.577376 0.155621 0.240499
0.662634 0.157869 0.242664
0.747914 0.160126 0.244841
0.833215 0.162391 0.247032
0.161486 0.232608 0.236864
0.245730 0.234817 0.238984
0.329994 0.237033 0.241115
0.414278 0.239257 0.243259
0.498673 0.241492 0.245417
0.583980 0.243760 0.247612
0.669310 0.246037 0.249820
0.754665 0.248323 0.252043
0.840045 0.250620 0.254281
0.167973 0.320700 0.243908
0.252285 0.322936 0.246068
0.336618 0.325180 0.248241
0.420974 0.327433 0.250428
0.505444 0.329698 0.252631
0.590831 0.331998 0.254874
0.676246 0.334308 0.257133
0.761691 0.336631 0.259409
0.847168 0.338966 0.261706
0.174692 0.408885 0.251090
0.259079 0.411151 0.253295
0.343493 0.413427 0.255517
0.427934 0.415714 0.257754
0.512495 0.418016 0.260013
0.597981 0.420355 0.262314
0.683506 0.422709 0.264639
0.769077 0.425083 0.266992
0.854728 0.427489 0.269384
0.181706 0.497523 0.258462
0.266187 0.499826 0.260723
0.350702 0.502143 0.263005
0.435256 0.504475 0.265311
0.519950 0.506830 0.267649
0.605632 0.509250 0.270044
0.691384 0.511703 0.272418
0.777174 0.514176 0.274773
0.862995 0.516664 0.277113
0.189360 0.589729 0.266339
0.273996 0.592094 0.268694
0.358734 0.594505 0.271055
0.443518 0.596939 0.273393
0.528425 0.599392 0.275717
0.614257 0.601885 0.278051
0.700115 0.604392 0.280373
0.785997 0.606910 0.282682
0.871900 0.609439 0.284980
0.197720 0.682237 0.274422
0.282550 0.684694 0.276737
0.367407 0.687164 0.279039
0.452288 0.689647 0.281328
0.537282 0.692143 0.283609
0.623194 0.694676 0.285903
0.709126 0.697220 0.288187
0.795077 0.699773 0.290462
0.881047 0.702335 0.292727
0.206530 0.774964 0.282337
0.291443 0.777463 0.284611
0.376376 0.779971 0.286874
0.461328 0.782489 0.289128
0.546390 0.785020 0.291375
0.632367 0.787585 0.293637
0.718361 0.790160 0.295890
0.804371 0.792742 0.298135
0.890398 0.795333 0.300371
0.215600 0.867822 0.290122
0.300579 0.870354 0.292363
0.385575 0.872894 0.294595
0.470588 0.875442 0.296818
0.555707 0.878001 0.299036
0.641741 0.880595 0.301270
0.727790 0.883197 0.303496
0.813854 0.885806 0.305714
0.899932 0.888423 0.307924
0.155799 0.145289 0.307163
0.239988 0.147475 0.309249
0.324195 0.149668 0.311347
0.408420 0.151869 0.313455
0.492755 0.154080 0.315577
0.577998 0.156322 0.317733
0.663263 0.158573 0.319902
0.748549 0.160832 0.322084
0.833857 0.163100 0.324279
0.162098 0.233305 0.314093
0.246348 0.235516 0.316216
0.330618 0.237735 0.318351
0.414908 0.239962 0.320499
0.499310 0.242200 0.322661
0.584624 0.244470 0.324860
0.669962 0.246750 0.327073
0.755324 0.249039 0.329300
0.840713 0.251339 0.331543
0.168606 0.321406 0.321149
0.252924 0.323644 0.323313
0.337264 0.325891 0.325490
0.421628 0.328147 0.327681
0.506106 0.330415 0.329890
0.591502 0.332718 0.332137
0.676925 0.335032 0.334402
0.762380 0.337359 0.336684
0.847868 0.339699 0.338987
0.175348 0.409600 0.328345
0.259744 0.411869 0.330555
0.344166 0.414148 0.332782
0.428616 0.416439 0.335025
0.513187 0.418745 0.337289
0.598684 0.421088 0.339598
0.684222 0.423448 0.341931
0.769812 0.425829 0.344294
0.855498 0.428250 0.346690
0.182391 0.498250 0.335734
0.266882 0.500557 0.338002
0.351408 0.502878 0.340291
0.435976 0.505216 0.342605
0.520692 0.507579 0.344956
0.606406 0.510014 0.347348
0.692171 0.512474 0.349715
0.777971 0.514951 0.352065
0.863801 0.517443 0.354401
0.190089 0.590473 0.343638
0.274759 0.592853 0.346003
0.359514 0.595272 0.348356
0.444309 0.597711 0.350688
0.529226 0.600169 0.353008
0.615066 0.602667 0.355338
0.700932 0.605177 0.357655
0.786820 0.607698 0.359961
0.872730 0.610231 0.362256
0.198516 0.683011 0.351715
0.283355 0.685473 0.354025
0.368219 0.687947 0.356323
0.453107 0.690433 0.358609
0.538108 0.692933 0.360886
0.624027 0.695470 0.363177
0.709965 0.698016 0.365458
0.795922 0.700572 0.367730
0.881897 0.703137 0.369993
0.207352 0.775752 0.359617
0.292272 0.778254 0.361887
0.377211 0.780766 0.364147
0.462169 0.783287 0.366398
0.547237 0.785820 0.368642
0.633219 0.788388 0.370901
0.719218 0.790965 0.373152
0.805234 0.793551 0.375394
0.891266 0.796144 0.377628
0.216444 0.868621 0.367391
0.301428 0.871155 0.369629
0.386429 0.873698 0.371858
0.471447 0.876249 0.374079
0.556572 0.878810 0.376295
0.642610 0.881407 0.378526
0.728664 0.884011 0.380749
0.814733 0.886623 0.382965
0.900816 0.889242 0.385173
0.156393 0.145979 0.384381
0.240588 0.148167 0.386471
0.324800 0.150363 0.388571
0.409032 0.152566 0.390683
0.493372 0.154780 0.392809
0.578623 0.157024 0.394969
0.663894 0.159277 0.397142
0.749187 0.161539 0.399328
0.834502 0.163810 0.401527
0.162711 0.234003 0.391322
0.246967 0.236216 0.393449
0.331244 0.238437 0.395588
0.415541 0.240667 0.397740
0.499949 0.242908 0.399906
0.585271 0.245181 0.402109
0.670616 0.247464 0.404327
0.755987 0.249756 0.406559
0.841383 0.252060 0.408807
0.169240 0.322112 0.398391
0.253565 0.324353 0.400559
0.337913 0.326602 0.402741
0.422284 0.328862 0.404937
0.506770 0.331133 0.407150
0.592174 0.333440 0.409402
0.677607 0.335757 0.411672
0.763072 0.338088 0.413961
0.848571 0.340432 0.416271
0.176007 0.410315 0.405602
0.260410 0.412588 0.407817
0.344841 0.414871 0.410049
0.429300 0.417165 0.412297
0.513882 0.419475 0.414568
0.599391 0.421823 0.416883
0.684944 0.424189 0.419225
0.770555 0.426578 0.421602
0.856272 0.429014 0.423993
0.183079 0.498977 0.413008
0.267581 0.501288 0.415283
0.352119 0.503615 0.417579
0.436703 0.505959 0.419902
0.521450 0.508335 0.422266
0.607184 0.510780 0.424649
0.692961 0.513246 0.427011
0.778771 0.515728 0.429356
0.864609 0.518224 0.431687
0.190824 0.591219 0.420941
0.275529 0.593614 0.423309
0.360298 0.596041 0.425654
0.445103 0.598485 0.427982
0.530029 0.600948 0.430297
0.615878 0.603449 0.432623
0.701750 0.605963 0.434936
0.787646 0.608488 0.437239
0.873562 0.611024 0.439531
0.199314 0.683788 0.429006
0.284161 0.686253 0.431313
0.369034 0.688731 0.433607
0.453929 0.691221 0.435889
0.538937 0.693724 0.438163
0.624861 0.696264 0.440451
0.710805 0.698813 0.442729
0.796768 0.701372 0.444998
0.882749 0.703940 0.447257
0.208177 0.776542 0.436895
0.293103 0.779047 0.439162
0.378048 0.781561 0.441419
0.463012 0.784085 0.443667
0.548085 0.786621 0.445909
0.634073 0.789192 0.448165
0.720077 0.791772 0.450413
0.806098 0.794360 0.452653
0.892135 0.796956 0.454884
0.217289 0.869421 0.444659
0.302279 0.871957 0.446894
0.387286 0.874503 0.449121
0.472309 0.877056 0.451339
0.557438 0.879620 0.453552
0.643481 0.882219 0.455781
0.729540 0.884826 0.458002
0.815613 0.887440 0.460215
0.901701 0.890061 0.462421
0.156993 0.146674 0.462132
0.241194 0.148865 0.464226
0.325412 0.151063 0.466330
0.409649 0.153269 0.468446
0.493996 0.155485 0.470575
0.579253 0.157732 0.472739
0.664531 0.159988 0.474916
0.749831 0.162252 0.477106
0.835153 0.164526 0.479310
0.163331 0.234706 0.469086
0.247593 0.236922 0.471216
0.331876 0.239146 0.473359
0.416180 0.241378 0.475515
0.500595 0.243621 0.477686
0.585924 0.245898 0.479893
0.671277 0.248184 0.482115
0.756656 0.250480 0.484352
0.842061 0.252786 0.486606
0.169881 0.322824 0.476167
0.254214 0.325067 0.478340
0.338569 0.327320 0.480526
0.422947 0.329582 0.482726
0.507442 0.331857 0.484944
0.592855 0.334167 0.487202
0.678297 0.336489 0.489478
0.763772 0.338823 0.491773
0.849284 0.341173 0.494090
0.176672 0.411037 0.483393
0.261085 0.413313 0.485613
0.345524 0.415599 0.487850
0.429993 0.417898 0.490105
0.514585 0.420212 0.492381
0.600107 0.422565 0.494705
0.685675 0.424937 0.497056
0.771320 0.427340 0.499446
0.857056 0.429786 0.501828
0.183775 0.499711 0.490818
0.268288 0.502027 0.493098
0.352840 0.504358 0.495403
0.437440 0.506709 0.497736
0.522222 0.509101 0.500107
0.607972 0.511553 0.502482
0.693760 0.514024 0.504838
0.779579 0.516511 0.507179
0.865425 0.519012 0.509506
0.191575 0.591975 0.498783
0.276309 0.594384 0.501145
0.361091 0.596817 0.503485
0.445906 0.599266 0.505807
0.530841 0.601733 0.508117
0.616697 0.604238 0.510439
0.702577 0.606756 0.512749
0.788479 0.609284 0.515048
0.874402 0.611823 0.517337
0.200121 0.684570 0.506829
0.284976 0.687040 0.509132
0.369856 0.689522 0.511422
0.454759 0.692015 0.513701
0.539773 0.694522 0.515971
0.625703 0.697064 0.518256
0.711654 0.699617 0.520531
0.797622 0.702178 0.522797
0.883608 0.704749 0.525054
0.209009 0.777337 0.514705
0.293942 0.779845 0.516969
0.378893 0.782363 0.519223
0.463863 0.784890 0.521468
0.548941 0.787429 0.523707
0.634934 0.790002 0.525961
0.720944 0.792585 0.528206
0.806970 0.795175 0.530443
0.893012 0.797773 0.532672
0.218142 0.870227 0.522459
0.303138 0.872766 0.524691
0.388149 0.875314 0.526915
0.473177 0.877870 0.529131
0.558312 0.880437 0.531342
0.644360 0.883038 0.533568
0.730423 0.885647 0.535787
0.816501 0.888263 0.537998
0.902593 0.890887 0.540202
0.157636 0.147417 0.545144
0.241842 0.149610 0.547241
0.326067 0.151811 0.549349
0.410311 0.154019 0.551469
0.494664 0.156238 0.553602
0.579928 0.158488 0.555771
0.665214 0.160747 0.557952
0.750521 0.163015 0.560146
0.835852 0.165291 0.562355
0.163994 0.235458 0.552110
0.248264 0.237676 0.554245
0.332553 0.239903 0.556392
0.416864 0.242138 0.558552
0.501288 0.244384 0.560727
0.586624 0.246664 0.562939
0.671986 0.248953 0.565166
0.757373 0.251253 0.567409
0.842788 0.253563 0.569668
0.170568 0.323584 0.559205
0.254908 0.325831 0.561382
0.339271 0.328087 0.563573
0.423658 0.330353 0.565779
0.508162 0.332631 0.568002
0.593584 0.334945 0.570266
0.679038 0.337271 0.572548
0.764524 0.339610 0.574850
0.850049 0.341965 0.577175
0.177386 0.411809 0.566447
0.261807 0.414088 0.568673
0.346257 0.416379 0.570916
0.430736 0.418681 0.573177
0.515340 0.421000 0.575461
0.600877 0.423359 0.577792
0.686464 0.425739 0.580155
0.772146 0.428158 0.582550
0.857898 0.430612 0.584924
0.184522 0.500496 0.573892
0.269047 0.502817 0.576180
0.353614 0.505154 0.578493
0.438237 0.507514 0.580840
0.523053 0.509922 0.583208
0.608817 0.512381 0.585577
0.694616 0.514858 0.587927
0.780444 0.517349 0.590263
0.866299 0.519854 0.592586
0.192393 0.592789 0.581891
0.277147 0.595208 0.584244
0.361941 0.597647 0.586577
0.446766 0.600102 0.588894
0.531710 0.602573 0.591200
0.617574 0.605082 0.593518
0.703462 0.607603 0.595824
0.789371 0.610135 0.598120
0.875301 0.612678 0.600405
0.200985 0.685408 0.589915
0.285849 0.687882 0.592213
0.370737 0.690368 0.594499
0.455646 0.692864 0.596774
0.540667 0.695374 0.599041
0.626605 0.697920 0.601323
0.712561 0.700476 0.603595
0.798536 0.703040 0.605858
0.884527 0.705614 0.608112
0.209900 0.778188 0.597777
0.294839 0.780699 0.600038
0.379797 0.783220 0.602289
0.464773 0.785750 0.604531
0.549857 0.788292 0.606767
0.635856 0.790868 0.609017
0.721871 0.793453 0.611260
0.807903 0.796046 0.613494
0.893949 0.798647 0.615721
0.219055 0.871088 0.605520
0.304056 0.873630 0.607749
0.389073 0.876181 0.609971
0.474107 0.878740 0.612184
0.559246 0.881309 0.614392
0.645300 0.883913 0.616616
0.731368 0.886524 0.618832
0.817450 0.889143 0.621040
0.903548 0.891769 0.623242
0.158281 0.148161 0.628157
0.242493 0.150357 0.630258
0.326724 0.152560 0.632370
0.410975 0.154771 0.634493
0.495335 0.156992 0.636631
0.580606 0.159246 0.638803
0.665899 0.161507 0.640989
0.751214 0.163778 0.643188
0.836552 0.166058 0.645401
0.164660 0.236210 0.635136
0.248936 0.238431 0.637275
0.333233 0.240661 0.639426
0.417552 0.242899 0.641590
0.501982 0.245149 0.643770
0.587327 0.247431 0.645987
0.672697 0.249724 0.648219
0.758094 0.252027 0.650467
0.843519 0.254342 0.652732
0.171258 0.324346 0.642245
0.255605 0.326596 0.644427
0.339976 0.328855 0.646623
0.424372 0.331125 0.648833
0.508885 0.333407 0.651062
0.594317 0.335724 0.653332
0.679781 0.338055 0.655621
0.765280 0.340399 0.657930
0.850820 0.342759 0.660264
0.178103 0.412582 0.649503
0.262533 0.414865 0.651735
0.346993 0.417159 0.653983
0.431483 0.419466 0.656251
0.516100 0.421790 0.658543
0.601652 0.424155 0.660884
0.687262 0.426544 0.663260
0.772978 0.428979 0.665652
0.858744 0.431440 0.668019
0.185273 0.501282 0.656968
0.269811 0.503608 0.659265
0.354395 0.505953 0.661588
0.439051 0.508326 0.663949
0.523890 0.510745 0.666308
0.609666 0.513211 0.668670
0.695475 0.515693 0.671015
0.781313 0.518189 0.673346
0.867176 0.520698 0.675665
0.193220 0.593608 0.664995
0.277989 0.596034 0.667340
0.362794 0.598479 0.669668
0.447630 0.600938 0.671980
0.532582 0.603414 0.674282
0.618454 0.605927 0.676596
0.704349 0.608452 0.678898
0.790266 0.610988 0.681190
0.876202 0.613533 0.683472
0.201853 0.686247 0.672998
0.286725 0.688725 0.675292
0.371620 0.691214 0.677575
0.456537 0.693715 0.679846
0.541564 0.696228 0.682110
0.627508 0.698777 0.684389
0.713471 0.701336 0.686658
0.799451 0.703903 0.688917
0.885449 0.706479 0.691169
0.210794 0.779040 0.680848
0.295739 0.781554 0.683105
0.380703 0.784078 0.685353
0.465685 0.786611 0.687592
0.550775 0.789156 0.689825
0.636779 0.791735 0.692073
0.722800 0.794323 0.694313
0.808837 0.796919 0.696545
0.894889 0.799522 0.698769
0.219970 0.871951 0.688580
0.304976 0.874496 0.690807
0.389999 0.877049 0.693025
0.475038 0.879611 0.695236
0.560183 0.882182 0.697441
0.646241 0.884789 0.699662
0.732314 0.887403 0.701876
0.818402 0.890024 0.704082
0.904503 0.892652 0.706281
0.158927 0.148906 0.711171
0.243146 0.151104 0.713276
0.327384 0.153310 0.715391
0.411641 0.155524 0.717519
0.496008 0.157748 0.719661
0.581286 0.160004 0.721838
0.666586 0.162268 0.724028
0.751909 0.164542 0.726232
0.837256 0.166826 0.728450
0.165328 0.236964 0.718163
0.249612 0.239188 0.720306
0.333916 0.241420 0.722461
0.418241 0.243661 0.724630
0.502680 0.245914 0.726815
0.588033 0.248200 0.729037
0.673412 0.250496 0.731274
0.758818 0.252803 0.733528
0.844253 0.255121 0.735799
0.171950 0.325109 0.725287
0.256305 0.327362 0.727473
0.340685 0.329625 0.729674
0.425089 0.331898 0.731890
0.509611 0.334184 0.734124
0.595054 0.336505 0.736400
0.680529 0.338840 0.738695
0.766041 0.341189 0.741013
0.851596 0.343556 0.743356
0.178822 0.413356 0.732561
0.263263 0.415642 0.734798
0.347732 0.417941 0.737053
0.432235 0.420253 0.739328
0.516865 0.422582 0.741627
0.602433 0.424954 0.743978
0.688078 0.427358 0.746369
0.773815 0.429803 0.748751
0.859594 0.432270 0.751111
0.186028 0.502070 0.740048
0.270580 0.504402 0.742352
0.355182 0.506754 0.744687
0.439875 0.509144 0.747054
0.524731 0.511571 0.749405
0.610519 0.514042 0.751761
0.696338 0.516529 0.754101
0.782184 0.519030 0.756428
0.868055 0.521543 0.758743
0.194053 0.594429 0.748096
0.278836 0.596862 0.750434
0.363652 0.599312 0.752756
0.448496 0.601777 0.755064
0.533457 0.604256 0.757362
0.619337 0.606774 0.759672
0.705239 0.609302 0.761971
0.791162 0.611841 0.764259
0.877105 0.614390 0.766538
0.202723 0.687087 0.756081
0.287603 0.689569 0.758371
0.372506 0.692062 0.760649
0.457429 0.694566 0.762918
0.542464 0.697082 0.765178
0.628414 0.699635 0.767453
0.714382 0.702197 0.769719
0.800369 0.704767 0.771976
0.886372 0.707346 0.774225
0.211689 0.779893 0.763918
0.296641 0.782411 0.766172
0.381611 0.784938 0.768417
0.466599 0.787474 0.770653
0.551695 0.790021 0.772883
0.637705 0.792603 0.775128
0.723731 0.795194 0.777365
0.809773 0.797792 0.779594
0.895830 0.800398 0.781816
0.220886 0.872814 0.771639
0.305899 0.875362 0.773863
0.390927 0.877918 0.776079
0.475971 0.880482 0.778287
0.561121 0.883056 0.780490
0.647184 0.885665 0.782708
0.733262 0.888282 0.784919
0.819354 0.890905 0.787123
0.905461 0.893536 0.789320
0.159576 0.149652 0.794187
0.243801 0.151853 0.796295
0.328046 0.154061 0.798415
0.412309 0.156277 0.800546
0.496684 0.158504 0.802692
0.581969 0.160763 0.804873
0.667277 0.163031 0.807068
0.752607 0.165308 0.809277
0.837962 0.167594 0.811500
0.165999 0.237718 0.801191
0.250289 0.239945 0.803338
0.334600 0.242180 0.805498
0.418934 0.244424 0.807672
0.503380 0.246680 0.809861
0.588742 0.248969 0.812088
0.674130 0.251269 0.814331
0.759545 0.253580 0.816590
0.844990 0.255903 0.818867
0.172645 0.325874 0.808330
0.257008 0.328130 0.810521
0.341396 0.330396 0.812727
0.425809 0.332672 0.814948
0.510341 0.334962 0.817188
0.595794 0.337288 0.819470
0.681281 0.339627 0.821773
0.766807 0.341982 0.824098
0.852379 0.344355 0.826452
0.179545 0.414131 0.815621
0.263995 0.416422 0.817864
0.348476 0.418725 0.820125
0.432990 0.421041 0.822407
0.517634 0.423376 0.824715
0.603222 0.425756 0.827078
0.688904 0.428176 0.829473
0.774657 0.430629 0.831847
0.860447 0.433102 0.834202
0.186787 0.502860 0.823129
0.271355 0.505198 0.825443
0.355979 0.507559 0.827791
0.440707 0.509965 0.830156
0.525576 0.512398 0.832500
0.611375 0.514875 0.834850
0.697204 0.517367 0.837186
0.783059 0.519872 0.839509
0.868937 0.522389 0.841819
0.194891 0.595254 0.831194
0.279686 0.597693 0.833527
0.364512 0.600148 0.835844
0.449365 0.602617 0.838147
0.534334 0.605100 0.840440
0.620222 0.607621 0.842747
0.706131 0.610153 0.845042
0.792061 0.612696 0.847327
0.878010 0.615248 0.849603
0.203596 0.687928 0.839162
0.288484 0.690414 0.841448
0.373394 0.692911 0.843723
0.458324 0.695419 0.845988
0.543365 0.697938 0.848245
0.629321 0.700494 0.850517
0.715296 0.703059 0.852780
0.801288 0.705632 0.855034
0.887297 0.708214 0.857280
0.212587 0.780747 0.846986
0.297545 0.783268 0.849237
0.382521 0.785798 0.851479
0.467515 0.788337 0.853712
0.552616 0.790887 0.855939
0.638632 0.793472 0.858182
0.724663 0.796065 0.860416
0.810710 0.798666 0.862643
0.896773 0.801274 0.864862
0.221805 0.873678 0.854697
0.306823 0.876229 0.856918
0.391856 0.878788 0.859132
0.476905 0.881355 0.861337
0.562060 0.883931 0.863537
0.648129 0.886543 0.865753
0.734212 0.889162 0.867962
0.820309 0.891788 0.870164
0.906420 0.894421 0.872358
