luts/luts/neutral_filmic_contrast.cube
TITLE "Neutral Filmic Contrast"
LUT_3D_SIZE 33
DOMAIN_MIN 0.0 0.0 0.0
DOMAIN_MAX 1.0 1.0 1.0
0.000000 0.000000 0.000000
0.009555 0.000000 0.000000
0.026104 0.000000 0.000000
0.046994 0.000000 0.000000
0.071318 0.000000 0.000000
0.098564 0.000000 0.000000
0.128390 0.000000 0.000000
0.160548 0.000000 0.000000
0.194847 0.000000 0.000000
0.231134 0.000000 0.000000
0.269285 0.000000 0.000000
0.309194 0.000000 0.000000
0.350772 0.000000 0.000000
0.393940 0.000000 0.000000
0.438621 0.000000 0.000000
0.483272 0.000000 0.000000
0.526756 0.000000 0.000000
0.569034 0.000000 0.000000
0.610061 0.000000 0.000000
0.649790 0.000000 0.000000
0.688166 0.000000 0.000000
0.725128 0.000000 0.000000
0.760607 0.000000 0.000000
0.794523 0.000000 0.000000
0.826783 0.000000 0.000000
0.857274 0.000000 0.000000
0.885862 0.000000 0.000000
0.912377 0.000000 0.000000
0.936599 0.000000 0.000000
0.958223 0.000000 0.000000
0.976794 0.000000 0.000000
0.991506 0.000000 0.000000
1.000000 0.000000 0.000000
0.000000 0.009555 0.000000
0.009555 0.009555 0.000000
0.026104 0.009555 0.000000
0.046994 0.009555 0.000000
0.071318 0.009555 0.000000
0.098564 0.009555 0.000000
0.128390 0.009555 0.000000
0.160548 0.009555 0.000000
0.194847 0.009555 0.000000
0.231134 0.009555 0.000000
0.269285 0.009555 0.000000
0.309194 0.009555 0.000000
0.350772 0.009555 0.000000
0.393940 0.009555 0.000000
0.438621 0.009555 0.000000
0.483272 0.009555 0.000000
0.526756 0.009555 0.000000
0.569034 0.009555 0.000000
0.610061 0.009555 0.000000
0.649790 0.009555 0.000000
0.688166 0.009555 0.000000
0.725128 0.009555 0.000000
0.760607 0.009555 0.000000
0.794523 0.009555 0.000000
0.826783 0.009555 0.000000
0.857274 0.009555 0.000000
0.885862 0.009555 0.000000
0.912377 0.009555 0.000000
0.936599 0.009555 0.000000
0.958223 0.009555 0.000000
0.976794 0.009555 0.000000
0.991506 0.009555 0.000000
1.000000 0.009555 0.000000
0.000000 0.026104 0.000000
0.009555 0.026104 0.000000
0.026104 0.026104 0.000000
0.046994 0.026104 0.000000
0.071318 0.026104 0.000000
0.098564 0.026104 0.000000
0.128390 0.026104 0.000000
0.160548 0.026104 0.000000
0.194847 0.026104 0.000000
0.231134 0.026104 0.000000
0.269285 0.026104 0.000000
0.309194 0.026104 0.000000
0.350772 0.026104 0.000000
0.393940 0.026104 0.000000
0.438621 0.026104 0.000000
0.483272 0.026104 0.000000
0.526756 0.026104 0.000000
0.569034 0.026104 0.000000
0.610061 0.026104 0.000000
0.649790 0.026104 0.000000
0.688166 0.026104 0.000000
0.725128 0.026104 0.000000
0.760607 0.026104 0.000000
0.794523 0.026104 0.000000
0.826783 0.026104 0.000000
0.857274 0.026104 0.000000
0.885862 0.026104 0.000000
0.912377 0.026104 0.000000
0.936599 0.026104 0.000000
0.958223 0.026104 0.000000
0.976794 0.026104 0.000000
0.991506 0.026104 0.000000
1.000000 0.026104 0.000000
0.000000 0.046994 0.000000
0.009555 0.046994 0.000000
0.026104 0.046994 0.000000
0.046994 0.046994 0.000000
0.071318 0.046994 0.000000
0.098564 0.046994 0.000000
0.128390 0.046994 0.000000
0.160548 0.046994 0.000000
0.194847 0.046994 0.000000
0.231134 0.046994 0.000000
0.269285 0.046994 0.000000
0.309194 0.046994 0.000000
0.350772 0.046994 0.000000
0.393940 0.046994 0.000000
0.438621 0.046994 0.000000
0.483272 0.046994 0.000000
0.526756 0.046994 0.000000
0.569034 0.046994 0.000000
0.610061 0.046994 0.000000
0.649790 0.046994 0.000000
0.688166 0.046994 0.000000
0.725128 0.046994 0.000000
0.760607 0.046994 0.000000
0.794523 0.046994 0.000000
0.826783 0.046994 0.000000
0.857274 0.046994 0.000000
0.885862 0.046994 0.000000
0.912377 0.046994 0.000000
0.936599 0.046994 0.000000
0.958223 0.046994 0.000000
0.976794 0.046994 0.000000
0.991506 0.046994 0.000000
1.000000 0.046994 0.000000
0.000000 0.071318 0.000000
0.009555 0.071318 0.000000
0.026104 0.071318 0.000000
0.046994 0.071318 0.000000
0.071318 0.071318 0.000000
0.098564 0.071318 0.000000
0.128390 0.071318 0.000000
0.160548 0.071318 0.000000
0.194847 0.071318 0.000000
0.231134 0.071318 0.000000
0.269285 0.071318 0.000000
0.309194 0.071318 0.000000
0.350772 0.071318 0.000000
0.393940 0.071318 0.000000
0.438621 0.071318 0.000000
0.483272 0.071318 0.000000
0.526756 0.071318 0.000000
0.569034 0.071318 0.000000
0.610061 0.071318 0.000000
0.649790 0.071318 0.000000
0.688166 0.071318 0.000000
0.725128 0.071318 0.000000
0.760607 0.071318 0.000000
0.794523 0.071318 0.000000
0.826783 0.071318 0.000000
0.857274 0.071318 0.000000
0.885862 0.071318 0.000000
0.912377 0.071318 0.000000
0.936599 0.071318 0.000000
0.958223 0.071318 0.000000
0.976794 0.071318 0.000000
0.991506 0.071318 0.000000
1.000000 0.071318 0.000000
0.000000 0.098564 0.000000
0.009555 0.098564 0.000000
0.026104 0.098564 0.000000
0.046994 0.098564 0.000000
0.071318 0.098564 0.000000
0.098564 0.098564 0.000000
0.128390 0.098564 0.000000
0.160548 0.098564 0.000000
0.194847 0.098564 0.000000
0.231134 0.098564 0.000000
0.269285 0.098564 0.000000
0.309194 0.098564 0.000000
0.350772 0.098564 0.000000
0.393940 0.098564 0.000000
0.438621 0.098564 0.000000
0.483272 0.098564 0.000000
0.526756 0.098564 0.000000
0.569034 0.098564 0.000000
0.610061 0.098564 0.000000
0.649790 0.098564 0.000000
0.688166 0.098564 0.000000
0.725128 0.098564 0.000000
0.760607 0.098564 0.000000
0.794523 0.098564 0.000000
0.826783 0.098564 0.000000
0.857274 0.098564 0.000000
0.885862 0.098564 0.000000
0.912377 0.098564 0.000000
0.936599 0.098564 0.000000
0.958223 0.098564 0.000000
0.976794 0.098564 0.000000
0.991506 0.098564 0.000000
1.000000 0.098564 0.000000
0.000000 0.128390 0.000000
0.009555 0.128390 0.000000
0.026104 0.128390 0.000000
0.046994 0.128390 0.000000
0.071318 0.128390 0.000000
0.098564 0.128390 0.000000
0.128390 0.128390 0.000000
0.160548 0.128390 0.000000
0.194847 0.128390 0.000000
0.231134 0.128390 0.000000
0.269285 0.128390 0.000000
0.309194 0.128390 0.000000
0.350772 0.128390 0.000000
0.393940 0.128390 0.000000
0.438621 0.128390 0.000000
0.483272 0.128390 0.000000
0.526756 0.128390 0.000000
0.569034 0.128390 0.000000
0.610061 0.128390 0.000000
0.649790 0.128390 0.000000
0.688166 0.128390 0.000000
0.725128 0.128390 0.000000
0.760607 0.128390 0.000000
0.794523 0.128390 0.000000
0.826783 0.128390 0.000000
0.857274 0.128390 0.000000
0.885862 0.128390 0.000000
0.912377 0.128390 0.000000
0.936599 0.128390 0.000000
0.958223 0.128390 0.000000
0.976794 0.128390 0.000000
0.991506 0.128390 0.000000
1.000000 0.128390 0.000000
0.000000 0.160548 0.000000
0.009555 0.160548 0.000000
0.026104 0.160548 0.000000
0.046994 0.160548 0.000000
0.071318 0.160548 0.000000
0.098564 0.160548 0.000000
0.128390 0.160548 0.000000
0.160548 0.160548 0.000000
0.194847 0.160548 0.000000
0.231134 0.160548 0.000000
0.269285 0.160548 0.000000
0.309194 0.160548 0.000000
0.350772 0.160548 0.000000
0.393940 0.160548 0.000000
0.438621 0.160548 0.000000
0.483272 0.160548 0.000000
0.526756 0.160548 0.000000
0.569034 0.160548 0.000000
0.610061 0.160548 0.000000
0.649790 0.160548 0.000000
0.688166 0.160548 0.000000
0.725128 0.160548 0.000000
0.760607 0.160548 0.000000
0.794523 0.160548 0.000000
0.826783 0.160548 0.000000
0.857274 0.160548 0.000000
0.885862 0.160548 0.000000
0.912377 0.160548 0.000000
0.936599 0.160548 0.000000
0.958223 0.160548 0.000000
0.976794 0.160548 0.000000
0.991506 0.160548 0.000000
1.000000 0.160548 0.000000
0.000000 0.194847 0.000000
0.009555 0.194847 0.000000
0.026104 0.194847 0.000000
0.046994 0.194847 0.000000
0.071318 0.194847 0.000000
0.098564 0.194847 0.000000
0.128390 0.194847 0.000000
0.160548 0.194847 0.000000
0.194847 0.194847 0.000000
0.231134 0.194847 0.000000
0.269285 0.194847 0.000000
0.309194 0.194847 0.000000
0.350772 0.194847 0.000000
0.393940 0.194847 0.000000
0.438621 0.194847 0.000000
0.483272 0.194847 0.000000
0.526756 0.194847 0.000000
0.569034 0.194847 0.000000
0.610061 0.194847 0.000000
0.649790 0.194847 0.000000
0.688166 0.194847 0.000000
0.725128 0.194847 0.000000
0.760607 0.194847 0.000000
0.794523 0.194847 0.000000
0.826783 0.194847 0.000000
0.857274 0.194847 0.000000
0.885862 0.194847 0.000000
0.912377 0.194847 0.000000
0.936599 0.194847 0.000000
0.958223 0.194847 0.000000
0.976794 0.194847 0.000000
0.991506 0.194847 0.000000
1.000000 0.194847 0.000000
0.000000 0.231134 0.000000
0.009555 0.231134 0.000000
0.026104 0.231134 0.000000
0.046994 0.231134 0.000000
0.071318 0.231134 0.000000
0.098564 0.231134 0.000000
0.128390 0.231134 0.000000
0.160548 0.231134 0.000000
0.194847 0.231134 0.000000
0.231134 0.231134 0.000000
0.269285 0.231134 0.000000
0.309194 0.231134 0.000000
0.350772 0.231134 0.000000
0.393940 0.231134 0.000000
0.438621 0.231134 0.000000
0.483272 0.231134 0.000000
0.526756 0.231134 0.000000
0.569034 0.231134 0.000000
0.610061 0.231134 0.000000
0.649790 0.231134 0.000000
0.688166 0.231134 0.000000
0.725128 0.231134 0.000000
0.760607 0.231134 0.000000
0.794523 0.231134 0.000000
0.826783 0.231134 0.000000
0.857274 0.231134 0.000000
0.885862 0.231134 0.000000
0.912377 0.231134 0.000000
0.936599 0.231134 0.000000
0.958223 0.231134 0.000000
0.976794 0.231134 0.000000
0.991506 0.231134 0.000000
1.000000 0.231134 0.000000
0.000000 0.269285 0.000000
0.009555 0.269285 0.000000
0.026104 0.269285 0.000000
0.046994 0.269285 0.000000
0.071318 0.269285 0.000000
0.098564 0.269285 0.000000
0.128390 0.269285 0.000000
0.160548 0.269285 0.000000
0.194847 0.269285 0.000000
0.231134 0.269285 0.000000
0.269285 0.269285 0.000000
0.309194 0.269285 0.000000
0.350772 0.269285 0.000000
0.393940 0.269285 0.000000
0.438621 0.269285 0.000000
0.483272 0.269285 0.000000
0.526756 0.269285 0.000000
0.569034 0.269285 0.000000
0.610061 0.269285 0.000000
0.649790 0.269285 0.000000
0.688166 0.269285 0.000000
0.725128 0.269285 0.000000
0.760607 0.269285 0.000000
0.794523 0.269285 0.000000
0.826783 0.269285 0.000000
0.857274 0.269285 0.000000
0.885862 0.269285 0.000000
0.912377 0.269285 0.000000
0.936599 0.269285 0.000000
0.958223 0.269285 0.000000
0.976794 0.269285 0.000000
0.991506 0.269285 0.000000
1.000000 0.269285 0.000000
0.000000 0.309194 0.000000
0.009555 0.309194 0.000000
0.026104 0.309194 0.000000
0.046994 0.309194 0.000000
0.071318 0.309194 0.000000
0.098564 0.309194 0.000000
0.128390 0.309194 0.000000
0.160548 0.309194 0.000000
0.194847 0.309194 0.000000
0.231134 0.309194 0.000000
0.269285 0.309194 0.000000
0.309194 0.309194 0.000000
0.350772 0.309194 0.000000
0.393940 0.309194 0.000000
0.438621 0.309194 0.000000
0.483272 0.309194 0.000000
0.526756 0.309194 0.000000
0.569034 0.309194 0.000000
0.610061 0.309194 0.000000
0.649790 0.309194 0.000000
0.688166 0.309194 0.000000
0.725128 0.309194 0.000000
0.760607 0.309194 0.000000
0.794523 0.309194 0.000000
0.826783 0.309194 0.000000
0.857274 0.309194 0.000000
0.885862 0.309194 0.000000
0.912377 0.309194 0.000000
0.936599 0.309194 0.000000
0.958223 0.309194 0.000000
0.976794 0.309194 0.000000
0.991506 0.309194 0.000000
1.000000 0.309194 0.000000
0.000000 0.350772 0.000000
0.009555 0.350772 0.000000
0.026104 0.350772 0.000000
0.046994 0.350772 0.000000
0.071318 0.350772 0.000000
0.098564 0.350772 0.000000
0.128390 0.350772 0.000000
0.160548 0.350772 0.000000
0.194847 0.350772 0.000000
0.231134 0.350772 0.000000
0.269285 0.350772 0.000000
0.309194 0.350772 0.000000
0.350772 0.350772 0.000000
0.393940 0.350772 0.000000
0.438621 0.350772 0.000000
0.483272 0.350772 0.000000
0.526756 0.350772 0.000000
0.569034 0.350772 0.000000
0.610061 0.350772 0.000000
0.649790 0.350772 0.000000
0.688166 0.350772 0.000000
0.725128 0.350772 0.000000
0.760607 0.350772 0.000000
0.794523 0.350772 0.000000
0.826783 0.350772 0.000000
0.857274 0.350772 0.000000
0.885862 0.350772 0.000000
0.912377 0.350772 0.000000
0.936599 0.350772 0.000000
0.958223 0.350772 0.000000
0.976794 0.350772 0.000000
0.991506 0.350772 0.000000
1.000000 0.350772 0.000000
0.000000 0.393940 0.000000
0.009555 0.393940 0.000000
0.026104 0.393940 0.000000
0.046994 0.393940 0.000000
0.071318 0.393940 0.000000
0.098564 0.393940 0.000000
0.128390 0.393940 0.000000
0.160548 0.393940 0.000000
0.194847 0.393940 0.000000
0.231134 0.393940 0.000000
0.269285 0.393940 0.000000
0.309194 0.393940 0.000000
0.350772 0.393940 0.000000
0.393940 0.393940 0.000000
0.438621 0.393940 0.000000
0.483272 0.393940 0.000000
0.526756 0.393940 0.000000
0.569034 0.393940 0.000000
0.610061 0.393940 0.000000
0.649790 0.393940 0.000000
0.688166 0.393940 0.000000
0.725128 0.393940 0.000000
0.760607 0.393940 0.000000
0.794523 0.393940 0.000000
0.826783 0.393940 0.000000
0.857274 0.393940 0.000000
0.885862 0.393940 0.000000
0.912377 0.393940 0.000000
0.936599 0.393940 0.000000
0.958223 0.393940 0.000000
0.976794 0.393940 0.000000
0.991506 0.393940 0.000000
1.000000 0.393940 0.000000
0.000000 0.438621 0.000000
0.009555 0.438621 0.000000
0.026104 0.438621 0.000000
0.046994 0.438621 0.000000
0.071318 0.438621 0.000000
0.098564 0.438621 0.000000
0.128390 0.438621 0.000000
0.160548 0.438621 0.000000
0.194847 0.438621 0.000000
0.231134 0.438621 0.000000
0.269285 0.438621 0.000000
0.309194 0.438621 0.000000
0.350772 0.438621 0.000000
0.393940 0.438621 0.000000
0.438621 0.438621 0.000000
0.483272 0.438621 0.000000
0.526756 0.438621 0.000000
0.569034 0.438621 0.000000
0.610061 0.438621 0.000000
0.649790 0.438621 0.000000
0.688166 0.438621 0.000000
0.725128 0.438621 0.000000
0.760607 0.438621 0.000000
0.794523 0.438621 0.000000
0.826783 0.438621 0.000000
0.857274 0.438621 0.000000
0.885862 0.438621 0.000000
0.912377 0.438621 0.000000
0.936599 0.438621 0.000000
0.958223 0.438621 0.000000
0.976794 0.438621 0.000000
0.991506 0.438621 0.000000
1.000000 0.438621 0.000000
0.000000 0.483272 0.000000
0.009555 0.483272 0.000000
0.026104 0.483272 0.000000
0.046994 0.483272 0.000000
0.071318 0.483272 0.000000
0.098564 0.483272 0.000000
0.128390 0.483272 0.000000
0.160548 0.483272 0.000000
0.194847 0.483272 0.000000
0.231134 0.483272 0.000000
0.269285 0.483272 0.000000
0.309194 0.483272 0.000000
0.350772 0.483272 0.000000
0.393940 0.483272 0.000000
0.438621 0.483272 0.000000
0.483272 0.483272 0.000000
0.526756 0.483272 0.000000
0.569034 0.483272 0.000000
0.610061 0.483272 0.000000
0.649790 0.483272 0.000000
0.688166 0.483272 0.000000
0.725128 0.483272 0.000000
0.760607 0.483272 0.000000
0.794523 0.483272 0.000000
0.826783 0.483272 0.000000
0.857274 0.483272 0.000000
0.885862 0.483272 0.000000
0.912377 0.483272 0.000000
0.936599 0.483272 0.000000
0.958223 0.483272 0.000000
0.976794 0.483272 0.000000
0.991506 0.483272 0.000000
1.000000 0.483272 0.000000
0.000000 0.526756 0.000000
0.009555 0.526756 0.000000
0.026104 0.526756 0.000000
0.046994 0.526756 0.000000
0.071318 0.526756 0.000000
0.098564 0.526756 0.000000
0.128390 0.526756 0.000000
0.160548 0.526756 0.000000
0.194847 0.526756 0.000000
0.231134 0.526756 0.000000
0.269285 0.526756 0.000000
0.309194 0.526756 0.000000
0.350772 0.526756 0.000000
0.393940 0.526756 0.000000
0.438621 0.526756 0.000000
0.483272 0.526756 0.000000
0.526756 0.526756 0.000000
0.569034 0.526756 0.000000
0.610061 0.526756 0.000000
0.649790 0.526756 0.000000
0.688166 0.526756 0.000000
0.725128 0.526756 0.000000
0.760607 0.526756 0.000000
0.794523 0.526756 0.000000
0.826783 0.526756 0.000000
0.857274 0.526756 0.000000
0.885862 0.526756 0.000000
0.912377 0.526756 0.000000
0.936599 0.526756 0.000000
0.958223 0.526756 0.000000
0.976794 0.526756 0.000000
0.991506 0.526756 0.000000
1.000000 0.526756 0.000000
0.000000 0.569034 0.000000
0.009555 0.569034 0.000000
0.026104 0.569034 0.000000
0.046994 0.569034 0.000000
0.071318 0.569034 0.000000
0.098564 0.569034 0.000000
0.128390 0.569034 0.000000
0.160548 0.569034 0.000000
0.194847 0.569034 0.000000
0.231134 0.569034 0.000000
0.269285 0.569034 0.000000
0.309194 0.569034 0.000000
0.350772 0.569034 0.000000
0.393940 0.569034 0.000000
0.438621 0.569034 0.000000
0.483272 0.569034 0.000000
0.526756 0.569034 0.000000
0.569034 0.569034 0.000000
0.610061 0.569034 0.000000
0.649790 0.569034 0.000000
0.688166 0.569034 0.000000
0.725128 0.569034 0.000000
0.760607 0.569034 0.000000
0.794523 0.569034 0.000000
0.826783 0.569034 0.000000
0.857274 0.569034 0.000000
0.885862 0.569034 0.000000
0.912377 0.569034 0.000000
0.936599 0.569034 0.000000
0.958223 0.569034 0.000000
0.976794 0.569034 0.000000
0.991506 0.569034 0.000000
1.000000 0.569034 0.000000
0.000000 0.610061 0.000000
0.009555 0.610061 0.000000
0.026104 0.610061 0.000000
0.046994 0.610061 0.000000
0.071318 0.610061 0.000000
0.098564 0.610061 0.000000
0.128390 0.610061 0.000000
0.160548 0.610061 0.000000
0.194847 0.610061 0.000000
0.231134 0.610061 0.000000
0.269285 0.610061 0.000000
0.309194 0.610061 0.000000
0.350772 0.610061 0.000000
0.393940 0.610061 0.000000
0.438621 0.610061 0.000000
0.483272 0.610061 0.000000
0.526756 0.610061 0.000000
0.569034 0.610061 0.000000
0.610061 0.610061 0.000000
0.649790 0.610061 0.000000
0.688166 0.610061 0.000000
0.725128 0.610061 0.000000
0.760607 0.610061 0.000000
0.794523 0.610061 0.000000
0.826783 0.610061 0.000000
0.857274 0.610061 0.000000
0.885862 0.610061 0.000000
0.912377 0.610061 0.000000
0.936599 0.610061 0.000000
0.958223 0.610061 0.000000
0.976794 0.610061 0.000000
0.991506 0.610061 0.000000
1.000000 0.610061 0.000000
0.000000 0.649790 0.000000
0.009555 0.649790 0.000000
0.026104 0.649790 0.000000
0.046994 0.649790 0.000000
0.071318 0.649790 0.000000
0.098564 0.649790 0.000000
0.128390 0.649790 0.000000
0.160548 0.649790 0.000000
0.194847 0.649790 0.000000
0.231134 0.649790 0.000000
0.269285 0.649790 0.000000
0.309194 0.649790 0.000000
0.350772 0.649790 0.000000
0.393940 0.649790 0.000000
0.438621 0.649790 0.000000
0.483272 0.649790 0.000000
0.526756 0.649790 0.000000
0.569034 0.649790 0.000000
0.610061 0.649790 0.000000
0.649790 0.649790 0.000000
0.688166 0.649790 0.000000
0.725128 0.649790 0.000000
0.760607 0.649790 0.000000
0.794523 0.649790 0.000000
0.826783 0.649790 0.000000
0.857274 0.649790 0.000000
0.885862 0.649790 0.000000
0.912377 0.649790 0.000000
0.936599 0.649790 0.000000
0.958223 0.649790 0.000000
0.976794 0.649790 0.000000
0.991506 0.649790 0.000000
1.000000 0.649790 0.000000
0.000000 0.688166 0.000000
0.009555 0.688166 0.000000
0.026104 0.688166 0.000000
0.046994 0.688166 0.000000
0.071318 0.688166 0.000000
0.098564 0.688166 0.000000
0.128390 0.688166 0.000000
0.160548 0.688166 0.000000
0.194847 0.688166 0.000000
0.231134 0.688166 0.000000
0.269285 0.688166 0.000000
0.309194 0.688166 0.000000
0.350772 0.688166 0.000000
0.393940 0.688166 0.000000
0.438621 0.688166 0.000000
0.483272 0.688166 0.000000
0.526756 0.688166 0.000000
0.569034 0.688166 0.000000
0.610061 0.688166 0.000000
0.649790 0.688166 0.000000
0.688166 0.688166 0.000000
0.725128 0.688166 0.000000
0.760607 0.688166 0.000000
0.794523 0.688166 0.000000
0.826783 0.688166 0.000000
0.857274 0.688166 0.000000
0.885862 0.688166 0.000000
0.912377 0.688166 0.000000
0.936599 0.688166 0.000000
0.958223 0.688166 0.000000
0.976794 0.688166 0.000000
0.991506 0.688166 0.000000
1.000000 0.688166 0.000000
0.000000 0.725128 0.000000
0.009555 0.725128 0.000000
0.026104 0.725128 0.000000
0.046994 0.725128 0.000000
0.071318 0.725128 0.000000
0.098564 0.725128 0.000000
0.128390 0.725128 0.000000
0.160548 0.725128 0.000000
0.194847 0.725128 0.000000
0.231134 0.725128 0.000000
0.269285 0.725128 0.000000
0.309194 0.725128 0.000000
0.350772 0.725128 0.000000
0.393940 0.725128 0.000000
0.438621 0.725128 0.000000
0.483272 0.725128 0.000000
0.526756 0.725128 0.000000
0.569034 0.725128 0.000000
0.610061 0.725128 0.000000
0.649790 0.725128 0.000000
0.688166 0.725128 0.000000
0.725128 0.725128 0.000000
0.760607 0.725128 0.000000
0.794523 0.725128 0.000000
0.826783 0.725128 0.000000
0.857274 0.725128 0.000000
0.885862 0.725128 0.000000
0.912377 0.725128 0.000000
0.936599 0.725128 0.000000
0.958223 0.725128 0.000000
0.976794 0.725128 0.000000
0.991506 0.725128 0.000000
1.000000 0.725128 0.000000
0.000000 0.760607 0.000000
0.009555 0.760607 0.000000
0.026104 0.760607 0.000000
0.046994 0.760607 0.000000
0.071318 0.760607 0.000000
0.098564 0.760607 0.000000
0.128390 0.760607 0.000000
0.160548 0.760607 0.000000
0.194847 0.760607 0.000000
0.231134 0.760607 0.000000
0.269285 0.760607 0.000000
0.309194 0.760607 0.000000
0.350772 0.760607 0.000000
0.393940 0.760607 0.000000
0.438621 0.760607 0.000000
0.483272 0.760607 0.000000
0.526756 0.760607 0.000000
0.569034 0.760607 0.000000
0.610061 0.760607 0.000000
0.649790 0.760607 0.000000
0.688166 0.760607 0.000000
0.725128 0.760607 0.000000
0.760607 0.760607 0.000000
0.794523 0.760607 0.000000
0.826783 0.760607 0.000000
0.857274 0.760607 0.000000
0.885862 0.760607 0.000000
0.912377 0.760607 0.000000
0.936599 0.760607 0.000000
0.958223 0.760607 0.000000
0.976794 0.760607 0.000000
0.991506 0.760607 0.000000
1.000000 0.760607 0.000000
0.000000 0.794523 0.000000
0.009555 0.794523 0.000000
0.026104 0.794523 0.000000
0.046994 0.794523 0.000000
0.071318 0.794523 0.000000
0.098564 0.794523 0.000000
0.128390 0.794523 0.000000
0.160548 0.794523 0.000000
0.194847 0.794523 0.000000
0.231134 0.794523 0.000000
0.269285 0.794523 0.000000
0.309194 0.794523 0.000000
0.350772 0.794523 0.000000
0.393940 0.794523 0.000000
0.438621 0.794523 0.000000
0.483272 0.794523 0.000000
0.526756 0.794523 0.000000
0.569034 0.794523 0.000000
0.610061 0.794523 0.000000
0.649790 0.794523 0.000000
0.688166 0.794523 0.000000
0.725128 0.794523 0.000000
0.760607 0.794523 0.000000
0.794523 0.794523 0.000000
0.826783 0.794523 0.000000
0.857274 0.794523 0.000000
0.885862 0.794523 0.000000
0.912377 0.794523 0.000000
0.936599 0.794523 0.000000
0.958223 0.794523 0.000000
0.976794 0.794523 0.000000
0.991506 0.794523 0.000000
1.000000 0.794523 0.000000
0.000000 0.826783 0.000000
0.009555 0.826783 0.000000
0.026104 0.826783 0.000000
0.046994 0.826783 0.000000
0.071318 0.826783 0.000000
0.098564 0.826783 0.000000
0.128390 0.826783 0.000000
0.160548 0.826783 0.000000
0.194847 0.826783 0.000000
0.231134 0.826783 0.000000
0.269285 0.826783 0.000000
0.309194 0.826783 0.000000
0.350772 0.826783 0.000000
0.393940 0.826783 0.000000
0.438621 0.826783 0.000000
0.483272 0.826783 0.000000
0.526756 0.826783 0.000000
0.569034 0.826783 0.000000
0.610061 0.826783 0.000000
0.649790 0.826783 0.000000
0.688166 0.826783 0.000000
0.725128 0.826783 0.000000
0.760607 0.826783 0.000000
0.794523 0.826783 0.000000
0.826783 0.826783 0.000000
0.857274 0.826783 0.000000
0.885862 0.826783 0.000000
0.912377 0.826783 0.000000
0.936599 0.826783 0.000000
0.958223 0.826783 0.000000
0.976794 0.826783 0.000000
0.991506 0.826783 0.000000
1.000000 0.826783 0.000000
0.000000 0.857274 0.000000
0.009555 0.857274 0.000000
0.026104 0.857274 0.000000
0.046994 0.857274 0.000000
0.071318 0.857274 0.000000
0.098564 0.857274 0.000000
0.128390 0.857274 0.000000
0.160548 0.857274 0.000000
0.194847 0.857274 0.000000
0.231134 0.857274 0.000000
0.269285 0.857274 0.000000
0.309194 0.857274 0.000000
0.350772 0.857274 0.000000
0.393940 0.857274 0.000000
0.438621 0.857274 0.000000
0.483272 0.857274 0.000000
0.526756 0.857274 0.000000
0.569034 0.857274 0.000000
0.610061 0.857274 0.000000
0.649790 0.857274 0.000000
0.688166 0.857274 0.000000
0.725128 0.857274 0.000000
0.760607 0.857274 0.000000
0.794523 0.857274 0.000000
0.826783 0.857274 0.000000
0.857274 0.857274 0.000000
0.885862 0.857274 0.000000
0.912377 0.857274 0.000000
0.936599 0.857274 0.000000
0.958223 0.857274 0.000000
0.976794 0.857274 0.000000
0.991506 0.857274 0.000000
1.000000 0.857274 0.000000
0.000000 0.885862 0.000000
0.009555 0.885862 0.000000
0.026104 0.885862 0.000000
0.046994 0.885862 0.000000
0.071318 0.885862 0.000000
0.098564 0.885862 0.000000
0.128390 0.885862 0.000000
0.160548 0.885862 0.000000
0.194847 0.885862 0.000000
0.231134 0.885862 0.000000
0.269285 0.885862 0.000000
0.309194 0.885862 0.000000
0.350772 0.885862 0.000000
0.393940 0.885862 0.000000
0.438621 0.885862 0.000000
0.483272 0.885862 0.000000
0.526756 0.885862 0.000000
0.569034 0.885862 0.000000
0.610061 0.885862 0.000000
0.649790 0.885862 0.000000
0.688166 0.885862 0.000000
0.725128 0.885862 0.000000
0.760607 0.885862 0.000000
0.794523 0.885862 0.000000
0.826783 0.885862 0.000000
0.857274 0.885862 0.000000
0.885862 0.885862 0.000000
