luts/luts/neutral_filmic_contrast.cube
TITLE "Neutral Filmic Contrast"
LUT_3D_SIZE 5
DOMAIN_MIN 0.0 0.0 0.0
DOMAIN_MAX 1.0 1.0 1.0
0.000000 0.000000 0.000000
0.194847 0.000000 0.000000
0.526756 0.000000 0.000000
0.826783 0.000000 0.000000
1.000000 0.000000 0.000000
0.000000 0.194847 0.000000
0.194847 0.194847 0.000000
0.526756 0.194847 0.000000
0.826783 0.194847 0.000000
1.000000 0.194847 0.000000
0.000000 0.526756 0.000000
0.194847 0.526756 0.000000
0.526756 0.526756 0.000000
0.826783 0.526756 0.000000
1.000000 0.526756 0.000000
0.000000 0.826783 0.000000
0.194847 0.826783 0.000000
0.526756 0.826783 0.000000
0.826783 0.826783 0.000000
1.000000 0.826783 0.000000
0.000000 1.000000 0.000000
0.194847 1.000000 0.000000
0.526756 1.000000 0.000000
0.826783 1.000000 0.000000
1.000000 1.000000 0.000000
0.000000 0.000000 0.194847
0.194847 0.000000 0.194847
0.526756 0.000000 0.194847
0.826783 0.000000 0.194847
1.000000 0.000000 0.194847
0.000000 0.194847 0.194847
0.194847 0.194847 0.194847
0.526756 0.194847 0.194847
0.826783 0.194847 0.194847
1.000000 0.194847 0.194847
0.000000 0.526756 0.194847
0.194847 0.526756 0.194847
0.526756 0.526756 0.194847
0.826783 0.526756 0.194847
1.000000 0.526756 0.194847
0.000000 0.826783 0.194847
0.194847 0.826783 0.194847
0.526756 0.826783 0.194847
0.826783 0.826783 0.194847
1.000000 0.826783 0.194847
0.000000 1.000000 0.194847
0.194847 1.000000 0.194847
0.526756 1.000000 0.194847
0.826783 1.000000 0.194847
1.000000 1.000000 0.194847
0.000000 0.000000 0.526756
0.194847 0.000000 0.526756
0.526756 0.000000 0.526756
0.826783 0.000000 0.526756
1.000000 0.000000 0.526756
0.000000 0.194847 0.526756
0.194847 0.194847 0.526756
0.526756 0.194847 0.526756
0.826783 0.194847 0.526756
1.000000 0.194847 0.526756
0.000000 0.526756 0.526756
0.194847 0.526756 0.526756
0.526756 0.526756 0.526756
0.826783 0.526756 0.526756
1.000000 0.526756 0.526756
0.000000 0.826783 0.526756
0.194847 0.826783 0.526756
0.526756 0.826783 0.526756
0.826783 0.826783 0.526756
1.000000 0.826783 0.526756
0.000000 1.000000 0.526756
0.194847 1.000000 0.526756
0.526756 1.000000 0.526756
0.826783 1.000000 0.526756
1.000000 1.000000 0.526756
0.000000 0.000000 0.826783
0.194847 0.000000 0.826783
0.526756 0.000000 0.826783
0.826783 0.000000 0.826783
1.000000 0.000000 0.826783
0.000000 0.194847 0.826783
0.194847 0.194847 0.826783
0.526756 0.194847 0.826783
0.826783 0.194847 0.826783
1.000000 0.194847 0.826783
0.000000 0.526756 0.826783
0.194847 0.526756 0.826783
0.526756 0.526756 0.826783
0.826783 0.526756 0.826783
1.000000 0.526756 0.826783
0.000000 0.826783 0.826783
0.194847 0.826783 0.826783
0.526756 0.826783 0.826783
0.826783 0.826783 0.826783
1.000000 0.826783 0.826783
0.000000 1.000000 0.826783
0.194847 1.000000 0.826783
0.526756 1.000000 0.826783
0.826783 1.000000 0.826783
1.000000 1.000000 0.826783
0.000000 0.000000 1.000000
0.194847 0.000000 1.000000
0.526756 0.000000 1.000000
0.826783 0.000000 1.000000
1.000000 0.000000 1.000000
0.000000 0.194847 1.000000
0.194847 0.194847 1.000000
0.526756 0.194847 1.000000
0.826783 0.194847 1.000000
1.000000 0.194847 1.000000
0.000000 0.526756 1.000000
0.194847 0.526756 1.000000
0.526756 0.526756 1.000000
0.826783 0.526756 1.000000
1.000000 0.526756 1.000000
0.000000 0.826783 1.000000
0.194847 0.826783 1.000000
0.526756 0.826783 1.000000
0.826783 0.826783 1.000000
1.000000 0.826783 1.000000
0.000000 1.000000 1.000000
0.194847 1.000000 1.000000
0.526756 1.000000 1.000000
0.826783 1.000000 1.000000
1.000000 1.000000 1.000000
