luts/luts/neutral_filmic_contrast.cube
TITLE "Neutral Filmic Contrast"
LUT_3D_SIZE 9
DOMAIN_MIN 0.0 0.0 0.0
DOMAIN_MAX 1.0 1.0 1.0
0.000000 0.000000 0.000000
0.071318 0.000000 0.000000
0.194847 0.000000 0.000000
0.350772 0.000000 0.000000
0.526756 0.000000 0.000000
0.688166 0.000000 0.000000
0.826783 0.000000 0.000000
0.936599 0.000000 0.000000
1.000000 0.000000 0.000000
0.000000 0.071318 0.000000
0.071318 0.071318 0.000000
0.194847 0.071318 0.000000
0.350772 0.071318 0.000000
0.526756 0.071318 0.000000
0.688166 0.071318 0.000000
0.826783 0.071318 0.000000
0.936599 0.071318 0.000000
1.000000 0.071318 0.000000
0.000000 0.194847 0.000000
0.071318 0.194847 0.000000
0.194847 0.194847 0.000000
0.350772 0.194847 0.000000
0.526756 0.194847 0.000000
0.688166 0.194847 0.000000
0.826783 0.194847 0.000000
0.936599 0.194847 0.000000
1.000000 0.194847 0.000000
0.000000 0.350772 0.000000
0.071318 0.350772 0.000000
0.194847 0.350772 0.000000
0.350772 0.350772 0.000000
0.526756 0.350772 0.000000
0.688166 0.350772 0.000000
0.826783 0.350772 0.000000
0.936599 0.350772 0.000000
1.000000 0.350772 0.000000
0.000000 0.526756 0.000000
0.071318 0.526756 0.000000
0.194847 0.526756 0.000000
0.350772 0.526756 0.000000
0.526756 0.526756 0.000000
0.688166 0.526756 0.000000
0.826783 0.526756 0.000000
0.936599 0.526756 0.000000
1.000000 0.526756 0.000000
0.000000 0.688166 0.000000
0.071318 0.688166 0.000000
0.194847 0.688166 0.000000
0.350772 0.688166 0.000000
0.526756 0.688166 0.000000
0.688166 0.688166 0.000000
0.826783 0.688166 0.000000
0.936599 0.688166 0.000000
1.000000 0.688166 0.000000
0.000000 0.826783 0.000000
0.071318 0.826783 0.000000
0.194847 0.826783 0.000000
0.350772 0.826783 0.000000
0.526756 0.826783 0.000000
0.688166 0.826783 0.000000
0.826783 0.826783 0.000000
0.936599 0.826783 0.000000
1.000000 0.826783 0.000000
0.000000 0.936599 0.000000
0.071318 0.936599 0.000000
0.194847 0.936599 0.000000
0.350772 0.936599 0.000000
0.526756 0.936599 0.000000
0.688166 0.936599 0.000000
0.826783 0.936599 0.000000
0.936599 0.936599 0.000000
1.000000 0.936599 0.000000
0.000000 1.000000 0.000000
0.071318 1.000000 0.000000
0.194847 1.000000 0.000000
0.350772 1.000000 0.000000
0.526756 1.000000 0.000000
0.688166 1.000000 0.000000
0.826783 1.000000 0.000000
0.936599 1.000000 0.000000
1.000000 1.000000 0.000000
0.000000 0.000000 0.071318
0.071318 0.000000 0.071318
0.194847 0.000000 0.071318
0.350772 0.000000 0.071318
0.526756 0.000000 0.071318
0.688166 0.000000 0.071318
0.826783 0.000000 0.071318
0.936599 0.000000 0.071318
1.000000 0.000000 0.071318
0.000000 0.071318 0.071318
0.071318 0.071318 0.071318
0.194847 0.071318 0.071318
0.350772 0.071318 0.071318
0.526756 0.071318 0.071318
0.688166 0.071318 0.071318
0.826783 0.071318 0.071318
0.936599 0.071318 0.071318
1.000000 0.071318 0.071318
0.000000 0.194847 0.071318
0.071318 0.194847 0.071318
0.194847 0.194847 0.071318
0.350772 0.194847 0.071318
0.526756 0.194847 0.071318
0.688166 0.194847 0.071318
0.826783 0.194847 0.071318
0.936599 0.194847 0.071318
1.000000 0.194847 0.071318
0.000000 0.350772 0.071318
0.071318 0.350772 0.071318
0.194847 0.350772 0.071318
0.350772 0.350772 0.071318
0.526756 0.350772 0.071318
0.688166 0.350772 0.071318
0.826783 0.350772 0.071318
0.936599 0.350772 0.071318
1.000000 0.350772 0.071318
0.000000 0.526756 0.071318
0.071318 0.526756 0.071318
0.194847 0.526756 0.071318
0.350772 0.526756 0.071318
0.526756 0.526756 0.071318
0.688166 0.526756 0.071318
0.826783 0.526756 0.071318
0.936599 0.526756 0.071318
1.000000 0.526756 0.071318
0.000000 0.688166 0.071318
0.071318 0.688166 0.071318
0.194847 0.688166 0.071318
0.350772 0.688166 0.071318
0.526756 0.688166 0.071318
0.688166 0.688166 0.071318
0.826783 0.688166 0.071318
0.936599 0.688166 0.071318
1.000000 0.688166 0.071318
0.000000 0.826783 0.071318
0.071318 0.826783 0.071318
0.194847 0.826783 0.071318
0.350772 0.826783 0.071318
0.526756 0.826783 0.071318
0.688166 0.826783 0.071318
0.826783 0.826783 0.071318
0.936599 0.826783 0.071318
1.000000 0.826783 0.071318
0.000000 0.936599 0.071318
0.071318 0.936599 0.071318
0.194847 0.936599 0.071318
0.350772 0.936599 0.071318
0.526756 0.936599 0.071318
0.688166 0.936599 0.071318
0.826783 0.936599 0.071318
0.936599 0.936599 0.071318
1.000000 0.936599 0.071318
0.000000 1.000000 0.071318
0.071318 1.000000 0.071318
0.194847 1.000000 0.071318
0.350772 1.000000 0.071318
0.526756 1.000000 0.071318
0.688166 1.000000 0.071318
0.826783 1.000000 0.071318
0.936599 1.000000 0.071318
1.000000 1.000000 0.071318
0.000000 0.000000 0.194847
0.071318 0.000000 0.194847
0.194847 0.000000 0.194847
0.350772 0.000000 0.194847
0.526756 0.000000 0.194847
0.688166 0.000000 0.194847
0.826783 0.000000 0.194847
0.936599 0.000000 0.194847
1.000000 0.000000 0.194847
0.000000 0.071318 0.194847
0.071318 0.071318 0.194847
0.194847 0.071318 0.194847
0.350772 0.071318 0.194847
0.526756 0.071318 0.194847
0.688166 0.071318 0.194847
0.826783 0.071318 0.194847
0.936599 0.071318 0.194847
1.000000 0.071318 0.194847
0.000000 0.194847 0.194847
0.071318 0.194847 0.194847
0.194847 0.194847 0.194847
0.350772 0.194847 0.194847
0.526756 0.194847 0.194847
0.688166 0.194847 0.194847
0.826783 0.194847 0.194847
0.936599 0.194847 0.194847
1.000000 0.194847 0.194847
0.000000 0.350772 0.194847
0.071318 0.350772 0.194847
0.194847 0.350772 0.194847
0.350772 0.350772 0.194847
0.526756 0.350772 0.194847
0.688166 0.350772 0.194847
0.826783 0.350772 0.194847
0.936599 0.350772 0.194847
1.000000 0.350772 0.194847
0.000000 0.526756 0.194847
0.071318 0.526756 0.194847
0.194847 0.526756 0.194847
0.350772 0.526756 0.194847
0.526756 0.526756 0.194847
0.688166 0.526756 0.194847
0.826783 0.526756 0.194847
0.936599 0.526756 0.194847
1.000000 0.526756 0.194847
0.000000 0.688166 0.194847
0.071318 0.688166 0.194847
0.194847 0.688166 0.194847
0.350772 0.688166 0.194847
0.526756 0.688166 0.194847
0.688166 0.688166 0.194847
0.826783 0.688166 0.194847
0.936599 0.688166 0.194847
1.000000 0.688166 0.194847
0.000000 0.826783 0.194847
0.071318 0.826783 0.194847
0.194847 0.826783 0.194847
0.350772 0.826783 0.194847
0.526756 0.826783 0.194847
0.688166 0.826783 0.194847
0.826783 0.826783 0.194847
0.936599 0.826783 0.194847
1.000000 0.826783 0.194847
0.000000 0.936599 0.194847
0.071318 0.936599 0.194847
0.194847 0.936599 0.194847
0.350772 0.936599 0.194847
0.526756 0.936599 0.194847
0.688166 0.936599 0.194847
0.826783 0.936599 0.194847
0.936599 0.936599 0.194847
1.000000 0.936599 0.194847
0.000000 1.000000 0.194847
0.071318 1.000000 0.194847
0.194847 1.000000 0.194847
0.350772 1.000000 0.194847
0.526756 1.000000 0.194847
0.688166 1.000000 0.194847
0.826783 1.000000 0.194847
0.936599 1.000000 0.194847
1.000000 1.000000 0.194847
0.000000 0.000000 0.350772
0.071318 0.000000 0.350772
0.194847 0.000000 0.350772
0.350772 0.000000 0.350772
0.526756 0.000000 0.350772
0.688166 0.000000 0.350772
0.826783 0.000000 0.350772
0.936599 0.000000 0.350772
1.000000 0.000000 0.350772
0.000000 0.071318 0.350772
0.071318 0.071318 0.350772
0.194847 0.071318 0.350772
0.350772 0.071318 0.350772
0.526756 0.071318 0.350772
0.688166 0.071318 0.350772
0.826783 0.071318 0.350772
0.936599 0.071318 0.350772
1.000000 0.071318 0.350772
0.000000 0.194847 0.350772
0.071318 0.194847 0.350772
0.194847 0.194847 0.350772
0.350772 0.194847 0.350772
0.526756 0.194847 0.350772
0.688166 0.194847 0.350772
0.826783 0.194847 0.350772
0.936599 0.194847 0.350772
1.000000 0.194847 0.350772
0.000000 0.350772 0.350772
0.071318 0.350772 0.350772
0.194847 0.350772 0.350772
0.350772 0.350772 0.350772
0.526756 0.350772 0.350772
0.688166 0.350772 0.350772
0.826783 0.350772 0.350772
0.936599 0.350772 0.350772
1.000000 0.350772 0.350772
0.000000 0.526756 0.350772
0.071318 0.526756 0.350772
0.194847 0.526756 0.350772
0.350772 0.526756 0.350772
0.526756 0.526756 0.350772
0.688166 0.526756 0.350772
0.826783 0.526756 0.350772
0.936599 0.526756 0.350772
1.000000 0.526756 0.350772
0.000000 0.688166 0.350772
0.071318 0.688166 0.350772
0.194847 0.688166 0.350772
0.350772 0.688166 0.350772
0.526756 0.688166 0.350772
0.688166 0.688166 0.350772
0.826783 0.688166 0.350772
0.936599 0.688166 0.350772
1.000000 0.688166 0.350772
0.000000 0.826783 0.350772
0.071318 0.826783 0.350772
0.194847 0.826783 0.350772
0.350772 0.826783 0.350772
0.526756 0.826783 0.350772
0.688166 0.826783 0.350772
0.826783 0.826783 0.350772
0.936599 0.826783 0.350772
1.000000 0.826783 0.350772
0.000000 0.936599 0.350772
0.071318 0.936599 0.350772
0.194847 0.936599 0.350772
0.350772 0.936599 0.350772
0.526756 0.936599 0.350772
0.688166 0.936599 0.350772
0.826783 0.936599 0.350772
0.936599 0.936599 0.350772
1.000000 0.936599 0.350772
0.000000 1.000000 0.350772
0.071318 1.000000 0.350772
0.194847 1.000000 0.350772
0.350772 1.000000 0.350772
0.526756 1.000000 0.350772
0.688166 1.000000 0.350772
0.826783 1.000000 0.350772
0.936599 1.000000 0.350772
1.000000 1.000000 0.350772
0.000000 0.000000 0.526756
0.071318 0.000000 0.526756
0.194847 0.000000 0.526756
0.350772 0.000000 0.526756
0.526756 0.000000 0.526756
0.688166 0.000000 0.526756
0.826783 0.000000 0.526756
0.936599 0.000000 0.526756
1.000000 0.000000 0.526756
0.000000 0.071318 0.526756
0.071318 0.071318 0.526756
0.194847 0.071318 0.526756
0.350772 0.071318 0.526756
0.526756 0.071318 0.526756
0.688166 0.071318 0.526756
0.826783 0.071318 0.526756
0.936599 0.071318 0.526756
1.000000 0.071318 0.526756
0.000000 0.194847 0.526756
0.071318 0.194847 0.526756
0.194847 0.194847 0.526756
0.350772 0.194847 0.526756
0.526756 0.194847 0.526756
0.688166 0.194847 0.526756
0.826783 0.194847 0.526756
0.936599 0.194847 0.526756
1.000000 0.194847 0.526756
0.000000 0.350772 0.526756
0.071318 0.350772 0.526756
0.194847 0.350772 0.526756
0.350772 0.350772 0.526756
0.526756 0.350772 0.526756
0.688166 0.350772 0.526756
0.826783 0.350772 0.526756
0.936599 0.350772 0.526756
1.000000 0.350772 0.526756
0.000000 0.526756 0.526756
0.071318 0.526756 0.526756
0.194847 0.526756 0.526756
0.350772 0.526756 0.526756
0.526756 0.526756 0.526756
0.688166 0.526756 0.526756
0.826783 0.526756 0.526756
0.936599 0.526756 0.526756
1.000000 0.526756 0.526756
0.000000 0.688166 0.526756
0.071318 0.688166 0.526756
0.194847 0.688166 0.526756
0.350772 0.688166 0.526756
0.526756 0.688166 0.526756
0.688166 0.688166 0.526756
0.826783 0.688166 0.526756
0.936599 0.688166 0.526756
1.000000 0.688166 0.526756
0.000000 0.826783 0.526756
0.071318 0.826783 0.526756
0.194847 0.826783 0.526756
0.350772 0.826783 0.526756
0.526756 0.826783 0.526756
0.688166 0.826783 0.526756
0.826783 0.826783 0.526756
0.936599 0.826783 0.526756
1.000000 0.826783 0.526756
0.000000 0.936599 0.526756
0.071318 0.936599 0.526756
0.194847 0.936599 0.526756
0.350772 0.936599 0.526756
0.526756 0.936599 0.526756
0.688166 0.936599 0.526756
0.826783 0.936599 0.526756
0.936599 0.936599 0.526756
1.000000 0.936599 0.526756
0.000000 1.000000 0.526756
0.071318 1.000000 0.526756
0.194847 1.000000 0.526756
0.350772 1.000000 0.526756
0.526756 1.000000 0.526756
0.688166 1.000000 0.526756
0.826783 1.000000 0.526756
0.936599 1.000000 0.526756
1.000000 1.000000 0.526756
0.000000 0.000000 0.688166
0.071318 0.000000 0.688166
0.194847 0.000000 0.688166
0.350772 0.000000 0.688166
0.526756 0.000000 0.688166
0.688166 0.000000 0.688166
0.826783 0.000000 0.688166
0.936599 0.000000 0.688166
1.000000 0.000000 0.688166
0.000000 0.071318 0.688166
0.071318 0.071318 0.688166
0.194847 0.071318 0.688166
0.350772 0.071318 0.688166
0.526756 0.071318 0.688166
0.688166 0.071318 0.688166
0.826783 0.071318 0.688166
0.936599 0.071318 0.688166
1.000000 0.071318 0.688166
0.000000 0.194847 0.688166
0.071318 0.194847 0.688166
0.194847 0.194847 0.688166
0.350772 0.194847 0.688166
0.526756 0.194847 0.688166
0.688166 0.194847 0.688166
0.826783 0.194847 0.688166
0.936599 0.194847 0.688166
1.000000 0.194847 0.688166
0.000000 0.350772 0.688166
0.071318 0.350772 0.688166
0.194847 0.350772 0.688166
0.350772 0.350772 0.688166
0.526756 0.350772 0.688166
0.688166 0.350772 0.688166
0.826783 0.350772 0.688166
0.936599 0.350772 0.688166
1.000000 0.350772 0.688166
0.000000 0.526756 0.688166
0.071318 0.526756 0.688166
0.194847 0.526756 0.688166
0.350772 0.526756 0.688166
0.526756 0.526756 0.688166
0.688166 0.526756 0.688166
0.826783 0.526756 0.688166
0.936599 0.526756 0.688166
1.000000 0.526756 0.688166
0.000000 0.688166 0.688166
0.071318 0.688166 0.688166
0.194847 0.688166 0.688166
0.350772 0.688166 0.688166
0.526756 0.688166 0.688166
0.688166 0.688166 0.688166
0.826783 0.688166 0.688166
0.936599 0.688166 0.688166
1.000000 0.688166 0.688166
0.000000 0.826783 0.688166
0.071318 0.826783 0.688166
0.194847 0.826783 0.688166
0.350772 0.826783 0.688166
0.526756 0.826783 0.688166
0.688166 0.826783 0.688166
0.826783 0.826783 0.688166
0.936599 0.826783 0.688166
1.000000 0.826783 0.688166
0.000000 0.936599 0.688166
0.071318 0.936599 0.688166
0.194847 0.936599 0.688166
0.350772 0.936599 0.688166
0.526756 0.936599 0.688166
0.688166 0.936599 0.688166
0.826783 0.936599 0.688166
0.936599 0.936599 0.688166
1.000000 0.936599 0.688166
0.000000 1.000000 0.688166
0.071318 1.000000 0.688166
0.194847 1.000000 0.688166
0.350772 1.000000 0.688166
0.526756 1.000000 0.688166
0.688166 1.000000 0.688166
0.826783 1.000000 0.688166
0.936599 1.000000 0.688166
1.000000 1.000000 0.688166
0.000000 0.000000 0.826783
0.071318 0.000000 0.826783
0.194847 0.000000 0.826783
0.350772 0.000000 0.826783
0.526756 0.000000 0.826783
0.688166 0.000000 0.826783
0.826783 0.000000 0.826783
0.936599 0.000000 0.826783
1.000000 0.000000 0.826783
0.000000 0.071318 0.826783
0.071318 0.071318 0.826783
0.194847 0.071318 0.826783
0.350772 0.071318 0.826783
0.526756 0.071318 0.826783
0.688166 0.071318 0.826783
0.826783 0.071318 0.826783
0.936599 0.071318 0.826783
1.000000 0.071318 0.826783
0.000000 0.194847 0.826783
0.071318 0.194847 0.826783
0.194847 0.194847 0.826783
0.350772 0.194847 0.826783
0.526756 0.194847 0.826783
0.688166 0.194847 0.826783
0.826783 0.194847 0.826783
0.936599 0.194847 0.826783
1.000000 0.194847 0.826783
0.000000 0.350772 0.826783
0.071318 0.350772 0.826783
0.194847 0.350772 0.826783
0.350772 0.350772 0.826783
0.526756 0.350772 0.826783
0.688166 0.350772 0.826783
0.826783 0.350772 0.826783
0.936599 0.350772 0.826783
1.000000 0.350772 0.826783
0.000000 0.526756 0.826783
0.071318 0.526756 0.826783
0.194847 0.526756 0.826783
0.350772 0.526756 0.826783
0.526756 0.526756 0.826783
0.688166 0.526756 0.826783
0.826783 0.526756 0.826783
0.936599 0.526756 0.826783
1.000000 0.526756 0.826783
0.000000 0.688166 0.826783
0.071318 0.688166 0.826783
0.194847 0.688166 0.826783
0.350772 0.688166 0.826783
0.526756 0.688166 0.826783
0.688166 0.688166 0.826783
0.826783 0.688166 0.826783
0.936599 0.688166 0.826783
1.000000 0.688166 0.826783
0.000000 0.826783 0.826783
0.071318 0.826783 0.826783
0.194847 0.826783 0.826783
0.350772 0.826783 0.826783
0.526756 0.826783 0.826783
0.688166 0.826783 0.826783
0.826783 0.826783 0.826783
0.936599 0.826783 0.826783
1.000000 0.826783 0.826783
0.000000 0.936599 0.826783
0.071318 0.936599 0.826783
0.194847 0.936599 0.826783
0.350772 0.936599 0.826783
0.526756 0.936599 0.826783
0.688166 0.936599 0.826783
0.826783 0.936599 0.826783
0.936599 0.936599 0.826783
1.000000 0.936599 0.826783
0.000000 1.000000 0.826783
0.071318 1.000000 0.826783
0.194847 1.000000 0.826783
0.350772 1.000000 0.826783
0.526756 1.000000 0.826783
0.688166 1.000000 0.826783
0.826783 1.000000 0.826783
0.936599 1.000000 0.826783
1.000000 1.000000 0.826783
0.000000 0.000000 0.936599
0.071318 0.000000 0.936599
0.194847 0.000000 0.936599
0.350772 0.000000 0.936599
0.526756 0.000000 0.936599
0.688166 0.000000 0.936599
0.826783 0.000000 0.936599
0.936599 0.000000 0.936599
1.000000 0.000000 0.936599
0.000000 0.071318 0.936599
0.071318 0.071318 0.936599
0.194847 0.071318 0.936599
0.350772 0.071318 0.936599
0.526756 0.071318 0.936599
0.688166 0.071318 0.936599
0.826783 0.071318 0.936599
0.936599 0.071318 0.936599
1.000000 0.071318 0.936599
0.000000 0.194847 0.936599
0.071318 0.194847 0.936599
0.194847 0.194847 0.936599
0.350772 0.194847 0.936599
0.526756 0.194847 0.936599
0.688166 0.194847 0.936599
0.826783 0.194847 0.936599
0.936599 0.194847 0.936599
1.000000 0.194847 0.936599
0.000000 0.350772 0.936599
0.071318 0.350772 0.936599
0.194847 0.350772 0.936599
0.350772 0.350772 0.936599
0.526756 0.350772 0.936599
0.688166 0.350772 0.936599
0.826783 0.350772 0.936599
0.936599 0.350772 0.936599
1.000000 0.350772 0.936599
0.000000 0.526756 0.936599
0.071318 0.526756 0.936599
0.194847 0.526756 0.936599
0.350772 0.526756 0.936599
0.526756 0.526756 0.936599
0.688166 0.526756 0.936599
0.826783 0.526756 0.936599
0.936599 0.526756 0.936599
1.000000 0.526756 0.936599
0.000000 0.688166 0.936599
0.071318 0.688166 0.936599
0.194847 0.688166 0.936599
0.350772 0.688166 0.936599
0.526756 0.688166 0.936599
0.688166 0.688166 0.936599
0.826783 0.688166 0.936599
0.936599 0.688166 0.936599
1.000000 0.688166 0.936599
0.000000 0.826783 0.936599
0.071318 0.826783 0.936599
0.194847 0.826783 0.936599
0.350772 0.826783 0.936599
0.526756 0.826783 0.936599
0.688166 0.826783 0.936599
0.826783 0.826783 0.936599
0.936599 0.826783 0.936599
1.000000 0.826783 0.936599
0.000000 0.936599 0.936599
0.071318 0.936599 0.936599
0.194847 0.936599 0.936599
0.350772 0.936599 0.936599
0.526756 0.936599 0.936599
0.688166 0.936599 0.936599
0.826783 0.936599 0.936599
0.936599 0.936599 0.936599
1.000000 0.936599 0.936599
0.000000 1.000000 0.936599
0.071318 1.000000 0.936599
0.194847 1.000000 0.936599
0.350772 1.000000 0.936599
0.526756 1.000000 0.936599
0.688166 1.000000 0.936599
0.826783 1.000000 0.936599
0.936599 1.000000 0.936599
1.000000 1.000000 0.936599
0.000000 0.000000 1.000000
0.071318 0.000000 1.000000
0.194847 0.000000 1.000000
0.350772 0.000000 1.000000
0.526756 0.000000 1.000000
0.688166 0.000000 1.000000
0.826783 0.000000 1.000000
0.936599 0.000000 1.000000
1.000000 0.000000 1.000000
0.000000 0.071318 1.000000
0.071318 0.071318 1.000000
0.194847 0.071318 1.000000
0.350772 0.071318 1.000000
0.526756 0.071318 1.000000
0.688166 0.071318 1.000000
0.826783 0.071318 1.000000
0.936599 0.071318 1.000000
1.000000 0.071318 1.000000
0.000000 0.194847 1.000000
0.071318 0.194847 1.000000
0.194847 0.194847 1.000000
0.350772 0.194847 1.000000
0.526756 0.194847 1.000000
0.688166 0.194847 1.000000
0.826783 0.194847 1.000000
0.936599 0.194847 1.000000
1.000000 0.194847 1.000000
0.000000 0.350772 1.000000
0.071318 0.350772 1.000000
0.194847 0.350772 1.000000
0.350772 0.350772 1.000000
0.526756 0.350772 1.000000
0.688166 0.350772 1.000000
0.826783 0.350772 1.000000
0.936599 0.350772 1.000000
1.000000 0.350772 1.000000
0.000000 0.526756 1.000000
0.071318 0.526756 1.000000
0.194847 0.526756 1.000000
0.350772 0.526756 1.000000
0.526756 0.526756 1.000000
0.688166 0.526756 1.000000
0.826783 0.526756 1.000000
0.936599 0.526756 1.000000
1.000000 0.526756 1.000000
0.000000 0.688166 1.000000
0.071318 0.688166 1.000000
0.194847 0.688166 1.000000
0.350772 0.688166 1.000000
0.526756 0.688166 1.000000
0.688166 0.688166 1.000000
0.826783 0.688166 1.000000
0.936599 0.688166 1.000000
1.000000 0.688166 1.000000
0.000000 0.826783 1.000000
0.071318 0.826783 1.000000
0.194847 0.826783 1.000000
0.350772 0.826783 1.000000
0.526756 0.826783 1.000000
0.688166 0.826783 1.000000
0.826783 0.826783 1.000000
0.936599 0.826783 1.000000
1.000000 0.826783 1.000000
0.000000 0.936599 1.000000
0.071318 0.936599 1.000000
0.194847 0.936599 1.000000
0.350772 0.936599 1.000000
0.526756 0.936599 1.000000
0.688166 0.936599 1.000000
0.826783 0.936599 1.000000
0.936599 0.936599 1.000000
1.000000 0.936599 1.000000
0.000000 1.000000 1.000000
0.071318 1.000000 1.000000
0.194847 1.000000 1.000000
0.350772 1.000000 1.000000
0.526756 1.000000 1.000000
0.688166 1.000000 1.000000
0.826783 1.000000 1.000000
0.936599 1.000000 1.000000
1.000000 1.000000 1.000000
