luts/luts/portra_warm_negative.cube
TITLE "Warm Negative (Portra-ish)"
LUT_3D_SIZE 9
DOMAIN_MIN 0.0 0.0 0.0
DOMAIN_MAX 1.0 1.0 1.0
0.022147 0.022413 0.051611
0.124599 0.021198 0.049627
0.248264 0.020597 0.048017
0.388981 0.021155 0.047418
0.531028 0.023207 0.048292
0.662497 0.025881 0.049979
0.790617 0.026588 0.050129
0.897662 0.027196 0.050294
0.961475 0.027566 0.050410
0.019241 0.114327 0.045815
0.121970 0.113042 0.044130
0.248236 0.111692 0.042801
0.391828 0.111341 0.043372
0.536886 0.112443 0.045476
0.668854 0.114864 0.048878
0.793247 0.116577 0.050685
0.900292 0.117231 0.050957
0.964104 0.117629 0.051139
0.017931 0.229730 0.041135
0.119502 0.228792 0.039984
0.245002 0.227675 0.039318
0.391238 0.226723 0.038931
0.541914 0.226361 0.039951
0.677476 0.227658 0.044845
0.798534 0.230056 0.050607
0.903616 0.231236 0.052262
0.967428 0.231675 0.052540
0.019866 0.367333 0.039604
0.120044 0.366820 0.039111
0.244188 0.366085 0.039636
0.388830 0.365587 0.040659
0.538884 0.365493 0.042208
0.679230 0.365807 0.044125
0.807878 0.366452 0.046303
0.910675 0.368042 0.051905
0.971425 0.369180 0.055125
0.026082 0.511512 0.042960
0.124788 0.511461 0.043196
0.247497 0.511152 0.045029
0.390453 0.511167 0.047620
0.538741 0.511633 0.050865
0.677462 0.512542 0.054477
0.805027 0.513756 0.057614
0.912310 0.514795 0.058434
0.976292 0.515426 0.058910
0.036265 0.650837 0.051393
0.133535 0.651285 0.052449
0.254940 0.651507 0.055692
0.395956 0.652503 0.058045
0.543015 0.653950 0.059142
0.681975 0.655354 0.060133
0.810579 0.656681 0.061016
0.918074 0.657809 0.061730
0.982175 0.658489 0.062147
0.044637 0.783183 0.058689
0.141102 0.784144 0.059394
0.260672 0.785356 0.060241
0.401254 0.786811 0.061200
0.548572 0.788367 0.062167
0.687753 0.789863 0.063048
0.816547 0.791269 0.063835
0.924193 0.792459 0.064475
0.988380 0.793175 0.064848
0.049295 0.899047 0.061365
0.145903 0.900067 0.061999
0.265637 0.901348 0.062764
0.406398 0.902878 0.063633
0.553892 0.904507 0.064512
0.693231 0.906068 0.065314
0.822164 0.907532 0.066032
0.929922 0.908769 0.066616
0.994173 0.909512 0.066957
0.052674 0.975958 0.062993
0.149360 0.977011 0.063588
0.269187 0.978331 0.064306
0.410052 0.979904 0.065123
0.557650 0.981576 0.065951
0.697082 0.983176 0.066706
0.826099 0.984675 0.067382
0.933925 0.985940 0.067932
0.998216 0.986700 0.068253
0.021896 0.022129 0.130891
0.124454 0.020841 0.129354
0.248326 0.020319 0.126395
0.389286 0.020970 0.124212
0.531588 0.023119 0.123426
0.662720 0.026019 0.123921
0.790839 0.026731 0.124082
0.897884 0.027342 0.124255
0.961697 0.027715 0.124377
0.019071 0.113969 0.125698
0.121840 0.112677 0.123998
0.248158 0.111380 0.122032
0.391992 0.111123 0.121020
0.537305 0.112323 0.121465
0.669513 0.114836 0.123301
0.793469 0.116730 0.124663
0.900514 0.117388 0.124944
0.964327 0.117788 0.125132
0.017938 0.229437 0.119994
0.118342 0.228975 0.117607
0.245199 0.227531 0.116233
0.393030 0.226196 0.115015
0.542156 0.226201 0.117023
0.677958 0.227591 0.120353
0.799238 0.230076 0.124670
0.903838 0.231409 0.126287
0.967651 0.231851 0.126572
0.020087 0.367121 0.117238
0.117621 0.367672 0.114032
0.243121 0.366611 0.113851
0.389357 0.365730 0.114045
0.541082 0.365236 0.114727
0.683005 0.365173 0.115828
0.809877 0.366144 0.120094
0.911352 0.368098 0.126086
0.971647 0.369386 0.129225
0.026528 0.511388 0.119306
0.121028 0.513025 0.115270
0.245094 0.512391 0.116402
0.389644 0.512027 0.118170
0.539603 0.512099 0.120563
0.679928 0.512647 0.123355
0.808707 0.513545 0.126204
0.915513 0.514558 0.128782
0.978836 0.515274 0.130405
0.036930 0.650810 0.126507
0.128477 0.653563 0.121791
0.251271 0.653469 0.124302
0.394456 0.653747 0.127524
0.543094 0.654472 0.131233
0.682288 0.655614 0.134226
0.810904 0.656946 0.135103
0.918409 0.658078 0.135813
0.982515 0.658760 0.136227
0.044928 0.783434 0.132793
0.140094 0.784923 0.132164
0.260987 0.785617 0.134334
0.401581 0.787078 0.135286
0.548912 0.788638 0.136247
0.688105 0.790139 0.137122
0.816909 0.791549 0.137905
0.924563 0.792743 0.138540
0.988754 0.793461 0.138911
0.049625 0.899314 0.135450
0.146241 0.900338 0.136080
0.265985 0.901623 0.136840
0.406757 0.903158 0.137704
0.554262 0.904791 0.138577
0.693611 0.906356 0.139374
0.822552 0.907824 0.140088
0.930317 0.909064 0.140668
0.994573 0.909808 0.141007
0.053025 0.976234 0.137068
0.149718 0.977290 0.137659
0.269554 0.978613 0.138373
0.410430 0.980191 0.139185
0.558037 0.981867 0.140007
0.697479 0.983471 0.140757
0.826504 0.984973 0.141430
0.934336 0.986241 0.141976
0.998631 0.987003 0.142295
0.021799 0.021988 0.230262
0.123042 0.021010 0.229570
0.248388 0.019943 0.227722
0.389662 0.020714 0.223495
0.532292 0.022989 0.220569
0.663006 0.026199 0.219302
0.791126 0.026916 0.219475
0.898171 0.027532 0.219660
0.961984 0.027907 0.219789
0.019451 0.113442 0.227627
0.121414 0.112338 0.226482
0.248039 0.110962 0.224461
0.392187 0.110826 0.221405
0.537828 0.112151 0.219711
0.670347 0.114784 0.219528
0.793756 0.116929 0.220089
0.900801 0.117592 0.220383
0.964614 0.117996 0.220578
0.017964 0.229078 0.221493
0.118057 0.228581 0.220422
0.245223 0.227122 0.218347
0.393004 0.225845 0.216787
0.542450 0.225978 0.216667
0.678563 0.227490 0.217980
0.800130 0.230087 0.220432
0.904125 0.231634 0.221775
0.967938 0.232081 0.222069
0.020388 0.366866 0.217155
0.117480 0.367434 0.215138
0.241520 0.367066 0.212479
0.389813 0.365692 0.211604
0.543691 0.364681 0.211167
0.684930 0.364722 0.213372
0.810493 0.366103 0.217561
0.912208 0.368155 0.222005
0.971934 0.369655 0.224815
0.027121 0.511248 0.217563
0.121040 0.512959 0.214581
0.241769 0.513767 0.211364
0.388376 0.512913 0.212074
0.540489 0.512479 0.213373
0.682893 0.512561 0.215091
0.813579 0.513010 0.216932
0.921975 0.513647 0.218668
0.984694 0.514451 0.221264
0.037806 0.650797 0.223182
0.128660 0.653696 0.219396
0.246321 0.655776 0.215692
0.391588 0.655564 0.217813
0.542402 0.655774 0.220372
0.683550 0.656372 0.223112
0.813004 0.657269 0.225929
0.920347 0.658270 0.228494
0.983981 0.658975 0.230114
0.045309 0.783760 0.228378
0.140502 0.785222 0.228021
0.255400 0.788391 0.223437
0.399390 0.788633 0.226566
0.548836 0.789306 0.230197
0.688561 0.790497 0.232668
0.817378 0.791912 0.233445
0.925042 0.793110 0.234075
0.989239 0.793830 0.234443
0.050054 0.899660 0.231011
0.146681 0.900688 0.231635
0.266437 0.901979 0.232389
0.407223 0.903519 0.233246
0.554742 0.905158 0.234112
0.694103 0.906729 0.234903
0.823056 0.908201 0.235611
0.930829 0.909444 0.236187
0.995090 0.910191 0.236523
0.053480 0.976591 0.232615
0.150184 0.977651 0.233201
0.270031 0.978979 0.233909
0.410919 0.980562 0.234715
0.558539 0.982243 0.235531
0.697993 0.983853 0.236275
0.827028 0.985359 0.236943
0.934869 0.986630 0.237485
0.999169 0.987394 0.237801
0.022051 0.022187 0.354647
0.121457 0.021662 0.354938
0.245493 0.020789 0.355096
0.390121 0.020354 0.353026
0.533178 0.022793 0.347316
0.663380 0.026434 0.343376
0.791499 0.027159 0.343567
0.898544 0.027781 0.343766
0.962357 0.028160 0.343904
0.021099 0.112936 0.355073
0.121225 0.112285 0.354911
0.246154 0.111257 0.354511
0.392411 0.110411 0.352368
0.538479 0.111901 0.347892
0.671401 0.114689 0.345082
0.794129 0.117190 0.344223
0.901174 0.117860 0.344533
0.964987 0.118268 0.344738
0.018029 0.228643 0.353145
0.118557 0.227941 0.352881
0.244615 0.226722 0.351786
0.392930 0.225363 0.349567
0.542804 0.225662 0.346668
0.679319 0.227330 0.345357
0.801259 0.230073 0.345384
0.904498 0.231931 0.345991
0.968311 0.232382 0.346298
0.020810 0.366567 0.346752
0.117622 0.367039 0.346587
0.240823 0.366766 0.345553
0.390026 0.365265 0.343391
0.544493 0.364149 0.342411
0.685329 0.364494 0.342958
0.811265 0.366025 0.344733
0.913291 0.368205 0.347167
0.972728 0.369901 0.349045
0.027921 0.511098 0.345001
0.121561 0.512716 0.343877
0.240831 0.513870 0.341675
0.386347 0.513692 0.339112
0.541272 0.512611 0.338998
0.686380 0.512073 0.339292
0.818130 0.512234 0.341072
0.923979 0.513438 0.344839
0.985720 0.514539 0.347446
0.038976 0.650818 0.348574
0.129593 0.653645 0.346632
0.245228 0.656315 0.343292
0.387486 0.657551 0.340135
0.541130 0.657089 0.341198
0.684947 0.657052 0.342526
0.816868 0.657361 0.344039
0.926271 0.657869 0.345515
0.991133 0.658281 0.346486
0.045811 0.784187 0.352709
0.141884 0.785318 0.353153
0.254172 0.789295 0.348375
0.393310 0.791711 0.344398
0.545578 0.791709 0.346537
0.688077 0.792099 0.348890
0.818768 0.792798 0.351357
0.927134 0.793629 0.353634
0.991376 0.794232 0.355084
0.050618 0.900113 0.355311
0.147258 0.901146 0.355929
0.265362 0.903073 0.355347
0.401760 0.906486 0.350690
0.552803 0.906866 0.353775
0.694137 0.907612 0.357027
0.823714 0.908693 0.359864
0.931500 0.909941 0.360433
0.995767 0.910691 0.360766
0.054078 0.977058 0.356898
0.150793 0.978123 0.357478
0.270655 0.979457 0.358179
0.409068 0.982066 0.356214
0.559197 0.982735 0.359784
0.698665 0.984350 0.360521
0.827713 0.985862 0.361182
0.935565 0.987138 0.361718
0.999872 0.987904 0.362032
0.022789 0.022870 0.480630
0.120244 0.022825 0.481964
0.241865 0.022548 0.483415
0.386029 0.021908 0.484835
0.534083 0.022550 0.482310
0.664590 0.026396 0.475542
0.791895 0.027419 0.475273
0.898940 0.028049 0.475489
0.962753 0.028432 0.475636
0.023317 0.112870 0.484305
0.121493 0.112700 0.485187
0.244006 0.112268 0.486081
0.389220 0.111449 0.486851
0.539133 0.111602 0.484409
0.672483 0.114555 0.478812
0.794525 0.117470 0.475976
0.901570 0.118148 0.476304
0.965383 0.118561 0.476520
0.021610 0.227738 0.486949
0.120697 0.227413 0.487269
0.244338 0.226791 0.487470
0.390878 0.225751 0.487433
0.543142 0.225294 0.485117
0.680086 0.227128 0.481022
0.802422 0.230026 0.478476
0.904894 0.232249 0.477833
0.968707 0.232707 0.478154
0.021295 0.366288 0.483833
0.117809 0.366659 0.485635
0.241227 0.366163 0.486286
0.389361 0.364874 0.485315
0.544451 0.363704 0.483199
0.685716 0.364219 0.480972
0.812048 0.365911 0.480187
0.914405 0.368231 0.480494
0.974050 0.370022 0.481115
0.028807 0.510980 0.479794
0.122149 0.512499 0.480643
0.241051 0.513532 0.480888
0.385385 0.513556 0.480058
0.541661 0.512295 0.478353
0.687767 0.511553 0.478037
0.818628 0.512087 0.478939
0.924830 0.513421 0.480524
0.986780 0.514599 0.481831
0.040272 0.650897 0.481206
0.130636 0.653634 0.481193
0.245937 0.656184 0.480252
0.386135 0.657976 0.477855
0.539317 0.658019 0.475463
0.685967 0.657307 0.475294
0.820506 0.656991 0.475424
0.931910 0.657013 0.475924
0.996018 0.657551 0.477927
0.046352 0.784643 0.484659
0.142877 0.785629 0.485335
0.255334 0.789310 0.483112
0.391550 0.792618 0.479048
0.541657 0.793793 0.476042
0.686983 0.793506 0.476900
0.820288 0.793578 0.477985
0.930839 0.793886 0.479107
0.996382 0.794176 0.479869
0.051222 0.900596 0.487229
0.147877 0.901635 0.487840
0.266898 0.903208 0.488178
0.399635 0.907805 0.482698
0.547053 0.909940 0.479180
0.691212 0.910009 0.480938
0.823432 0.910407 0.482857
0.933072 0.910986 0.484678
0.998071 0.911437 0.485858
0.054718 0.977556 0.488799
0.151446 0.978626 0.489373
0.271323 0.979967 0.490066
0.406696 0.983655 0.486474
0.552322 0.986423 0.482622
0.695699 0.986723 0.484980
0.827192 0.987335 0.487457
0.936223 0.988091 0.489743
1.000000 0.988648 0.491201
0.023593 0.023565 0.608324
0.119780 0.024040 0.608307
0.238950 0.024644 0.608321
0.379960 0.024901 0.610253
0.529378 0.024612 0.613030
0.665904 0.026281 0.610209
0.792297 0.027686 0.608941
0.899342 0.028323 0.609173
0.963155 0.028710 0.609330
0.026063 0.113301 0.609107
0.122259 0.113619 0.611049
0.242321 0.113792 0.613256
0.384653 0.113683 0.615570
0.535171 0.113210 0.617671
0.673543 0.114383 0.615028
0.794927 0.117758 0.609691
0.901972 0.118443 0.610037
0.965784 0.118861 0.610265
0.026255 0.227211 0.615923
0.123363 0.227374 0.617304
0.244553 0.227358 0.618821
0.388211 0.227030 0.620330
0.540118 0.226331 0.621598
0.680825 0.226888 0.619203
0.803563 0.229943 0.614046
0.905296 0.232576 0.611641
0.969109 0.233040 0.611976
0.022975 0.365830 0.621227
0.121178 0.365817 0.621954
0.243725 0.365585 0.622668
0.388978 0.365010 0.623250
0.542554 0.364062 0.623570
0.686069 0.363908 0.621540
0.812804 0.365765 0.618161
0.915499 0.368233 0.616324
0.975382 0.370120 0.615631
0.029745 0.510903 0.616103
0.122785 0.512322 0.618955
0.241313 0.513234 0.621687
0.385619 0.513049 0.623302
0.541068 0.511976 0.622785
0.687812 0.511211 0.621089
0.819104 0.511903 0.619340
0.925663 0.513369 0.618712
0.987825 0.514626 0.618701
0.041651 0.651026 0.615299
0.131747 0.653668 0.617248
0.246706 0.656094 0.618744
0.386495 0.657738 0.619213
0.538335 0.658058 0.618218
0.686515 0.657075 0.616382
0.822240 0.656482 0.615891
0.932424 0.656874 0.616428
0.996741 0.657489 0.617113
0.046910 0.785110 0.618563
0.143452 0.786103 0.619230
0.256560 0.789368 0.619351
0.392358 0.792525 0.618157
0.539997 0.794419 0.615431
0.685385 0.794442 0.613160
0.821343 0.793878 0.612843
0.934109 0.793654 0.612793
1.000000 0.793628 0.612856
0.051843 0.901089 0.621102
0.148511 0.902134 0.621706
0.268316 0.903445 0.622435
0.400818 0.907829 0.619874
0.544799 0.911068 0.615672
0.687755 0.911949 0.613038
0.822625 0.911710 0.613556
0.934480 0.911757 0.614206
1.000000 0.911891 0.614687
0.055374 0.978063 0.622654
0.152115 0.979139 0.623221
0.272007 0.980486 0.623907
0.408124 0.983757 0.622370
0.549672 0.987882 0.617196
0.691007 0.989328 0.614325
0.825150 0.989302 0.615400
0.936396 0.989526 0.616516
1.000000 0.989766 0.617276
0.023981 0.023781 0.737106
0.120168 0.024262 0.737100
0.239338 0.024872 0.737130
0.379379 0.025612 0.737217
0.526055 0.026414 0.737372
0.664565 0.027198 0.737579
0.792685 0.027947 0.737825
0.899730 0.028590 0.738073
0.963542 0.028982 0.738240
0.026611 0.113562 0.737176
0.122798 0.114077 0.737253
0.241968 0.114733 0.737388
0.382008 0.115528 0.737603
0.528685 0.116390 0.737897
0.669072 0.116452 0.740443
0.795314 0.118038 0.738621
0.902359 0.118732 0.738986
0.966172 0.119154 0.739225
0.029935 0.227208 0.737645
0.126122 0.227773 0.737837
0.245231 0.228379 0.739411
0.386111 0.228738 0.742412
0.535108 0.228759 0.745244
0.677162 0.228447 0.747632
0.804627 0.229831 0.745238
0.905683 0.232896 0.740664
0.969496 0.233366 0.741014
0.030128 0.364689 0.744372
0.126422 0.365149 0.746125
0.246605 0.365503 0.748112
0.389080 0.365618 0.750191
0.539746 0.365393 0.752083
0.683378 0.364864 0.753618
0.813496 0.365594 0.751681
0.916543 0.368217 0.747761
0.976646 0.370185 0.745788
0.030685 0.510870 0.747066
0.123435 0.512193 0.751851
0.243889 0.512593 0.754175
0.388054 0.512525 0.755450
0.540658 0.512193 0.756451
0.686253 0.511571 0.756964
0.819536 0.511694 0.755177
0.926438 0.513286 0.752416
0.988804 0.514617 0.751133
0.042399 0.651356 0.744389
0.132867 0.653742 0.747950
0.247493 0.656048 0.751796
0.386887 0.657550 0.755029
0.538618 0.657662 0.756572
0.686117 0.656794 0.755743
0.822366 0.656189 0.753959
0.932888 0.656706 0.752364
0.997407 0.657394 0.751779
0.047456 0.785564 0.747665
0.144014 0.786563 0.748324
0.257785 0.789462 0.750232
0.393181 0.792473 0.751806
0.540396 0.794214 0.751980
0.684487 0.794529 0.750762
0.821894 0.793698 0.748924
0.935865 0.793183 0.748294
1.000000 0.793261 0.748372
0.052447 0.901567 0.750174
0.149129 0.902617 0.750771
0.268950 0.903935 0.751492
0.402000 0.907892 0.751660
0.545556 0.910976 0.750359
0.686185 0.912557 0.747751
0.821382 0.912498 0.745628
0.935372 0.912031 0.745149
1.000000 0.911860 0.744958
0.056012 0.978555 0.751709
0.152765 0.979636 0.752270
0.272672 0.980989 0.752948
0.409542 0.983894 0.752922
0.550663 0.987864 0.750649
0.688989 0.990281 0.747124
0.822715 0.990730 0.744816
0.936095 0.990441 0.744804
1.000000 0.990374 0.744891
0.024329 0.023978 0.852804
0.120516 0.024463 0.852809
0.239686 0.025079 0.852852
0.379727 0.025826 0.852956
0.526403 0.026636 0.853128
0.664913 0.027427 0.853352
0.793033 0.028183 0.853616
0.900078 0.028833 0.853879
0.963890 0.029228 0.854055
0.026959 0.113773 0.852908
0.123146 0.114293 0.852997
0.242316 0.114955 0.853146
0.382357 0.115758 0.853379
0.529033 0.116628 0.853692
0.667543 0.117479 0.854056
0.795662 0.118293 0.854455
0.902707 0.118993 0.854836
0.966520 0.119420 0.855086
0.030283 0.227440 0.853424
0.126470 0.228010 0.853628
0.245640 0.228735 0.853926
0.385681 0.229616 0.854341
0.532357 0.230572 0.854855
0.670867 0.231510 0.855421
0.800873 0.231631 0.858170
0.906031 0.233187 0.856582
0.969844 0.233663 0.856946
0.034279 0.364376 0.854681
0.130466 0.365016 0.855047
0.249587 0.365827 0.855740
0.389566 0.366561 0.859166
0.537619 0.366988 0.862472
0.678782 0.367076 0.865348
0.810526 0.366903 0.867834
0.917468 0.368178 0.866226
0.977764 0.370218 0.863106
0.033731 0.510464 0.862020
0.129469 0.511187 0.864065
0.248962 0.511885 0.866452
0.390659 0.512463 0.869094
0.540696 0.512789 0.871454
0.683852 0.512780 0.873258
0.817521 0.512491 0.874569
0.927111 0.513183 0.872922
0.989660 0.514582 0.870497
0.042812 0.651731 0.860408
0.133914 0.653843 0.864969
0.248239 0.656041 0.870927
0.388685 0.657157 0.875034
0.540778 0.657240 0.875954
0.685828 0.656982 0.876421
0.821226 0.656452 0.876508
0.933280 0.656526 0.874878
0.997980 0.657281 0.873151
0.047952 0.785974 0.863642
0.144524 0.786979 0.864294
0.258922 0.789581 0.867414
0.393956 0.792460 0.871475
0.540790 0.794063 0.874254
0.684664 0.794220 0.875339
0.821643 0.793446 0.874297
0.935983 0.792927 0.872698
1.000000 0.793071 0.871635
0.052996 0.901998 0.866125
0.149689 0.903054 0.866717
0.269524 0.904377 0.867431
0.403098 0.907982 0.869654
0.546271 0.910927 0.870960
0.686538 0.912376 0.870813
0.820661 0.912564 0.869485
0.935782 0.911885 0.867855
1.000000 0.911494 0.867239
0.056591 0.978999 0.867645
0.153354 0.980084 0.868201
0.273273 0.981443 0.868873
0.410851 0.984050 0.869809
0.551589 0.987881 0.870143
0.689552 0.990165 0.869080
0.821542 0.991125 0.866905
0.935434 0.990869 0.865124
1.000000 0.990527 0.864607
0.024580 0.024121 0.936224
0.120767 0.024609 0.936237
0.239937 0.025230 0.936290
0.379978 0.025982 0.936405
0.526654 0.026797 0.936590
0.665164 0.027594 0.936828
0.793284 0.028355 0.937103
0.900329 0.029009 0.937377
0.964141 0.029408 0.937559
0.027210 0.113926 0.936352
0.123397 0.114451 0.936450
0.242567 0.115117 0.936610
0.382608 0.115925 0.936856
0.529284 0.116801 0.937183
0.667794 0.117658 0.937561
0.795913 0.118478 0.937973
0.902958 0.119184 0.938367
0.966771 0.119614 0.938624
0.030534 0.227608 0.936902
0.126721 0.228182 0.937116
0.245891 0.228913 0.937426
0.385932 0.229799 0.937855
0.532608 0.230763 0.938386
0.671118 0.231708 0.938969
0.799237 0.232615 0.939586
0.906282 0.233399 0.940163
0.970095 0.233880 0.940538
0.034530 0.364565 0.938207
0.130717 0.365209 0.938584
0.249887 0.366030 0.939106
0.389928 0.367032 0.939804
0.536605 0.368129 0.940646
0.675700 0.368906 0.942933
0.805802 0.369156 0.946333
0.915472 0.369215 0.948982
0.978558 0.370227 0.947920
0.038756 0.509775 0.940519
0.134890 0.510527 0.941207
0.252853 0.511610 0.944432
0.392780 0.512655 0.948046
0.540960 0.513452 0.951388
0.682357 0.513886 0.954123
0.814396 0.514004 0.956298
0.925630 0.513892 0.957855
0.990262 0.514540 0.956788
0.043116 0.652004 0.944053
0.134691 0.653936 0.949104
0.250372 0.655758 0.954905
0.392346 0.656620 0.957138
0.542571 0.657169 0.959047
0.685855 0.657351 0.960448
0.819619 0.657227 0.961400
0.932281 0.656907 0.961942
0.998378 0.657182 0.960890
0.048314 0.786271 0.947258
0.144896 0.787280 0.947905
0.259764 0.789685 0.951668
0.394535 0.792470 0.957522
0.541109 0.793970 0.962165
0.686110 0.793892 0.962342
0.821453 0.793523 0.962166
0.935429 0.792996 0.961769
1.000000 0.792916 0.960737
0.053394 0.902311 0.949724
0.150096 0.903369 0.950311
0.269941 0.904697 0.951020
0.403910 0.908065 0.954494
0.546807 0.910910 0.957679
0.686813 0.912264 0.959307
0.820694 0.912365 0.959620
0.935670 0.911679 0.958528
1.000000 0.911290 0.957518
0.057010 0.979320 0.951233
0.153781 0.980408 0.951785
0.273710 0.981771 0.952453
0.411816 0.984182 0.953850
0.552276 0.987912 0.956063
0.689978 0.990101 0.956775
0.821726 0.990973 0.956243
0.935026 0.990851 0.954921
1.000000 0.990407 0.953899
