luts/luts/portra_warm_negative.cube
TITLE "Warm Negative (Portra-ish)"
LUT_3D_SIZE 33
DOMAIN_MIN 0.0 0.0 0.0
DOMAIN_MAX 1.0 1.0 1.0
0.022147 0.022413 0.051611
0.045445 0.022077 0.051148
0.070625 0.021758 0.050624
0.097115 0.021461 0.050113
0.124599 0.021198 0.049627
0.152869 0.020976 0.049175
0.181779 0.020800 0.048763
0.214043 0.020665 0.048365
0.248264 0.020597 0.048017
0.282947 0.020607 0.047742
0.318006 0.020700 0.047548
0.353371 0.020882 0.047438
0.388981 0.021155 0.047418
0.424782 0.021525 0.047492
0.460722 0.021994 0.047663
0.496250 0.022557 0.047931
0.531028 0.023207 0.048292
0.565047 0.023940 0.048741
0.597760 0.024737 0.049265
0.629339 0.025597 0.049860
0.662497 0.025881 0.049979
0.695480 0.026061 0.050013
0.727866 0.026239 0.050049
0.759601 0.026415 0.050088
0.790617 0.026588 0.050129
0.820829 0.026758 0.050172
0.850125 0.026924 0.050217
0.877744 0.027082 0.050261
0.897662 0.027196 0.050294
0.916759 0.027306 0.050328
0.934833 0.027411 0.050360
0.951516 0.027508 0.050391
0.961475 0.027566 0.050410
0.021362 0.042980 0.050207
0.044695 0.042636 0.049746
0.069983 0.042282 0.049266
0.096587 0.041949 0.048801
0.124190 0.041648 0.048363
0.152584 0.041387 0.047961
0.181621 0.041170 0.047600
0.214028 0.040991 0.047261
0.248402 0.040874 0.046974
0.283241 0.040834 0.046763
0.318459 0.040877 0.046633
0.353986 0.041008 0.046589
0.389761 0.041229 0.046636
0.425729 0.041546 0.046778
0.461838 0.041961 0.047018
0.497535 0.042471 0.047355
0.532480 0.043068 0.047783
0.566664 0.043749 0.048300
0.599537 0.044496 0.048890
0.631272 0.045306 0.049549
0.663085 0.045955 0.050051
0.696067 0.046138 0.050092
0.728454 0.046319 0.050135
0.760188 0.046498 0.050181
0.791204 0.046674 0.050228
0.821416 0.046847 0.050278
0.850713 0.047016 0.050328
0.878332 0.047176 0.050379
0.898249 0.047292 0.050416
0.917347 0.047404 0.050454
0.935421 0.047510 0.050490
0.952103 0.047609 0.050525
0.962062 0.047668 0.050546
0.020585 0.065502 0.048699
0.043835 0.065186 0.048223
0.069161 0.064822 0.047758
0.095914 0.064449 0.047282
0.123648 0.064107 0.046897
0.152177 0.063802 0.046549
0.181353 0.063542 0.046245
0.213917 0.063313 0.045969
0.248458 0.063143 0.045750
0.283468 0.063049 0.045609
0.318861 0.063037 0.045550
0.354566 0.063111 0.045578
0.390520 0.063276 0.045698
0.426671 0.063534 0.045914
0.462966 0.063891 0.046230
0.498848 0.064343 0.046643
0.533977 0.064882 0.047146
0.568341 0.065505 0.047737
0.601390 0.066197 0.048398
0.633296 0.066954 0.049128
0.664433 0.067778 0.049927
0.696711 0.068151 0.050194
0.729097 0.068336 0.050245
0.760832 0.068518 0.050298
0.791848 0.068697 0.050353
0.822060 0.068873 0.050410
0.851356 0.069044 0.050467
0.878975 0.069207 0.050524
0.898893 0.069325 0.050567
0.917990 0.069439 0.050609
0.936064 0.069548 0.050650
0.952747 0.069648 0.050689
0.962706 0.069708 0.050713
0.019870 0.089386 0.047222
0.043027 0.089101 0.046731
0.068306 0.088749 0.046305
0.095014 0.088389 0.045867
0.122848 0.088026 0.045424
0.151613 0.087664 0.044980
0.180959 0.087352 0.044713
0.213690 0.087070 0.044505
0.248408 0.086844 0.044358
0.283600 0.086693 0.044291
0.319178 0.086622 0.044307
0.355072 0.086637 0.044412
0.391218 0.086741 0.044611
0.427564 0.086938 0.044906
0.464055 0.087233 0.045303
0.500134 0.087622 0.045796
0.535457 0.088100 0.046379
0.570013 0.088663 0.047048
0.603249 0.089297 0.047786
0.635336 0.089996 0.048590
0.666652 0.090764 0.049462
0.697395 0.091538 0.050322
0.729781 0.091726 0.050381
0.761516 0.091912 0.050442
0.792532 0.092094 0.050505
0.822744 0.092273 0.050569
0.852040 0.092448 0.050634
0.879659 0.092614 0.050699
0.899577 0.092735 0.050747
0.918674 0.092851 0.050794
0.936748 0.092961 0.050840
0.953431 0.093064 0.050883
0.963389 0.093125 0.050910
0.019241 0.114327 0.045815
0.042301 0.114076 0.045308
0.067532 0.113737 0.044923
0.094190 0.113390 0.044528
0.121970 0.113042 0.044130
0.150680 0.112695 0.043734
0.180183 0.112352 0.043342
0.213285 0.111986 0.042920
0.248236 0.111692 0.042801
0.283618 0.111480 0.042811
0.319391 0.111348 0.042906
0.355481 0.111301 0.043092
0.391828 0.111341 0.043372
0.428377 0.111475 0.043751
0.465074 0.111705 0.044232
0.501359 0.112029 0.044809
0.536886 0.112443 0.045476
0.571643 0.112943 0.046227
0.605073 0.113515 0.047046
0.637350 0.114155 0.047928
0.668854 0.114864 0.048878
0.699561 0.115638 0.049891
0.730496 0.116202 0.050544
0.762231 0.116391 0.050614
0.793247 0.116577 0.050685
0.823459 0.116760 0.050758
0.852755 0.116938 0.050831
0.880374 0.117108 0.050904
0.900292 0.117231 0.050957
0.919389 0.117349 0.051010
0.937463 0.117462 0.051061
0.954146 0.117566 0.051110
0.964104 0.117629 0.051139
0.018719 0.140138 0.044506
0.041678 0.139921 0.043983
0.066859 0.139596 0.043640
0.093464 0.139263 0.043290
0.121190 0.138929 0.042939
0.149843 0.138598 0.042591
0.179287 0.138271 0.042249
0.212323 0.137923 0.041884
0.247567 0.137571 0.041518
0.283508 0.137235 0.041168
0.319481 0.137040 0.041346
0.355776 0.136927 0.041615
0.392330 0.136903 0.041980
0.429090 0.136970 0.042446
0.466001 0.137132 0.043014
0.502499 0.137390 0.043679
0.538237 0.137737 0.044432
0.573202 0.138172 0.045269
0.606835 0.138681 0.046171
0.639309 0.139258 0.047135
0.671006 0.139907 0.048165
0.701905 0.140621 0.049257
0.731975 0.141397 0.050406
0.762972 0.141775 0.050816
0.793988 0.141966 0.050896
0.824200 0.142152 0.050978
0.853496 0.142334 0.051060
0.881115 0.142508 0.051141
0.901033 0.142633 0.051201
0.920130 0.142754 0.051259
0.938204 0.142869 0.051316
0.954887 0.142976 0.051370
0.964846 0.143040 0.051402
0.018320 0.166687 0.043316
0.041174 0.166505 0.042776
0.066304 0.166194 0.042477
0.092855 0.165876 0.042174
0.120524 0.165558 0.041871
0.149118 0.165242 0.041574
0.178502 0.164932 0.041284
0.211470 0.164602 0.040977
0.246642 0.164271 0.040673
0.282509 0.163954 0.040386
0.318998 0.163656 0.040120
0.355942 0.163397 0.039978
0.392710 0.163305 0.040431
0.429687 0.163304 0.040986
0.466819 0.163397 0.041645
0.503536 0.163586 0.042400
0.539491 0.163865 0.043243
0.574671 0.164233 0.044169
0.608512 0.164676 0.045157
0.641189 0.165190 0.046205
0.673086 0.165776 0.047318
0.704181 0.166429 0.048492
0.734445 0.167144 0.049720
0.763841 0.167916 0.050998
0.794752 0.168137 0.051140
0.824964 0.168327 0.051232
0.854260 0.168514 0.051323
0.881879 0.168691 0.051413
0.901797 0.168819 0.051479
0.920894 0.168943 0.051544
0.938968 0.169060 0.051607
0.955651 0.169169 0.051666
0.965609 0.169235 0.051702
0.018035 0.196870 0.042158
0.040771 0.196730 0.041599
0.065842 0.196434 0.041351
0.092331 0.196133 0.041100
0.119936 0.195833 0.040853
0.148464 0.195535 0.040613
0.177779 0.195244 0.040382
0.210669 0.194935 0.040142
0.245759 0.194626 0.039909
0.281541 0.194334 0.039695
0.317944 0.194059 0.039504
0.354905 0.193803 0.039335
0.392373 0.193570 0.039192
0.430197 0.193380 0.039182
0.467579 0.193395 0.039945
0.504547 0.193505 0.040804
0.540749 0.193707 0.041749
0.576173 0.193998 0.042777
0.610252 0.194367 0.043863
0.643160 0.194809 0.045007
0.675285 0.195324 0.046215
0.706604 0.195907 0.047482
0.737087 0.196554 0.048803
0.766699 0.197259 0.050171
0.795622 0.197961 0.051452
0.825834 0.198157 0.051555
0.855130 0.198348 0.051658
0.882749 0.198529 0.051758
0.902667 0.198661 0.051832
0.921764 0.198788 0.051904
0.939838 0.198909 0.051974
0.956521 0.199021 0.052040
0.966479 0.199088 0.052080
0.017931 0.229730 0.041135
0.040538 0.229633 0.040556
0.065546 0.229355 0.040362
0.091967 0.229073 0.040170
0.119502 0.228792 0.039984
0.147956 0.228514 0.039806
0.177197 0.228244 0.039640
0.210003 0.227959 0.039473
0.245002 0.227675 0.039318
0.280693 0.227407 0.039185
0.317001 0.227158 0.039075
0.353867 0.226930 0.038990
0.391238 0.226723 0.038931
0.429071 0.226540 0.038901
0.467321 0.226381 0.038899
0.505408 0.226249 0.038928
0.541914 0.226361 0.039951
0.577605 0.226568 0.041089
0.611942 0.226857 0.042284
0.645103 0.227220 0.043533
0.677476 0.227658 0.044845
0.709039 0.228165 0.046215
0.739763 0.228738 0.047636
0.769610 0.229370 0.049103
0.798534 0.230056 0.050607
0.826783 0.230717 0.051951
0.856079 0.230913 0.052067
0.883698 0.231100 0.052179
0.903616 0.231236 0.052262
0.922713 0.231366 0.052343
0.940787 0.231490 0.052422
0.957470 0.231606 0.052495
0.967428 0.231675 0.052540
0.018049 0.263274 0.040349
0.040523 0.263223 0.039750
0.065466 0.262963 0.039612
0.091819 0.262700 0.039480
0.119281 0.262438 0.039356
0.147661 0.262182 0.039243
0.176825 0.261933 0.039144
0.209545 0.261671 0.039052
0.244452 0.261413 0.038977
0.280048 0.261172 0.038926
0.316261 0.260950 0.038899
0.353029 0.260749 0.038900
0.390301 0.260570 0.038929
0.428033 0.260415 0.038987
0.466181 0.260285 0.039076
0.504165 0.260183 0.039195
0.541619 0.260109 0.039342
0.578521 0.260061 0.039516
0.613448 0.260205 0.040489
0.646867 0.260488 0.041847
0.679494 0.260847 0.043266
0.711307 0.261277 0.044741
0.742276 0.261773 0.046267
0.772364 0.262331 0.047836
0.801523 0.262945 0.049440
0.829691 0.263609 0.051070
0.857050 0.264252 0.052536
0.884669 0.264444 0.052662
0.904587 0.264584 0.052755
0.923684 0.264719 0.052846
0.941758 0.264847 0.052933
0.958441 0.264966 0.053015
0.968399 0.265037 0.053065
0.018402 0.297429 0.039820
0.040741 0.297424 0.039200
0.065618 0.297182 0.039120
0.091900 0.296939 0.039049
0.119289 0.296698 0.038989
0.147593 0.296462 0.038943
0.176678 0.296235 0.038912
0.209311 0.295999 0.038897
0.244123 0.295767 0.038904
0.279624 0.295553 0.038937
0.315738 0.295359 0.038997
0.352406 0.295186 0.039086
0.389577 0.295036 0.039204
0.427206 0.294910 0.039353
0.465250 0.294810 0.039535
0.503130 0.294737 0.039746
0.540481 0.294693 0.039985
0.577282 0.294675 0.040250
0.612926 0.294683 0.040536
0.647578 0.294714 0.040841
0.681320 0.294829 0.041472
0.713388 0.295180 0.043056
0.744608 0.295600 0.044689
0.774941 0.296083 0.046363
0.804340 0.296623 0.048070
0.832742 0.297215 0.049801
0.860062 0.297850 0.051543
0.885660 0.298496 0.053213
0.905578 0.298640 0.053316
0.924675 0.298779 0.053418
0.942749 0.298912 0.053515
0.959432 0.299035 0.053607
0.969390 0.299108 0.053663
0.019004 0.332132 0.039566
0.041206 0.332175 0.038926
0.066015 0.331952 0.038905
0.092225 0.331728 0.038896
0.119539 0.331509 0.038902
0.147766 0.331295 0.038923
0.176772 0.331090 0.038962
0.209314 0.330879 0.039026
0.244031 0.330674 0.039118
0.279434 0.330488 0.039238
0.315448 0.330322 0.039386
0.352015 0.330179 0.039565
0.389082 0.330058 0.039775
0.426607 0.329963 0.040018
0.464544 0.329893 0.040295
0.502319 0.329852 0.040601
0.539565 0.329838 0.040935
0.576262 0.329850 0.041294
0.611806 0.329887 0.041670
0.646360 0.329948 0.042064
0.680316 0.330030 0.042478
0.713639 0.330134 0.042911
0.746286 0.330258 0.043361
0.777323 0.330576 0.044681
0.806966 0.331042 0.046494
0.835606 0.331562 0.048329
0.863157 0.332128 0.050173
0.888931 0.332716 0.051969
0.907398 0.333175 0.053300
0.925684 0.333494 0.054069
0.943758 0.333632 0.054179
0.960441 0.333760 0.054281
0.970399 0.333836 0.054344
0.019866 0.367333 0.039604
0.041929 0.367424 0.038943
0.066669 0.367221 0.038983
0.092806 0.367018 0.039038
0.120044 0.366820 0.039111
0.148193 0.366629 0.039202
0.177117 0.366447 0.039313
0.209568 0.366261 0.039457
0.244188 0.366085 0.039636
0.279491 0.365927 0.039844
0.315404 0.365791 0.040084
0.351867 0.365677 0.040355
0.388830 0.365587 0.040659
0.426248 0.365523 0.040998
0.464077 0.365485 0.041372
0.501744 0.365475 0.041777
0.538884 0.365493 0.042208
0.575476 0.365536 0.042663
0.610918 0.365605 0.043134
0.645372 0.365695 0.043620
0.679230 0.365807 0.044125
0.712456 0.365941 0.044648
0.745009 0.366094 0.045187
0.776837 0.366265 0.045740
0.807878 0.366452 0.046303
0.838050 0.366654 0.046874
0.866054 0.367108 0.048604
0.892048 0.367631 0.050501
0.910675 0.368042 0.051905
0.928440 0.368463 0.053278
0.945167 0.368886 0.054604
0.961467 0.369100 0.055054
0.971425 0.369180 0.055125
0.021000 0.402989 0.039950
0.042921 0.403129 0.039269
0.067591 0.402946 0.039370
0.093655 0.402764 0.039492
0.120815 0.402588 0.039633
0.148884 0.402420 0.039795
0.177726 0.402262 0.039979
0.210085 0.402103 0.040207
0.244605 0.401955 0.040474
0.279807 0.401827 0.040773
0.315617 0.401721 0.041106
0.351976 0.401638 0.041472
0.388832 0.401580 0.041873
0.426142 0.401547 0.042311
0.463862 0.401542 0.042786
0.501419 0.401565 0.043291
0.538451 0.401616 0.043822
0.574936 0.401692 0.044377
0.610274 0.401792 0.044946
0.644628 0.401914 0.045527
0.678386 0.402058 0.046128
0.711514 0.402222 0.046745
0.743971 0.402406 0.047377
0.775705 0.402608 0.048022
0.806654 0.402826 0.048677
0.836736 0.403058 0.049339
0.865848 0.403303 0.050003
0.893239 0.403551 0.050652
0.912960 0.403740 0.051132
0.931663 0.403966 0.051783
0.948538 0.404349 0.053183
0.964040 0.404724 0.054500
0.973260 0.404958 0.055299
0.022416 0.439064 0.040621
0.044193 0.439253 0.039918
0.068792 0.439091 0.040083
0.094781 0.438931 0.040272
0.121863 0.438777 0.040483
0.149850 0.438633 0.040719
0.178609 0.438499 0.040978
0.210874 0.438368 0.041290
0.245295 0.438249 0.041649
0.280394 0.438152 0.042041
0.316100 0.438077 0.042469
0.352352 0.438025 0.042933
0.389100 0.438000 0.043435
0.426300 0.438001 0.043974
0.463909 0.438030 0.044553
0.501355 0.438087 0.045163
0.538277 0.438172 0.045798
0.574655 0.438282 0.046457
0.609887 0.438416 0.047127
0.644138 0.438571 0.047809
0.677796 0.438748 0.048509
0.710825 0.438946 0.049226
0.743184 0.439163 0.049958
0.774823 0.439399 0.050703
0.805678 0.439652 0.051458
0.835670 0.439919 0.052223
0.864696 0.440204 0.052996
0.892019 0.440494 0.053738
0.911697 0.440714 0.054279
0.930542 0.440934 0.054804
0.948357 0.441149 0.055304
0.964783 0.441354 0.055771
0.974580 0.441480 0.056051
0.024120 0.475453 0.041628
0.045751 0.475694 0.040905
0.070278 0.475552 0.041135
0.096191 0.475414 0.041392
0.123195 0.475284 0.041676
0.151100 0.475164 0.041986
0.179774 0.475055 0.042322
0.211945 0.474953 0.042722
0.246264 0.474864 0.043173
0.281259 0.474798 0.043662
0.316859 0.474755 0.044188
0.353004 0.474737 0.044753
0.389643 0.474745 0.045358
0.426732 0.474781 0.046003
0.464229 0.474846 0.046689
0.501563 0.474939 0.047408
0.538374 0.475060 0.048152
0.574642 0.475207 0.048920
0.609768 0.475377 0.049698
0.643916 0.475568 0.050488
0.677471 0.475783 0.051297
0.710400 0.476019 0.052127
0.742663 0.476280 0.052978
0.774223 0.476565 0.053832
0.805013 0.476865 0.054679
0.834949 0.477179 0.055516
0.863926 0.477502 0.056342
0.891194 0.477823 0.057131
0.910985 0.478039 0.057506
0.930119 0.478222 0.057655
0.948230 0.478395 0.057796
0.964947 0.478556 0.057925
0.974928 0.478653 0.058002
0.026082 0.511512 0.042960
0.047569 0.511804 0.042218
0.072025 0.511683 0.042513
0.097863 0.511568 0.042840
0.124788 0.511461 0.043196
0.152612 0.511366 0.043581
0.181202 0.511283 0.043995
0.213278 0.511209 0.044483
0.247497 0.511152 0.045029
0.282390 0.511118 0.045616
0.317885 0.511108 0.046242
0.353923 0.511124 0.046910
0.390453 0.511167 0.047620
0.427432 0.511239 0.048374
0.464817 0.511341 0.049172
0.502040 0.511473 0.050005
0.538741 0.511633 0.050865
0.574900 0.511821 0.051752
0.609921 0.512034 0.052654
0.643979 0.512276 0.053565
0.677462 0.512542 0.054477
0.710329 0.512829 0.055389
0.742537 0.513133 0.056299
0.774035 0.513453 0.057207
0.805027 0.513756 0.057614
0.835300 0.514047 0.057848
0.864660 0.514331 0.058074
0.892343 0.514600 0.058284
0.912310 0.514795 0.058434
0.931456 0.514983 0.058578
0.949578 0.515162 0.058713
0.966306 0.515327 0.058836
0.976292 0.515426 0.058910
0.028288 0.547079 0.044606
0.049632 0.547422 0.043847
0.074018 0.547323 0.044208
0.099781 0.547231 0.044604
0.126628 0.547148 0.045033
0.154371 0.547077 0.045495
0.182879 0.547021 0.045988
0.214862 0.546976 0.046565
0.248981 0.546951 0.047208
0.283772 0.546950 0.047893
0.319164 0.546974 0.048623
0.355096 0.547026 0.049397
0.391519 0.547106 0.050218
0.428390 0.547217 0.051087
0.465664 0.547362 0.052008
0.502779 0.547541 0.052974
0.539393 0.547757 0.053955
0.575481 0.548000 0.054941
0.610443 0.548263 0.055916
0.644438 0.548544 0.056884
0.677939 0.548851 0.057545
0.710987 0.549168 0.057802
0.743443 0.549481 0.058052
0.775251 0.549790 0.058293
0.806344 0.550095 0.058527
0.836636 0.550393 0.058753
0.866014 0.550685 0.058969
0.893713 0.550961 0.059172
0.913691 0.551160 0.059316
0.932847 0.551353 0.059454
0.950979 0.551535 0.059584
0.967716 0.551705 0.059704
0.977707 0.551806 0.059775
0.030728 0.582171 0.046563
0.051931 0.582565 0.045787
0.076247 0.582488 0.046215
0.101936 0.582419 0.046682
0.128707 0.582361 0.047185
0.156371 0.582316 0.047725
0.184796 0.582286 0.048299
0.216687 0.582272 0.048968
0.250708 0.582281 0.049711
0.285398 0.582315 0.050501
0.320687 0.582377 0.051341
0.356515 0.582469 0.052233
0.392837 0.582599 0.053183
0.429626 0.582765 0.054168
0.466831 0.582965 0.055184
0.503885 0.583194 0.056218
0.540429 0.583449 0.057260
0.576484 0.583780 0.057667
0.611497 0.584117 0.057937
0.645620 0.584448 0.058198
0.679236 0.584776 0.058452
0.712304 0.585102 0.058698
0.744779 0.585423 0.058938
0.776606 0.585740 0.059171
0.807716 0.586052 0.059396
0.838024 0.586357 0.059613
0.867417 0.586655 0.059822
0.895130 0.586936 0.060018
0.915118 0.587140 0.060158
0.934284 0.587337 0.060291
0.952424 0.587523 0.060417
0.969169 0.587695 0.060532
0.979165 0.587798 0.060601
0.033392 0.616781 0.048826
0.054455 0.617225 0.048037
0.078703 0.617171 0.048532
0.104320 0.617126 0.049072
0.131014 0.617094 0.049654
0.158599 0.617077 0.050274
0.186944 0.617076 0.050934
0.218744 0.617097 0.051703
0.252668 0.617145 0.052559
0.287270 0.617228 0.053470
0.322486 0.617342 0.054412
0.358251 0.617486 0.055389
0.394514 0.617660 0.056399
0.431229 0.617867 0.057435
0.468231 0.618220 0.057724
0.505173 0.618576 0.058009
0.541696 0.618931 0.058286
0.577775 0.619285 0.058558
0.612808 0.619631 0.058818
0.646951 0.619970 0.059068
0.680585 0.620306 0.059313
0.713671 0.620638 0.059551
0.746163 0.620967 0.059782
0.778006 0.621290 0.060007
0.809131 0.621608 0.060225
0.839453 0.621920 0.060435
0.868860 0.622223 0.060637
0.896586 0.622510 0.060826
0.916582 0.622717 0.060962
0.935756 0.622917 0.061091
0.953905 0.623107 0.061213
0.970657 0.623282 0.061324
0.980657 0.623387 0.061391
0.036265 0.650837 0.051393
0.057191 0.651334 0.050594
0.081371 0.651304 0.051162
0.106916 0.651287 0.051781
0.133535 0.651285 0.052449
0.161048 0.651305 0.053166
0.189331 0.651345 0.053913
0.221071 0.651412 0.054766
0.254940 0.651507 0.055692
0.289484 0.651629 0.056656
0.324558 0.651817 0.057492
0.359968 0.652156 0.057768
0.395956 0.652503 0.058045
0.432482 0.652858 0.058322
0.469508 0.653222 0.058600
0.506471 0.653587 0.058874
0.543015 0.653950 0.059142
0.579112 0.654312 0.059403
0.614164 0.654665 0.059654
0.648324 0.655011 0.059897
0.681975 0.655354 0.060133
0.715076 0.655693 0.060363
0.747583 0.656028 0.060587
0.779440 0.656357 0.060805
0.810579 0.656681 0.061016
0.840914 0.656997 0.061219
0.870333 0.657306 0.061415
0.898070 0.657598 0.061599
0.918074 0.657809 0.061730
0.937256 0.658012 0.061855
0.955412 0.658204 0.061974
0.972170 0.658382 0.062082
0.982175 0.658489 0.062147
0.039334 0.684327 0.054283
0.060134 0.684884 0.053482
0.084265 0.684889 0.054120
0.109764 0.684909 0.054803
0.136342 0.684943 0.055525
0.163812 0.684995 0.056284
0.192043 0.685064 0.057076
0.223458 0.685280 0.057579
0.256851 0.685600 0.057838
0.290985 0.685930 0.058100
0.325796 0.686270 0.058364
0.361227 0.686617 0.058629
0.397236 0.686973 0.058896
0.433782 0.687337 0.059163
0.470827 0.687708 0.059431
0.507810 0.688081 0.059696
0.544371 0.688452 0.059955
0.580485 0.688821 0.060208
0.615553 0.689181 0.060451
0.649729 0.689533 0.060685
0.683393 0.689882 0.060914
0.716509 0.690227 0.061138
0.749029 0.690567 0.061355
0.780899 0.690902 0.061566
0.812051 0.691231 0.061771
0.842398 0.691553 0.061968
0.871828 0.691866 0.062159
0.899576 0.692162 0.062337
0.919588 0.692376 0.062464
0.938777 0.692582 0.062586
0.956939 0.692777 0.062701
0.973704 0.692958 0.062806
0.983712 0.693066 0.062869
0.042286 0.717403 0.057017
0.063376 0.717854 0.056564
0.087463 0.717883 0.057239
0.112568 0.718068 0.057575
0.138642 0.718318 0.057777
0.165638 0.718578 0.057985
0.193432 0.718848 0.058197
0.224681 0.719153 0.058433
0.258094 0.719482 0.058683
0.292247 0.719820 0.058935
0.327076 0.720167 0.059190
0.362526 0.720522 0.059446
0.398553 0.720885 0.059704
0.435116 0.721256 0.059962
0.472178 0.721635 0.060222
0.509178 0.722015 0.060478
0.545754 0.722392 0.060729
0.581884 0.722767 0.060974
0.616967 0.723133 0.061210
0.651156 0.723491 0.061438
0.684834 0.723846 0.061660
0.717963 0.724196 0.061877
0.750496 0.724542 0.062088
0.782378 0.724882 0.062293
0.813541 0.725215 0.062492
0.843899 0.725542 0.062684
0.873340 0.725859 0.062869
0.901097 0.726159 0.063042
0.921117 0.726377 0.063166
0.940312 0.726585 0.063284
0.958481 0.726783 0.063396
0.975251 0.726966 0.063499
0.985263 0.727076 0.063560
0.043441 0.750625 0.057878
0.065164 0.750835 0.058045
0.088777 0.751065 0.058225
0.113768 0.751309 0.058413
0.139857 0.751565 0.058609
0.166867 0.751832 0.058809
0.194677 0.752108 0.059014
0.225942 0.752420 0.059241
0.259371 0.752755 0.059483
0.293541 0.753100 0.059727
0.328387 0.753454 0.059973
0.363853 0.753816 0.060221
0.399895 0.754186 0.060471
0.436474 0.754563 0.060722
0.473552 0.754948 0.060973
0.510566 0.755334 0.061222
0.547157 0.755718 0.061466
0.583301 0.756099 0.061704
0.618397 0.756470 0.061933
0.652599 0.756834 0.062154
0.686290 0.757194 0.062371
0.719430 0.757549 0.062581
0.751975 0.757899 0.062787
0.783868 0.758244 0.062986
0.815042 0.758582 0.063179
0.845410 0.758912 0.063366
0.874861 0.759234 0.063546
0.902628 0.759538 0.063715
0.922654 0.759758 0.063836
0.941856 0.759969 0.063951
0.960030 0.760170 0.064060
0.976806 0.760355 0.064160
0.986821 0.760466 0.064219
0.044637 0.783183 0.058689
0.066372 0.783398 0.058850
0.089997 0.783633 0.059023
0.115000 0.783882 0.059206
0.141102 0.784144 0.059394
0.168126 0.784416 0.059588
0.195948 0.784697 0.059786
0.227228 0.785015 0.060007
0.260672 0.785356 0.060241
0.294857 0.785708 0.060478
0.329716 0.786067 0.060717
0.365197 0.786435 0.060958
0.401254 0.786811 0.061200
0.437847 0.787195 0.061444
0.474939 0.787586 0.061689
0.511967 0.787977 0.061930
0.548572 0.788367 0.062167
0.584729 0.788753 0.062399
0.619837 0.789130 0.062622
0.654051 0.789498 0.062837
0.687753 0.789863 0.063048
0.720905 0.790223 0.063253
0.753460 0.790578 0.063453
0.785363 0.790927 0.063647
0.816547 0.791269 0.063835
0.846925 0.791603 0.064017
0.876386 0.791929 0.064193
0.904161 0.792237 0.064357
0.924193 0.792459 0.064475
0.943401 0.792673 0.064587
0.961581 0.792876 0.064693
0.978362 0.793063 0.064790
0.988380 0.793175 0.064848
0.045858 0.814996 0.059454
0.067603 0.815216 0.059610
0.091239 0.815455 0.059778
0.116253 0.815709 0.059955
0.142366 0.815975 0.060138
0.169402 0.816252 0.060326
0.197236 0.816538 0.060518
0.228528 0.816861 0.060733
0.261985 0.817208 0.060960
0.296183 0.817565 0.061190
0.331056 0.817930 0.061422
0.366550 0.818304 0.061656
0.402620 0.818685 0.061892
0.439227 0.819074 0.062130
0.476331 0.819471 0.062368
0.513372 0.819868 0.062603
0.549989 0.820262 0.062834
0.586158 0.820653 0.063059
0.621278 0.821035 0.063277
0.655503 0.821408 0.063487
0.689216 0.821777 0.063691
0.722378 0.822141 0.063891
0.754944 0.822500 0.064086
0.786857 0.822854 0.064276
0.818050 0.823200 0.064459
0.848438 0.823538 0.064637
0.877907 0.823867 0.064808
0.905690 0.824178 0.064968
0.925728 0.824403 0.065083
0.944942 0.824620 0.065192
0.963127 0.824825 0.065295
0.979913 0.825014 0.065390
0.989933 0.825127 0.065447
0.047091 0.845967 0.060176
0.068844 0.846189 0.060327
0.092490 0.846432 0.060490
0.117514 0.846691 0.060662
0.143638 0.846961 0.060840
0.170684 0.847242 0.061023
0.198528 0.847533 0.061210
0.229832 0.847861 0.061419
0.263301 0.848213 0.061640
0.297512 0.848575 0.061864
0.332397 0.848945 0.062090
0.367903 0.849324 0.062318
0.403985 0.849710 0.062548
0.440604 0.850105 0.062779
0.477720 0.850506 0.063011
0.514773 0.850908 0.063241
0.551402 0.851307 0.063466
0.587582 0.851703 0.063686
0.622713 0.852089 0.063898
0.656948 0.852466 0.064102
0.690671 0.852840 0.064302
0.723843 0.853208 0.064497
0.756418 0.853571 0.064687
0.788340 0.853928 0.064872
0.819542 0.854278 0.065051
0.849938 0.854620 0.065225
0.879416 0.854952 0.065391
