luts/luts/portra_warm_negative.cube
TITLE "Warm Negative (Portra-ish)"
LUT_3D_SIZE 5
DOMAIN_MIN 0.0 0.0 0.0
DOMAIN_MAX 1.0 1.0 1.0
0.022147 0.022413 0.051611
0.248264 0.020597 0.048017
0.531028 0.023207 0.048292
0.790617 0.026588 0.050129
0.961475 0.027566 0.050410
0.017931 0.229730 0.041135
0.245002 0.227675 0.039318
0.541914 0.226361 0.039951
0.798534 0.230056 0.050607
0.967428 0.231675 0.052540
0.026082 0.511512 0.042960
0.247497 0.511152 0.045029
0.538741 0.511633 0.050865
0.805027 0.513756 0.057614
0.976292 0.515426 0.058910
0.044637 0.783183 0.058689
0.260672 0.785356 0.060241
0.548572 0.788367 0.062167
0.816547 0.791269 0.063835
0.988380 0.793175 0.064848
0.052674 0.975958 0.062993
0.269187 0.978331 0.064306
0.557650 0.981576 0.065951
0.826099 0.984675 0.067382
0.998216 0.986700 0.068253
0.021799 0.021988 0.230262
0.248388 0.019943 0.227722
0.532292 0.022989 0.220569
0.791126 0.026916 0.219475
0.961984 0.027907 0.219789
0.017964 0.229078 0.221493
0.245223 0.227122 0.218347
0.542450 0.225978 0.216667
0.800130 0.230087 0.220432
0.967938 0.232081 0.222069
0.027121 0.511248 0.217563
0.241769 0.513767 0.211364
0.540489 0.512479 0.213373
0.813579 0.513010 0.216932
0.984694 0.514451 0.221264
0.045309 0.783760 0.228378
0.255400 0.788391 0.223437
0.548836 0.789306 0.230197
0.817378 0.791912 0.233445
0.989239 0.793830 0.234443
0.053480 0.976591 0.232615
0.270031 0.978979 0.233909
0.558539 0.982243 0.235531
0.827028 0.985359 0.236943
0.999169 0.987394 0.237801
0.022789 0.022870 0.480630
0.241865 0.022548 0.483415
0.534083 0.022550 0.482310
0.791895 0.027419 0.475273
0.962753 0.028432 0.475636
0.021610 0.227738 0.486949
0.244338 0.226791 0.487470
0.543142 0.225294 0.485117
0.802422 0.230026 0.478476
0.968707 0.232707 0.478154
0.028807 0.510980 0.479794
0.241051 0.513532 0.480888
0.541661 0.512295 0.478353
0.818628 0.512087 0.478939
0.986780 0.514599 0.481831
0.046352 0.784643 0.484659
0.255334 0.789310 0.483112
0.541657 0.793793 0.476042
0.820288 0.793578 0.477985
0.996382 0.794176 0.479869
0.054718 0.977556 0.488799
0.271323 0.979967 0.490066
0.552322 0.986423 0.482622
0.827192 0.987335 0.487457
1.000000 0.988648 0.491201
0.023981 0.023781 0.737106
0.239338 0.024872 0.737130
0.526055 0.026414 0.737372
0.792685 0.027947 0.737825
0.963542 0.028982 0.738240
0.029935 0.227208 0.737645
0.245231 0.228379 0.739411
0.535108 0.228759 0.745244
0.804627 0.229831 0.745238
0.969496 0.233366 0.741014
0.030685 0.510870 0.747066
0.243889 0.512593 0.754175
0.540658 0.512193 0.756451
0.819536 0.511694 0.755177
0.988804 0.514617 0.751133
0.047456 0.785564 0.747665
0.257785 0.789462 0.750232
0.540396 0.794214 0.751980
0.821894 0.793698 0.748924
1.000000 0.793261 0.748372
0.056012 0.978555 0.751709
0.272672 0.980989 0.752948
0.550663 0.987864 0.750649
0.822715 0.990730 0.744816
1.000000 0.990374 0.744891
0.024580 0.024121 0.936224
0.239937 0.025230 0.936290
0.526654 0.026797 0.936590
0.793284 0.028355 0.937103
0.964141 0.029408 0.937559
0.030534 0.227608 0.936902
0.245891 0.228913 0.937426
0.532608 0.230763 0.938386
0.799237 0.232615 0.939586
0.970095 0.233880 0.940538
0.038756 0.509775 0.940519
0.252853 0.511610 0.944432
0.540960 0.513452 0.951388
0.814396 0.514004 0.956298
0.990262 0.514540 0.956788
0.048314 0.786271 0.947258
0.259764 0.789685 0.951668
0.541109 0.793970 0.962165
0.821453 0.793523 0.962166
1.000000 0.792916 0.960737
0.057010 0.979320 0.951233
0.273710 0.981771 0.952453
0.552276 0.987912 0.956063
0.821726 0.990973 0.956243
1.000000 0.990407 0.953899
