luts/luts/teal_and_orange.cube
TITLE "Teal & Orange Cine"
LUT_3D_SIZE 5
DOMAIN_MIN 0.0 0.0 0.0
DOMAIN_MAX 1.0 1.0 1.0
0.000000 0.016361 0.071879
0.209200 0.007977 0.057166
0.568423 0.007994 0.044637
0.864628 0.009949 0.040029
0.994824 0.009176 0.037130
0.000000 0.207072 0.030666
0.192976 0.199352 0.018462
0.584656 0.189445 0.012762
0.868069 0.193696 0.027125
0.998085 0.193103 0.024900
0.000000 0.549608 0.004451
0.188481 0.545871 0.003523
0.562957 0.541307 0.015323
0.873285 0.541759 0.015735
1.000000 0.542074 0.014869
0.004049 0.844339 0.014751
0.204189 0.844884 0.013254
0.572630 0.846032 0.010098
0.885084 0.847128 0.007083
1.000000 0.847618 0.005735
0.009955 1.000000 0.010421
0.210620 1.000000 0.008538
0.579885 1.000000 0.004777
0.892940 1.000000 0.001321
1.000000 1.000000 0.000000
0.000000 0.014132 0.260262
0.206206 0.006184 0.252257
0.570560 0.006513 0.221865
0.864983 0.009594 0.211681
0.995165 0.008835 0.208836
0.000000 0.204544 0.226363
0.191201 0.197017 0.215951
0.585409 0.187599 0.198416
0.868344 0.193421 0.199076
0.998339 0.192849 0.196931
0.000000 0.548035 0.185427
0.170900 0.552133 0.164456
0.566241 0.542805 0.165439
0.886605 0.539889 0.170551
1.000000 0.539908 0.173786
0.004630 0.844494 0.187308
0.199934 0.847030 0.180651
0.573382 0.846232 0.182528
0.885910 0.847348 0.179459
1.000000 0.847846 0.178091
0.010698 1.000000 0.182858
0.211413 1.000000 0.180939
0.580758 1.000000 0.177119
0.893873 1.000000 0.173619
1.000000 1.000000 0.172084
0.000000 0.014592 0.567126
0.190129 0.012240 0.567764
0.574356 0.003271 0.571646
0.865655 0.008922 0.545864
0.995808 0.008192 0.543126
0.000000 0.198561 0.572277
0.190782 0.194476 0.571763
0.586494 0.183647 0.564676
0.868852 0.192914 0.533875
0.998802 0.192387 0.531900
0.000000 0.545394 0.532959
0.170684 0.548619 0.533832
0.567815 0.540694 0.522218
0.902313 0.534955 0.515141
1.000000 0.536820 0.516411
0.005820 0.844812 0.523137
0.201922 0.846812 0.520047
0.553712 0.855705 0.490629
0.892005 0.849039 0.489446
1.000000 0.847483 0.490176
0.012189 1.000000 0.518467
0.212995 1.000000 0.516481
0.565133 1.000000 0.491111
0.894321 1.000000 0.497053
1.000000 1.000000 0.500818
0.000000 0.013876 0.861162
0.189588 0.012510 0.856041
0.556074 0.010160 0.847228
0.866226 0.008351 0.840444
0.996352 0.007648 0.837807
0.000000 0.196937 0.845687
0.193507 0.195779 0.841344
0.559561 0.193862 0.834154
0.872067 0.191407 0.831611
0.999171 0.192018 0.827238
0.000000 0.543535 0.834047
0.177168 0.544861 0.848345
0.564415 0.538976 0.849844
0.903391 0.532157 0.841378
1.000000 0.534766 0.829920
0.006931 0.845108 0.819046
0.207366 0.845731 0.817332
0.549439 0.854630 0.817251
0.896050 0.846985 0.801837
1.000000 0.843348 0.797488
0.013547 1.000000 0.814194
0.214431 1.000000 0.812151
0.558579 1.000000 0.800612
0.886788 1.000000 0.780174
1.000000 1.000000 0.776729
0.000000 0.013506 1.000000
0.189941 0.012157 1.000000
0.556396 0.009838 1.000000
0.866517 0.008060 0.994613
0.996628 0.007372 0.992031
0.000000 0.196622 0.999763
0.193802 0.195484 0.995496
0.559813 0.193610 0.988469
0.869470 0.192295 0.983538
0.999348 0.191841 0.981833
0.000000 0.541201 0.980002
0.195657 0.541496 0.983532
0.564520 0.540186 0.995005
0.893780 0.534977 0.999728
1.000000 0.533541 0.995934
0.007534 0.845269 0.973863
0.208020 0.845905 0.972112
0.549853 0.853161 0.989399
0.894099 0.845357 0.982814
1.000000 0.841559 0.975276
0.014274 1.000000 0.968920
0.215197 1.000000 0.966848
0.560097 1.000000 0.966505
0.883115 1.000000 0.955116
1.000000 1.000000 0.947312
