luts/luts/teal_and_orange.cube
TITLE "Teal & Orange Cine"
LUT_3D_SIZE 9
DOMAIN_MIN 0.0 0.0 0.0
DOMAIN_MAX 1.0 1.0 1.0
0.000000 0.016361 0.071879
0.059894 0.013007 0.067235
0.209200 0.007977 0.057166
0.388000 0.005472 0.048447
0.568423 0.007994 0.044637
0.724372 0.010814 0.043275
0.864628 0.009949 0.040029
0.969738 0.009322 0.037680
0.994824 0.009176 0.037130
0.000000 0.082095 0.056030
0.052500 0.079102 0.050993
0.205470 0.072865 0.042526
0.389419 0.068636 0.036304
0.575628 0.069228 0.035279
0.725694 0.073420 0.038320
0.865895 0.072609 0.035278
0.970962 0.072025 0.033091
0.996037 0.071890 0.032581
0.000000 0.207072 0.030666
0.041788 0.205175 0.024853
0.192976 0.199352 0.018462
0.384779 0.192984 0.011583
0.584656 0.189445 0.012762
0.740908 0.191348 0.021743
0.868069 0.193696 0.027125
0.973035 0.193214 0.025316
0.998085 0.193103 0.024900
0.000000 0.369610 0.009768
0.037812 0.368642 0.004495
0.184415 0.363937 0.002046
0.370318 0.359022 0.000289
0.572794 0.355108 0.000242
0.745769 0.353058 0.001906
0.883499 0.352663 0.006067
0.974943 0.355047 0.018160
0.999929 0.355001 0.017986
0.000000 0.549608 0.004451
0.047096 0.549217 0.001372
0.188481 0.545871 0.003523
0.367636 0.542782 0.007923
0.562957 0.541307 0.015323
0.732773 0.541460 0.016558
0.873285 0.541759 0.015735
0.978712 0.542011 0.015043
1.000000 0.542074 0.014869
0.000460 0.706275 0.017383
0.066479 0.706375 0.017108
0.199852 0.706620 0.016434
0.373090 0.707004 0.015380
0.567295 0.707502 0.014010
0.738074 0.707989 0.012670
0.879086 0.708421 0.011481
0.984847 0.708762 0.010544
1.000000 0.708845 0.010315
0.004049 0.844339 0.014751
0.070343 0.844513 0.014275
0.204189 0.844884 0.013254
0.377937 0.845404 0.011825
0.572630 0.846032 0.010098
0.743787 0.846620 0.008481
0.885084 0.847128 0.007083
0.991046 0.847522 0.005998
1.000000 0.847618 0.005735
0.007774 0.948545 0.012020
0.074195 0.948752 0.011450
0.208279 0.949187 0.010255
0.382309 0.949781 0.008619
0.577286 0.950485 0.006683
0.748674 0.951135 0.004897
0.890149 0.951691 0.003368
0.996239 0.952119 0.002190
1.000000 0.952223 0.001905
0.009955 1.000000 0.010421
0.076431 1.000000 0.009811
0.210620 1.000000 0.008538
0.384776 1.000000 0.006809
0.579885 1.000000 0.004777
0.751380 1.000000 0.002912
0.892940 1.000000 0.001321
0.999090 1.000000 0.000099
1.000000 1.000000 0.000000
0.000000 0.015419 0.137314
0.058684 0.012368 0.133398
0.208931 0.007083 0.123131
0.388201 0.004772 0.111145
0.569151 0.007513 0.103679
0.724496 0.010691 0.100619
0.864748 0.009830 0.097391
0.969853 0.009207 0.095056
0.994939 0.009061 0.094510
0.000000 0.081128 0.123340
0.051971 0.078052 0.119288
0.205044 0.071928 0.109439
0.389463 0.067894 0.099953
0.576200 0.068705 0.095274
0.725810 0.073303 0.095692
0.866007 0.072497 0.092670
0.971069 0.071918 0.090498
0.996143 0.071783 0.089993
0.000000 0.206212 0.096248
0.040765 0.204504 0.090978
0.192546 0.198767 0.082041
0.387018 0.191740 0.073895
0.584922 0.188842 0.074617
0.741641 0.190936 0.080399
0.868162 0.193604 0.084586
0.973122 0.193127 0.082797
0.998171 0.193017 0.082388
0.000000 0.368894 0.073047
0.035019 0.368998 0.065882
0.181560 0.364687 0.059785
0.370731 0.358990 0.056229
0.576864 0.354203 0.054186
0.753049 0.351387 0.054117
0.884190 0.352320 0.064671
0.974980 0.355010 0.075830
0.999960 0.354970 0.075678
0.000000 0.549066 0.065115
0.041020 0.551268 0.056010
0.182800 0.548157 0.054792
0.365192 0.544305 0.057500
0.564242 0.542003 0.062983
0.735014 0.541420 0.068876
0.873456 0.541805 0.073419
0.978898 0.542061 0.072716
1.000000 0.542125 0.072540
0.000566 0.706303 0.075115
0.058173 0.709750 0.066548
0.196762 0.708068 0.069736
0.373269 0.707051 0.073057
0.567499 0.707556 0.071670
0.738296 0.708048 0.070316
0.879322 0.708484 0.069117
0.985092 0.708827 0.068173
1.000000 0.708911 0.067943
0.004241 0.844390 0.072420
0.070543 0.844566 0.071938
0.204403 0.844941 0.070906
0.378170 0.845466 0.069463
0.572879 0.846098 0.067724
0.744050 0.846690 0.066097
0.885359 0.847201 0.064690
0.991328 0.847598 0.063601
1.000000 0.847694 0.063336
0.008004 0.948606 0.069660
0.074432 0.948815 0.069086
0.208527 0.949253 0.067882
0.382571 0.949851 0.066236
0.577564 0.950559 0.064288
0.748963 0.951212 0.062494
0.890448 0.951771 0.060958
0.996545 0.952201 0.059775
1.000000 0.952305 0.059489
0.010202 1.000000 0.068049
0.076684 1.000000 0.067435
0.210883 1.000000 0.066154
0.385053 1.000000 0.064416
0.580175 1.000000 0.062373
0.751682 1.000000 0.060500
0.893250 1.000000 0.058903
0.999407 1.000000 0.057676
1.000000 1.000000 0.057379
0.000000 0.014132 0.260262
0.056817 0.011684 0.257795
0.206206 0.006184 0.252257
0.388558 0.003338 0.236614
0.570560 0.006513 0.221865
0.724741 0.010446 0.214874
0.864983 0.009594 0.211681
0.970081 0.008979 0.209375
0.995165 0.008835 0.208836
0.000000 0.078980 0.251494
0.051922 0.076361 0.248426
0.203011 0.070522 0.241686
0.389509 0.066375 0.227319
0.577298 0.067620 0.215364
0.726040 0.073073 0.210003
0.866226 0.072278 0.207020
0.971280 0.071707 0.204881
0.996352 0.071575 0.204383
0.000000 0.204544 0.226363
0.040019 0.202696 0.223611
0.191201 0.197017 0.215951
0.386451 0.190060 0.204953
0.585409 0.187599 0.198416
0.743058 0.190076 0.197828
0.868344 0.193421 0.199076
0.973293 0.192956 0.197331
0.998339 0.192849 0.196931
0.000000 0.367515 0.198571
0.035003 0.367481 0.193926
0.175613 0.365474 0.182582
0.370988 0.358343 0.175161
0.584404 0.351817 0.169152
0.756648 0.349764 0.173404
0.885517 0.351599 0.182028
0.975040 0.354951 0.190780
1.000000 0.354930 0.190703
0.000000 0.548035 0.185427
0.041838 0.550105 0.178856
0.170900 0.552133 0.164456
0.359716 0.546774 0.163865
0.566241 0.542805 0.165439
0.743492 0.540690 0.167801
0.886605 0.539889 0.170551
0.991986 0.539847 0.173111
1.000000 0.539908 0.173786
0.000793 0.706364 0.190122
0.059954 0.709045 0.184722
0.180062 0.714873 0.168193
0.364798 0.711403 0.171839
0.566439 0.709035 0.177313
0.738970 0.708281 0.183374
0.879798 0.708611 0.183941
0.985587 0.708959 0.182984
1.000000 0.709044 0.182750
0.004630 0.844494 0.187308
0.070948 0.844674 0.186814
0.199934 0.847030 0.180651
0.378638 0.845591 0.184293
0.573382 0.846232 0.182528
0.744581 0.846831 0.180881
0.885910 0.847348 0.179459
0.991895 0.847749 0.178358
1.000000 0.847846 0.178091
0.008468 0.948730 0.184493
0.074908 0.948942 0.183909
0.209027 0.949386 0.182688
0.383099 0.949992 0.181021
0.578121 0.950708 0.179053
0.749544 0.951367 0.177241
0.891048 0.951930 0.175691
0.997158 0.952364 0.174498
1.000000 0.952469 0.174210
0.010698 1.000000 0.182858
0.077192 1.000000 0.182235
0.211413 1.000000 0.180939
0.385608 1.000000 0.179181
0.580758 1.000000 0.177119
0.752287 1.000000 0.175230
0.893873 1.000000 0.173619
1.000000 1.000000 0.172383
1.000000 1.000000 0.172084
0.000000 0.013640 0.411354
0.055446 0.012010 0.410852
0.197967 0.008163 0.409272
0.387065 0.002065 0.406109
0.572382 0.005067 0.383494
0.725070 0.010117 0.369990
0.865298 0.009279 0.366847
0.970386 0.008675 0.364580
0.995467 0.008533 0.364051
0.000000 0.077121 0.409016
0.053022 0.075322 0.407907
0.197244 0.071136 0.405116
0.388525 0.064608 0.400408
0.578698 0.066059 0.379582
0.727755 0.072309 0.365575
0.866519 0.071985 0.362270
0.971561 0.071426 0.360175
0.996630 0.071297 0.359688
0.000000 0.201947 0.398982
0.042763 0.199827 0.396744
0.190225 0.195003 0.391702
0.385587 0.187692 0.384068
0.585975 0.185822 0.367683
0.744887 0.188819 0.358454
0.868585 0.193181 0.354522
0.973517 0.192732 0.352837
0.998559 0.192629 0.352454
0.000000 0.365742 0.367802
0.035063 0.365520 0.366579
0.174651 0.363139 0.362144
0.370113 0.356225 0.352572
0.585325 0.349498 0.343617
0.757309 0.348257 0.341005
0.887211 0.350543 0.342633
0.977509 0.354305 0.346326
1.000000 0.354969 0.346945
0.000000 0.546739 0.347580
0.043033 0.548631 0.344453
0.170415 0.550560 0.336392
0.351112 0.548969 0.324424
0.567764 0.542652 0.320501
0.753805 0.538452 0.318056
0.901503 0.536472 0.319270
1.000000 0.537417 0.326341
1.000000 0.537886 0.328274
0.001134 0.706455 0.346220
0.062490 0.708191 0.343899
0.179851 0.714371 0.332293
0.349870 0.717266 0.316552
0.561496 0.712517 0.316516
0.742790 0.709672 0.317723
0.889082 0.708261 0.319610
0.996778 0.707761 0.321563
1.000000 0.707712 0.322097
0.005173 0.844639 0.343257
0.071512 0.844824 0.342748
0.198737 0.847690 0.336917
0.360352 0.853529 0.318993
0.567307 0.850018 0.322625
0.744395 0.848264 0.327123
0.887156 0.847757 0.331767
0.992673 0.847956 0.334135
1.000000 0.848055 0.333865
0.009110 0.948901 0.340370
0.075567 0.949118 0.339774
0.209717 0.949570 0.338530
0.374752 0.953907 0.326701
0.578067 0.951320 0.333214
0.750341 0.951580 0.333004
0.891870 0.952150 0.331436
0.997998 0.952588 0.330230
1.000000 0.952694 0.329939
0.011384 1.000000 0.338703
0.077892 1.000000 0.338069
0.212141 1.000000 0.336752
0.384385 1.000000 0.332750
0.581557 1.000000 0.332881
0.753116 1.000000 0.330970
0.894725 1.000000 0.329342
1.000000 1.000000 0.328093
1.000000 1.000000 0.327792
0.000000 0.014592 0.567126
0.055521 0.014124 0.565369
0.190129 0.012240 0.567764
0.368952 0.008618 0.570503
0.574356 0.003271 0.571646
0.725442 0.009745 0.548948
0.865655 0.008922 0.545864
0.970730 0.008330 0.543644
0.995808 0.008192 0.543126
0.000000 0.076771 0.568091
0.055960 0.075917 0.569238
0.192263 0.073640 0.570994
0.373272 0.069590 0.572171
0.580181 0.064131 0.570730
0.730694 0.070979 0.546730
0.866849 0.071655 0.541386
0.971877 0.071110 0.539344
0.996943 0.070984 0.538870
0.000000 0.198561 0.572277
0.051234 0.197388 0.572283
0.190782 0.194476 0.571763
0.375946 0.189621 0.570050
0.586494 0.183647 0.564676
0.746862 0.187244 0.545488
0.868852 0.192914 0.533875
0.973765 0.192484 0.532264
0.998802 0.192387 0.531900
0.000000 0.363837 0.561348
0.035252 0.363400 0.564072
0.177363 0.360021 0.562310
0.367883 0.354166 0.557127
0.584493 0.347024 0.548605
0.757920 0.346401 0.536158
0.889000 0.349222 0.529804
0.980377 0.353487 0.527482
1.000000 0.354761 0.527142
0.000000 0.545394 0.532959
0.044529 0.547082 0.533808
0.170684 0.548619 0.533832
0.348764 0.547164 0.530873
0.567815 0.540694 0.522218
0.757521 0.535772 0.516595
0.902313 0.534955 0.515141
1.000000 0.536264 0.515969
1.000000 0.536820 0.516411
0.001567 0.706570 0.526257
0.065578 0.707354 0.525747
0.181828 0.713109 0.521955
0.347260 0.716735 0.512824
0.554092 0.714748 0.499881
0.745496 0.709490 0.495473
0.900126 0.706089 0.492718
1.000000 0.704097 0.491184
1.000000 0.703929 0.492014
0.005820 0.844812 0.523137
0.072182 0.845003 0.522611
0.201922 0.846812 0.520047
0.356381 0.854418 0.505938
0.553712 0.855705 0.490629
0.740907 0.851538 0.489474
0.892005 0.849039 0.489446
1.000000 0.847726 0.489978
1.000000 0.847483 0.490176
0.009867 0.949103 0.520170
0.076342 0.949324 0.519561
0.210527 0.949786 0.518291
0.369032 0.956141 0.505903
0.559824 0.959602 0.489588
0.743765 0.956250 0.490975
0.892146 0.954428 0.493068
1.000000 0.953622 0.495203
1.000000 0.953501 0.495785
0.012189 1.000000 0.518467
0.078713 1.000000 0.517822
0.212995 1.000000 0.516481
0.377495 1.000000 0.507661
0.565133 1.000000 0.491111
0.747365 1.000000 0.493841
0.894321 1.000000 0.497053
1.000000 1.000000 0.500033
1.000000 1.000000 0.500818
0.000000 0.014200 0.727281
0.055908 0.013737 0.725544
0.189277 0.012821 0.722110
0.362224 0.011673 0.717805
0.555790 0.010444 0.713195
0.725770 0.009416 0.709342
0.865969 0.008608 0.706312
0.971032 0.008028 0.704136
0.996107 0.007893 0.703629
0.000000 0.076633 0.721677
0.057381 0.076190 0.720019
0.190707 0.075318 0.716748
0.363594 0.074229 0.712666
0.559083 0.072187 0.711218
0.733208 0.069671 0.710641
0.867138 0.071366 0.701927
0.972153 0.070834 0.699934
0.997216 0.070711 0.699472
0.000000 0.197216 0.711633
0.060014 0.196818 0.710143
0.192813 0.195639 0.712477
0.368779 0.193010 0.715997
0.571307 0.188643 0.718572
0.748508 0.185717 0.714690
0.869878 0.192395 0.695153
0.973976 0.192273 0.693098
0.999008 0.192181 0.692752
0.000000 0.360305 0.718459
0.049387 0.359580 0.719046
0.186057 0.357589 0.719754
0.367385 0.353973 0.719762
0.575737 0.348580 0.718665
0.758326 0.344633 0.712722
0.890512 0.348009 0.699360
0.982884 0.352650 0.691378
1.000000 0.354006 0.689694
0.000000 0.544326 0.697562
0.045975 0.545836 0.701983
0.171010 0.547044 0.709324
0.349727 0.544913 0.713408
0.565466 0.539084 0.708761
0.756992 0.533859 0.701153
0.902939 0.533477 0.692228
1.000000 0.535114 0.687459
1.000000 0.535748 0.686566
0.001986 0.706682 0.687574
0.068168 0.706825 0.687180
0.183740 0.712108 0.690325
0.347873 0.715232 0.690297
0.551272 0.713562 0.684612
0.746377 0.707702 0.675487
0.903926 0.703660 0.670643
1.000000 0.702559 0.669033
1.000000 0.702540 0.668899
0.006419 0.844971 0.684324
0.072800 0.845168 0.683783
0.204907 0.846153 0.682584
0.358056 0.853248 0.677604
0.549170 0.855996 0.666349
0.736244 0.852845 0.655659
0.894815 0.848563 0.651435
1.000000 0.845912 0.648818
1.000000 0.845350 0.648263
0.010560 0.949288 0.681287
0.077050 0.949513 0.680666
0.211266 0.949983 0.679374
0.371475 0.955217 0.673247
0.553310 0.961272 0.657805
0.734944 0.959883 0.646696
0.890798 0.956276 0.644576
1.000000 0.954134 0.643550
1.000000 0.953694 0.643376
0.012924 1.000000 0.679553
0.079463 1.000000 0.678897
0.213773 1.000000 0.677536
0.380329 1.000000 0.672777
0.557346 1.000000 0.655162
0.736391 1.000000 0.644119
0.890821 1.000000 0.643109
1.000000 1.000000 0.642921
1.000000 1.000000 0.642949
0.000000 0.013876 0.861162
0.056228 0.013417 0.859441
0.189588 0.012510 0.856041
0.362523 0.011374 0.851782
0.556074 0.010160 0.847228
0.726040 0.009146 0.843427
0.866226 0.008351 0.840444
0.971280 0.007780 0.838305
0.996352 0.007648 0.837807
0.000000 0.076323 0.855613
0.057686 0.075885 0.853972
0.191002 0.075022 0.850738
0.363876 0.073947 0.846706
0.557355 0.072806 0.842425
0.727251 0.071862 0.838887
0.867375 0.071129 0.836138
0.972378 0.070609 0.834188
0.997438 0.070489 0.833737
0.000000 0.196937 0.845687
0.060287 0.196545 0.844217
0.193507 0.195779 0.841344
0.366247 0.194838 0.837815
0.559561 0.193862 0.834154
0.732924 0.191536 0.835838
0.872067 0.191407 0.831611
0.974144 0.192105 0.827567
0.999171 0.192018 0.827238
0.000000 0.357659 0.834362
0.063230 0.357345 0.833183
0.194451 0.356744 0.836344
0.368097 0.355001 0.840680
0.567841 0.351718 0.844423
0.747798 0.347754 0.846964
0.891773 0.346942 0.842203
0.984922 0.351871 0.829504
1.000000 0.353294 0.826699
0.000000 0.543535 0.834047
0.047260 0.544900 0.841461
0.177168 0.544861 0.848345
0.357136 0.542708 0.849899
0.564415 0.538976 0.849844
0.751485 0.534493 0.848290
0.903391 0.532157 0.841378
1.000000 0.534066 0.831930
1.000000 0.534766 0.829920
0.002358 0.706781 0.822399
0.068565 0.706931 0.821987
0.185440 0.711367 0.829904
0.348485 0.714069 0.837491
0.551420 0.711784 0.839488
0.744535 0.706232 0.833348
0.903567 0.702076 0.825410
1.000000 0.701247 0.819121
1.000000 0.701293 0.817871
0.006931 0.845108 0.819046
0.073329 0.845309 0.818494
0.207366 0.845731 0.817332
0.359550 0.852363 0.819957
0.549439 0.854630 0.817251
0.733394 0.852082 0.809905
0.896050 0.846985 0.801837
1.000000 0.843848 0.798088
1.000000 0.843348 0.797488
0.011149 0.949445 0.815953
0.077652 0.949674 0.815323
0.211892 0.950150 0.814013
0.373609 0.954536 0.811994
0.554217 0.960107 0.805111
0.730035 0.960452 0.794075
0.888561 0.956642 0.786204
1.000000 0.953382 0.782531
1.000000 0.952675 0.781726
0.013547 1.000000 0.814194
0.080098 1.000000 0.813529
0.214431 1.000000 0.812151
0.382789 1.000000 0.809665
0.558579 1.000000 0.800612
0.730174 1.000000 0.787660
0.886788 1.000000 0.780174
1.000000 1.000000 0.777334
1.000000 1.000000 0.776729
0.000000 0.013632 0.962397
0.056468 0.013177 0.960688
0.189821 0.012277 0.957314
0.362746 0.011151 0.953091
0.556287 0.009947 0.948579
0.726242 0.008945 0.944819
0.866418 0.008159 0.941872
0.971464 0.007596 0.939761
0.996535 0.007465 0.939271
0.000000 0.076091 0.956890
0.057915 0.075656 0.955262
0.191223 0.074801 0.952055
0.364087 0.073736 0.948062
0.557554 0.072607 0.943828
0.727438 0.071676 0.940334
0.867550 0.070954 0.937626
0.972545 0.070442 0.935709
0.997602 0.070324 0.935267
0.000000 0.196729 0.947053
0.060491 0.196342 0.945600
0.193702 0.195584 0.942760
0.366430 0.194656 0.939278
0.559727 0.193695 0.935677
0.729445 0.192930 0.932808
0.869402 0.192364 0.930683
0.974265 0.191984 0.929259
0.999289 0.191900 0.928943
0.000000 0.357491 0.935881
0.063392 0.357183 0.934723
0.196432 0.356596 0.932524
0.368909 0.355918 0.929979
0.562555 0.354814 0.930413
0.736766 0.352284 0.936202
0.883878 0.349736 0.940734
0.986425 0.351232 0.934624
1.000000 0.352706 0.930972
0.000000 0.542276 0.932650
0.058264 0.542439 0.934875
0.189168 0.542485 0.939339
0.363454 0.541760 0.943954
0.564326 0.539611 0.947390
0.745755 0.536514 0.948930
0.898945 0.533089 0.949164
1.000000 0.533223 0.941845
1.000000 0.533971 0.938991
0.002651 0.706859 0.924331
0.068876 0.707014 0.923906
0.186786 0.710862 0.934743
0.349007 0.713246 0.948091
0.555813 0.710111 0.947272
0.743261 0.705940 0.944278
0.901421 0.701606 0.940763
1.000000 0.700203 0.933279
1.000000 0.700298 0.931185
0.007326 0.845213 0.920903
0.073735 0.845417 0.920342
0.207795 0.845845 0.919165
0.360737 0.851748 0.926903
0.549699 0.853651 0.930663
0.732842 0.850782 0.928998
0.895071 0.845675 0.922364
1.000000 0.842633 0.915752
1.000000 0.842183 0.914307
0.011601 0.949565 0.917769
0.078113 0.949797 0.917132
0.212372 0.950278 0.915808
0.375278 0.954076 0.916218
0.554958 0.959281 0.915807
0.729963 0.959303 0.910457
0.886450 0.956113 0.902519
1.000000 0.952100 0.896671
1.000000 0.951202 0.895438
0.014024 1.000000 0.915991
0.080584 1.000000 0.915320
0.214934 1.000000 0.913929
0.384704 1.000000 0.912484
0.559565 1.000000 0.909907
0.730347 1.000000 0.902644
0.883355 1.000000 0.893119
1.000000 1.000000 0.888017
1.000000 1.000000 0.886931
0.000000 0.013506 1.000000
0.056592 0.013053 1.000000
0.189941 0.012157 1.000000
0.362862 0.011035 1.000000
0.556396 0.009838 1.000000
0.726346 0.008841 0.997541
0.866517 0.008060 0.994613
0.971559 0.007501 0.992518
0.996628 0.007372 0.992031
0.000000 0.075971 1.000000
0.058033 0.075538 1.000000
0.191337 0.074687 1.000000
0.364196 0.073628 1.000000
0.557656 0.072505 0.996557
0.727534 0.071580 0.993087
0.867640 0.070863 0.990400
0.972630 0.070357 0.988501
0.997687 0.070240 0.988063
0.000000 0.196622 0.999763
0.060596 0.196236 0.998317
0.193802 0.195484 0.995496
0.366523 0.194562 0.992039
0.559813 0.193610 0.988469
0.729522 0.192854 0.985632
0.869470 0.192295 0.983538
0.974326 0.191923 0.982142
0.999348 0.191841 0.981833
0.000000 0.357406 0.988670
0.063474 0.357100 0.987525
0.196507 0.356521 0.985352
0.368974 0.355853 0.982847
0.561916 0.355248 0.980581
0.731255 0.354896 0.979524
0.876024 0.352975 0.985356
0.986751 0.351060 0.989070
1.000000 0.352384 0.985422
0.000000 0.541201 0.980002
0.065603 0.541079 0.979544
0.195657 0.541496 0.983532
0.366981 0.541512 0.989750
0.564520 0.540186 0.995005
0.743014 0.537808 0.998157
0.893780 0.534977 0.999728
1.000000 0.532767 0.999227
1.000000 0.533541 0.995934
0.002808 0.706901 0.977329
0.069041 0.707058 0.976897
0.187506 0.710620 0.989018
0.353946 0.711988 1.000000
0.558332 0.709485 1.000000
0.742834 0.706031 0.998863
0.898562 0.702289 0.996704
1.000000 0.699643 0.992866
1.000000 0.699763 0.990332
0.007534 0.845269 0.973863
0.073949 0.845474 0.973298
0.208020 0.845905 0.972112
0.361373 0.851448 0.982276
0.549853 0.853161 0.989399
0.734279 0.849878 0.988108
0.894099 0.845357 0.982814
1.000000 0.841984 0.977161
1.000000 0.841559 0.975276
0.011838 0.949628 0.970707
0.078355 0.949861 0.970067
0.212623 0.950345 0.968736
0.376165 0.953856 0.970177
0.555362 0.958871 0.973132
0.729944 0.958725 0.970740
0.886083 0.955396 0.965241
1.000000 0.951346 0.959161
1.000000 0.950510 0.957773
0.014274 1.000000 0.968920
0.080838 1.000000 0.968246
0.215197 1.000000 0.966848
0.385718 1.000000 0.965714
0.560097 1.000000 0.966505
0.730455 1.000000 0.962200
0.883115 1.000000 0.955116
1.000000 1.000000 0.948647
1.000000 1.000000 0.947312
