luts/luts/teal_and_orange.cube
TITLE "Teal & Orange Cine"
LUT_3D_SIZE 33
DOMAIN_MIN 0.0 0.0 0.0
DOMAIN_MAX 1.0 1.0 1.0
0.000000 0.016361 0.071879
0.000000 0.016256 0.071732
0.005084 0.015418 0.070566
0.030148 0.014325 0.069052
0.059894 0.013007 0.067235
0.093237 0.011663 0.064862
0.129492 0.010357 0.062304
0.168275 0.009112 0.059717
0.209200 0.007977 0.057166
0.251929 0.007000 0.054708
0.296155 0.006228 0.052400
0.341599 0.005704 0.050296
0.388000 0.005472 0.048447
0.435114 0.005575 0.046904
0.482191 0.006049 0.045729
0.526695 0.006868 0.044984
0.568423 0.007994 0.044637
0.607487 0.009390 0.044650
0.643995 0.011021 0.044984
0.684520 0.011066 0.044220
0.724372 0.010814 0.043275
0.762375 0.010577 0.042383
0.798468 0.010353 0.041544
0.832580 0.010144 0.040759
0.864628 0.009949 0.040029
0.894510 0.009769 0.039353
0.922100 0.009604 0.038735
0.947244 0.009455 0.038176
0.969738 0.009322 0.037680
0.989309 0.009208 0.037251
0.994824 0.009176 0.037130
0.994824 0.009176 0.037130
0.994824 0.009176 0.037130
0.000000 0.024056 0.070126
0.000000 0.023950 0.069977
0.004226 0.023108 0.068793
0.029323 0.022008 0.067256
0.059107 0.020682 0.065412
0.092529 0.019313 0.063062
0.128894 0.017970 0.060558
0.167798 0.016685 0.058030
0.208853 0.015507 0.055542
0.251720 0.014484 0.053152
0.296093 0.013662 0.050915
0.341691 0.013086 0.048885
0.388254 0.012800 0.047114
0.435536 0.012847 0.045653
0.482787 0.013263 0.044561
0.527460 0.014025 0.043897
0.569351 0.015097 0.043629
0.608573 0.016440 0.043717
0.645233 0.018021 0.044123
0.684680 0.018362 0.043620
0.724530 0.018112 0.042682
0.762531 0.017876 0.041796
0.798623 0.017654 0.040963
0.832734 0.017446 0.040183
0.864781 0.017252 0.039458
0.894661 0.017074 0.038788
0.922250 0.016910 0.038174
0.947392 0.016762 0.037620
0.969885 0.016631 0.037127
0.989455 0.016517 0.036702
0.994970 0.016485 0.036582
0.994970 0.016485 0.036582
0.994970 0.016485 0.036582
0.000000 0.038896 0.066557
0.000000 0.038795 0.066422
0.002497 0.037967 0.065299
0.027656 0.036855 0.063718
0.057514 0.035514 0.061822
0.091097 0.034094 0.059529
0.127677 0.032679 0.057129
0.166814 0.031315 0.054715
0.208119 0.030053 0.052348
0.251252 0.028941 0.050088
0.295907 0.028024 0.047988
0.341803 0.027349 0.046102
0.388677 0.026959 0.044482
0.436284 0.026897 0.043178
0.483870 0.027201 0.042247
0.528869 0.027855 0.041739
0.571075 0.028821 0.041622
0.610601 0.030064 0.041856
0.647554 0.031547 0.042402
0.684985 0.032433 0.042475
0.724833 0.032186 0.041549
0.762830 0.031953 0.040675
0.798919 0.031734 0.039853
0.833027 0.031529 0.039085
0.865071 0.031338 0.038370
0.894948 0.031162 0.037709
0.922535 0.031001 0.037105
0.947675 0.030855 0.036559
0.970166 0.030726 0.036074
0.989734 0.030614 0.035656
0.995249 0.030583 0.035538
0.995249 0.030583 0.035538
0.995249 0.030583 0.035538
0.000000 0.058526 0.061664
0.000000 0.058432 0.061522
0.000465 0.057663 0.060368
0.025405 0.056614 0.058823
0.055242 0.055285 0.056900
0.089062 0.053787 0.054708
0.125926 0.052276 0.052447
0.165371 0.050809 0.050184
0.207009 0.049435 0.047979
0.250497 0.048204 0.045891
0.295527 0.047162 0.043973
0.341817 0.046355 0.042279
0.389106 0.045826 0.040858
0.437145 0.045620 0.039763
0.485175 0.045776 0.039046
0.530608 0.046285 0.038747
0.573232 0.047112 0.038831
0.613162 0.048220 0.039258
0.650504 0.049574 0.039990
0.685385 0.051130 0.040977
0.725228 0.050888 0.040067
0.763221 0.050659 0.039209
0.799305 0.050444 0.038404
0.833410 0.050243 0.037650
0.865450 0.050056 0.036949
0.895323 0.049884 0.036302
0.922907 0.049726 0.035711
0.948044 0.049583 0.035176
0.970532 0.049457 0.034702
0.990097 0.049348 0.034293
0.995612 0.049317 0.034178
0.995612 0.049317 0.034178
0.995612 0.049317 0.034178
0.000000 0.082095 0.056030
0.000000 0.082009 0.055878
0.000000 0.081303 0.054653
0.022936 0.080337 0.053015
0.052500 0.079102 0.050993
0.086355 0.077589 0.048878
0.123613 0.075965 0.046617
0.163431 0.074373 0.044535
0.205470 0.072865 0.042526
0.249385 0.071491 0.040645
0.294866 0.070298 0.038947
0.341632 0.069331 0.037483
0.389419 0.068636 0.036304
0.437979 0.068257 0.035460
0.486544 0.068234 0.035001
0.532499 0.068569 0.034953
0.575628 0.069228 0.035279
0.616045 0.070174 0.035939
0.653855 0.071373 0.036894
0.689154 0.072788 0.038106
0.725694 0.073420 0.038320
0.763682 0.073196 0.037482
0.799761 0.072987 0.036696
0.833860 0.072791 0.035961
0.865895 0.072609 0.035278
0.895765 0.072441 0.034647
0.923344 0.072287 0.034072
0.948477 0.072148 0.033552
0.970962 0.072025 0.033091
0.990524 0.071919 0.032693
0.996037 0.071890 0.032581
0.996037 0.071890 0.032581
0.996037 0.071890 0.032581
0.000000 0.109069 0.049907
0.000000 0.108992 0.049745
0.000000 0.108360 0.048437
0.020345 0.107488 0.046694
0.049641 0.106343 0.044607
0.083332 0.104869 0.042631
0.120439 0.103282 0.040497
0.160608 0.101608 0.038239
0.203426 0.099896 0.036006
0.247832 0.098358 0.034364
0.293833 0.096991 0.032918
0.341145 0.095842 0.031719
0.389504 0.094956 0.030817
0.438662 0.094377 0.030262
0.487843 0.094150 0.030099
0.534397 0.094286 0.030340
0.578105 0.094752 0.030944
0.619081 0.095512 0.031872
0.657430 0.096532 0.033085
0.693246 0.097776 0.034544
0.726617 0.099210 0.036210
0.764197 0.099097 0.035550
0.800270 0.098894 0.034787
0.834363 0.098704 0.034074
0.866393 0.098527 0.033412
0.896257 0.098364 0.032802
0.923831 0.098216 0.032245
0.948959 0.098082 0.031743
0.971440 0.097963 0.031298
0.990998 0.097861 0.030914
0.996511 0.097832 0.030806
0.996511 0.097832 0.030806
0.996511 0.097832 0.030806
0.000000 0.139073 0.043510
0.000000 0.139006 0.043336
0.000000 0.138457 0.041937
0.017764 0.137691 0.040077
0.046811 0.136624 0.037981
0.080322 0.135193 0.036159
0.117228 0.133653 0.034197
0.157179 0.132031 0.032124
0.199895 0.130348 0.029969
0.245138 0.128625 0.027755
0.292329 0.126957 0.025863
0.340252 0.125605 0.024960
0.389251 0.124505 0.024368
0.439076 0.123704 0.024135
0.488944 0.123248 0.024305
0.536168 0.123161 0.024868
0.580524 0.123412 0.025784
0.622125 0.123966 0.027012
0.661075 0.124786 0.028513
0.697469 0.125839 0.030248
0.731393 0.127091 0.032178
0.764754 0.128044 0.033461
0.800820 0.127847 0.032725
0.834906 0.127664 0.032038
0.866929 0.127494 0.031402
0.896787 0.127338 0.030816
0.924355 0.127196 0.030281
0.949477 0.127067 0.029799
0.971953 0.126953 0.029373
0.991507 0.126855 0.029006
0.997018 0.126828 0.028903
0.997018 0.126828 0.028903
0.997018 0.126828 0.028903
0.000000 0.171819 0.037035
0.000000 0.171763 0.036849
0.000000 0.171304 0.035350
0.015313 0.170654 0.033363
0.044150 0.169648 0.031329
0.077462 0.168264 0.029677
0.114149 0.166777 0.027901
0.153862 0.165211 0.026032
0.196322 0.163590 0.024096
0.241294 0.161931 0.022116
0.288578 0.160255 0.020114
0.337996 0.158578 0.018110
0.388547 0.157088 0.016912
0.439105 0.156043 0.017034
0.489726 0.155336 0.017568
0.537685 0.155006 0.018485
0.582751 0.155022 0.019743
0.625037 0.155349 0.021300
0.664647 0.155951 0.023118
0.701674 0.156795 0.025157
0.736206 0.157846 0.027377
0.768318 0.159071 0.029740
0.801398 0.159614 0.030554
0.835477 0.159439 0.029898
0.867492 0.159277 0.029291
0.897342 0.159128 0.028733
0.924903 0.158993 0.028224
0.950019 0.158871 0.027767
0.972489 0.158763 0.027363
0.992038 0.158670 0.027015
0.997548 0.158644 0.026917
0.997548 0.158644 0.026917
0.997548 0.158644 0.026917
0.000000 0.207072 0.030666
0.000000 0.207030 0.030467
0.000000 0.206668 0.028861
0.013108 0.206144 0.026737
0.041788 0.205175 0.024853
0.074885 0.203842 0.023384
0.111336 0.202411 0.021811
0.150792 0.200907 0.020162
0.192976 0.199352 0.018462
0.237655 0.197764 0.016734
0.284629 0.196162 0.014998
0.333722 0.194563 0.013275
0.384779 0.192984 0.011583
0.437656 0.191438 0.009942
0.490068 0.190277 0.009832
0.538821 0.189683 0.011134
0.584656 0.189445 0.012762
0.627683 0.189527 0.014677
0.668007 0.189894 0.016839
0.705720 0.190512 0.019207
0.740908 0.191348 0.021743
0.773648 0.192366 0.024407
0.804005 0.193534 0.027159
0.836063 0.193849 0.027699
0.868069 0.193696 0.027125
0.897911 0.193556 0.026600
0.925464 0.193429 0.026122
0.950572 0.193315 0.025694
0.973035 0.193214 0.025316
0.992578 0.193127 0.024991
0.998085 0.193103 0.024900
0.998085 0.193103 0.024900
0.998085 0.193103 0.024900
0.000000 0.244639 0.024581
0.000000 0.244609 0.024367
0.000000 0.244353 0.022648
0.011264 0.243963 0.020379
0.039852 0.243002 0.018746
0.072720 0.241724 0.017472
0.108917 0.240355 0.016116
0.148098 0.238917 0.014703
0.189987 0.237433 0.013257
0.234353 0.235921 0.011798
0.280996 0.234399 0.010348
0.329742 0.232884 0.008925
0.380435 0.231393 0.007547
0.432936 0.229939 0.006234
0.486521 0.228555 0.005013
0.538305 0.227313 0.003953
0.586109 0.226583 0.004779
0.629931 0.226404 0.007079
0.671020 0.226520 0.009610
0.709468 0.226897 0.012334
0.745360 0.227501 0.015210
0.778772 0.228300 0.018199
0.809768 0.229259 0.021259
0.838405 0.230346 0.024351
0.868648 0.230610 0.024955
0.898479 0.230480 0.024468
0.926022 0.230362 0.024027
0.951122 0.230257 0.023633
0.973576 0.230165 0.023287
0.993111 0.230086 0.022990
0.998617 0.230064 0.022908
0.998617 0.230064 0.022908
0.998617 0.230064 0.022908
0.000000 0.284347 0.018954
0.000000 0.284332 0.018725
0.000000 0.284188 0.016887
0.009892 0.283942 0.014465
0.038464 0.282955 0.013195
0.071089 0.281736 0.012130
0.107017 0.280432 0.011004
0.145907 0.279065 0.009841
0.187483 0.277656 0.008664
0.231515 0.276225 0.007493
0.277807 0.274789 0.006346
0.326185 0.273365 0.005242
0.376494 0.271968 0.004199
0.428594 0.270613 0.003235
0.481769 0.269330 0.002374
0.533154 0.268187 0.001663
0.582410 0.267182 0.001097
0.629555 0.266307 0.000663
0.673549 0.265758 0.001372
0.712779 0.265880 0.004476
0.749419 0.266240 0.007717
0.783545 0.266807 0.011054
0.815221 0.267545 0.014446
0.844500 0.268424 0.017851
0.871425 0.269409 0.021227
0.899031 0.269786 0.022398
0.926562 0.269681 0.022002
0.951650 0.269587 0.021650
0.974094 0.269505 0.021343
0.993620 0.269435 0.021081
0.999123 0.269416 0.021009
0.999123 0.269416 0.021009
0.999123 0.269416 0.021009
0.000000 0.326049 0.013958
0.000000 0.326049 0.013713
0.000000 0.326023 0.011751
0.009103 0.325929 0.009171
0.037746 0.324881 0.008384
0.070114 0.323724 0.007539
0.105758 0.322489 0.006657
0.144340 0.321197 0.005759
0.185586 0.319870 0.004867
0.229267 0.318525 0.003999
0.275189 0.317181 0.003173
0.323178 0.315852 0.002408
0.373081 0.314556 0.001720
0.424759 0.313307 0.001125
0.477501 0.312132 0.000645
0.528467 0.311094 0.000307
0.577319 0.310192 0.000100
0.624075 0.309415 0.000014
0.668745 0.308753 0.000036
0.711330 0.308198 0.000154
0.751822 0.307738 0.000355
0.787823 0.307843 0.002922
0.820216 0.308351 0.006670
0.850174 0.309012 0.010413
0.877737 0.309792 0.014108
0.902928 0.310660 0.017709
0.927062 0.311296 0.020130
0.952135 0.311217 0.019833
0.974565 0.311149 0.019578
0.994079 0.311092 0.019363
0.999578 0.311076 0.019304
0.999578 0.311076 0.019304
0.999578 0.311076 0.019304
0.000000 0.369610 0.009768
0.000000 0.369625 0.009507
0.000000 0.369725 0.007418
0.009403 0.369634 0.005073
0.037812 0.368642 0.004495
0.069911 0.367552 0.003882
0.105258 0.366390 0.003256
0.143516 0.365179 0.002638
0.184415 0.363937 0.002046
0.227728 0.362685 0.001498
0.273260 0.361437 0.001011
0.320841 0.360211 0.000603
0.370318 0.359022 0.000289
0.421553 0.357885 0.000086
0.473841 0.356825 0.000010
0.524366 0.355901 0.000066
0.572794 0.355108 0.000242
0.619143 0.354437 0.000527
0.663422 0.353878 0.000907
0.705633 0.353422 0.001371
0.745769 0.353058 0.001906
0.783812 0.352778 0.002502
0.819738 0.352573 0.003145
0.853508 0.352433 0.003823
0.883499 0.352663 0.006067
0.909315 0.353336 0.009998
0.932717 0.354078 0.013766
0.953680 0.354856 0.017317
0.974943 0.355047 0.018160
0.994436 0.355011 0.018022
0.999929 0.355001 0.017986
0.999929 0.355001 0.017986
0.999929 0.355001 0.017986
0.000000 0.414908 0.006564
0.000000 0.414940 0.006286
0.000000 0.415171 0.004065
0.010616 0.415048 0.002074
0.038777 0.414117 0.001711
0.070593 0.413098 0.001341
0.105629 0.412014 0.000985
0.143549 0.410887 0.000660
0.184085 0.409737 0.000384
0.227012 0.408582 0.000173
0.272138 0.407438 0.000044
0.319292 0.406321 0.000012
0.368323 0.405247 0.000094
0.419094 0.404230 0.000306
0.470906 0.403294 0.000659
0.520970 0.402492 0.001135
0.568953 0.401817 0.001720
0.614875 0.401262 0.002402
0.658745 0.400815 0.003170
0.700564 0.400468 0.004011
0.740325 0.400210 0.004913
0.778013 0.400034 0.005867
0.813601 0.399930 0.006859
0.847052 0.399889 0.007881
0.878314 0.399905 0.008924
0.907319 0.399973 0.009990
0.934013 0.400107 0.011064
0.958269 0.400266 0.012052
0.979581 0.400498 0.013273
0.995912 0.401150 0.016435
1.000000 0.401345 0.017336
1.000000 0.401345 0.017336
1.000000 0.401345 0.017336
0.000000 0.461318 0.004544
0.000000 0.461367 0.004250
0.000000 0.461734 0.001897
0.012816 0.461546 0.000364
0.040720 0.460681 0.000224
0.072245 0.459736 0.000107
0.106959 0.458733 0.000031
0.144530 0.457696 0.000011
0.184692 0.456643 0.000064
0.227221 0.455590 0.000205
0.271926 0.454556 0.000449
0.318639 0.453555 0.000813
0.367209 0.452602 0.001311
0.417501 0.451714 0.001961
0.468821 0.450912 0.002769
0.518406 0.450242 0.003694
0.565928 0.449698 0.004722
0.611406 0.449271 0.005840
0.654848 0.448952 0.007042
0.696254 0.448734 0.008321
0.735616 0.448612 0.009683
0.772956 0.448613 0.011148
0.808282 0.448691 0.012574
0.841520 0.448823 0.013954
0.872606 0.448995 0.015285
0.901466 0.449197 0.016556
0.928523 0.449330 0.017120
0.953675 0.449372 0.017005
0.976184 0.449411 0.016897
0.995773 0.449446 0.016799
1.000000 0.449457 0.016771
1.000000 0.449457 0.016771
1.000000 0.449457 0.016771
0.000000 0.506325 0.003861
0.000000 0.506391 0.003551
0.000000 0.506893 0.001075
0.015880 0.506619 0.000063
0.043532 0.505818 0.000142
0.074773 0.504947 0.000275
0.109172 0.504027 0.000476
0.146401 0.503080 0.000759
0.186195 0.502123 0.001140
0.228334 0.501175 0.001631
0.272626 0.500252 0.002250
0.318905 0.499370 0.003011
0.367022 0.498544 0.003932
0.416840 0.497790 0.005031
0.467672 0.497131 0.006315
0.516779 0.496607 0.007725
0.563834 0.496216 0.009259
0.608875 0.495986 0.010961
0.652001 0.495887 0.012674
0.693162 0.495874 0.014368
0.732331 0.495935 0.016040
0.769760 0.496034 0.017128
0.805857 0.496094 0.016961
0.839990 0.496156 0.016793
0.872070 0.496216 0.016626
0.901992 0.496275 0.016464
0.929629 0.496331 0.016309
0.954822 0.496384 0.016164
0.977366 0.496433 0.016030
0.996984 0.496476 0.015911
1.000000 0.496488 0.015877
1.000000 0.496488 0.015877
1.000000 0.496488 0.015877
0.000000 0.549608 0.004451
0.000000 0.549690 0.004126
0.000000 0.550323 0.001537
0.019688 0.549952 0.001076
0.047096 0.549217 0.001372
0.078058 0.548420 0.001753
0.112150 0.547584 0.002229
0.149046 0.546728 0.002815
0.188481 0.545871 0.003523
0.230237 0.545031 0.004370
0.274123 0.544224 0.005371
0.319973 0.543469 0.006547
0.367636 0.542782 0.007923
0.416970 0.542190 0.009541
0.467347 0.541764 0.011456
0.516137 0.541480 0.013390
0.562957 0.541307 0.015323
0.607822 0.541237 0.017171
0.651221 0.541309 0.016973
0.692887 0.541384 0.016767
0.732773 0.541460 0.016558
0.770824 0.541537 0.016347
0.806978 0.541613 0.016139
0.841161 0.541687 0.015934
0.873285 0.541759 0.015735
0.903246 0.541829 0.015544
0.930918 0.541894 0.015364
0.956141 0.541955 0.015196
0.978712 0.542011 0.015043
0.998352 0.542060 0.014908
1.000000 0.542074 0.014869
1.000000 0.542074 0.014869
1.000000 0.542074 0.014869
0.000000 0.591164 0.006241
0.000000 0.591262 0.005904
0.001392 0.592023 0.003215
0.024128 0.591559 0.003308
0.051295 0.590891 0.003823
0.081985 0.590171 0.004453
0.115775 0.589422 0.005211
0.152340 0.588663 0.006109
0.191417 0.587914 0.007164
0.232786 0.587197 0.008398
0.276247 0.586536 0.009856
0.321709 0.585996 0.011582
0.369082 0.585536 0.013437
0.418198 0.585160 0.015441
0.468325 0.584940 0.017138
0.516817 0.585022 0.016912
0.563660 0.585108 0.016675
0.608830 0.585197 0.016432
0.652297 0.585287 0.016184
0.694022 0.585377 0.015935
0.733960 0.585467 0.015687
0.772059 0.585556 0.015442
0.808255 0.585644 0.015202
0.842476 0.585728 0.014969
0.874635 0.585810 0.014745
0.904627 0.585887 0.014532
0.932326 0.585960 0.014331
0.957574 0.586028 0.014146
0.980166 0.586089 0.013977
0.999824 0.586143 0.013828
1.000000 0.586159 0.013786
1.000000 0.586159 0.013786
1.000000 0.586159 0.013786
0.000000 0.630994 0.009190
0.000000 0.631109 0.008843
0.006222 0.631987 0.006099
0.029068 0.631460 0.006694
0.055994 0.630866 0.007440
0.086407 0.630234 0.008345
0.119880 0.629591 0.009429
0.156102 0.628985 0.010749
0.194908 0.628421 0.012220
0.236060 0.627890 0.013827
0.279364 0.627405 0.015581
0.324522 0.627053 0.017147
0.370972 0.627131 0.016932
0.419444 0.627220 0.016689
0.469305 0.627318 0.016420
0.517868 0.627419 0.016141
0.564774 0.627522 0.015859
0.610000 0.627625 0.015574
0.653517 0.627729 0.015289
0.695287 0.627831 0.015007
0.735266 0.627932 0.014729
0.773402 0.628031 0.014457
0.809633 0.628128 0.014192
0.843885 0.628221 0.013936
0.876072 0.628310 0.013691
0.906090 0.628394 0.013459
0.933812 0.628473 0.013242
0.959080 0.628546 0.013041
0.981690 0.628612 0.012859
1.000000 0.628671 0.012699
1.000000 0.628687 0.012653
1.000000 0.628687 0.012653
1.000000 0.628687 0.012653
0.000000 0.669122 0.013388
0.000000 0.669254 0.013040
0.011671 0.670199 0.010520
0.034346 0.669777 0.011362
0.061107 0.669306 0.012371
0.091370 0.668807 0.013536
0.124723 0.668298 0.014856
0.160849 0.667795 0.016329
0.198945 0.667563 0.017100
0.238834 0.667632 0.016913
0.281043 0.667709 0.016700
0.325456 0.667795 0.016462
0.371974 0.667891 0.016198
0.420508 0.667997 0.015908
0.470429 0.668111 0.015595
0.519045 0.668226 0.015278
0.566000 0.668342 0.014960
0.611270 0.668457 0.014642
0.654827 0.668571 0.014328
0.696634 0.668684 0.014019
0.736648 0.668794 0.013716
0.774815 0.668901 0.013421
0.811074 0.669005 0.013135
0.845353 0.669105 0.012860
0.877564 0.669201 0.012597
0.907604 0.669291 0.012349
0.935346 0.669376 0.012117
0.960633 0.669453 0.011902
0.983258 0.669524 0.011709
1.000000 0.669586 0.011539
1.000000 0.669603 0.011491
1.000000 0.669603 0.011491
1.000000 0.669603 0.011491
0.000460 0.706275 0.017383
0.002583 0.706278 0.017375
0.017917 0.706887 0.015835
0.040517 0.706511 0.016760
0.066479 0.706375 0.017108
0.095443 0.706424 0.016974
0.127491 0.706481 0.016817
0.162362 0.706546 0.016638
0.199852 0.706620 0.016434
0.239796 0.706703 0.016207
0.282058 0.706794 0.015956
0.326522 0.706894 0.015680
0.373090 0.707004 0.015380
0.421673 0.707122 0.015054
0.471641 0.707248 0.014707
0.520301 0.707375 0.014357
0.567295 0.707502 0.014010
0.612602 0.707627 0.013666
0.656193 0.707750 0.013327
0.698031 0.707871 0.012995
0.738074 0.707989 0.012670
0.776268 0.708103 0.012355
0.812552 0.708214 0.012051
0.846854 0.708320 0.011759
0.879086 0.708421 0.011481
0.909145 0.708517 0.011218
0.936905 0.708606 0.010973
0.962207 0.708688 0.010748
0.984847 0.708762 0.010544
1.000000 0.708827 0.010366
1.000000 0.708845 0.010315
1.000000 0.708845 0.010315
1.000000 0.708845 0.010315
0.001221 0.743552 0.016825
0.003347 0.743556 0.016815
0.020176 0.743587 0.016729
0.041779 0.743628 0.016616
0.067340 0.743679 0.016477
0.096342 0.743738 0.016315
0.128430 0.743805 0.016129
0.163342 0.743882 0.015919
0.200872 0.743966 0.015686
0.240858 0.744060 0.015429
0.283160 0.744162 0.015148
0.327665 0.744273 0.014842
0.374273 0.744394 0.014512
0.422897 0.744523 0.014157
0.472903 0.744659 0.013781
0.521600 0.744796 0.013404
0.568628 0.744932 0.013032
0.613966 0.745065 0.012665
0.657587 0.745196 0.012305
0.699453 0.745324 0.011952
0.739520 0.745449 0.011609
0.777738 0.745570 0.011277
0.814044 0.745686 0.010957
0.848366 0.745798 0.010650
0.880617 0.745904 0.010358
0.910693 0.746004 0.010083
0.938468 0.746097 0.009827
0.963784 0.746183 0.009591
0.986436 0.746260 0.009378
1.000000 0.746328 0.009192
1.000000 0.746347 0.009139
1.000000 0.746347 0.009139
1.000000 0.746347 0.009139
0.002109 0.779053 0.016174
0.004237 0.779058 0.016162
0.021085 0.779094 0.016062
0.042712 0.779142 0.015932
0.068300 0.779199 0.015774
0.097331 0.779266 0.015590
0.129449 0.779342 0.015381
0.164393 0.779426 0.015148
0.201956 0.779520 0.014891
0.241975 0.779622 0.014610
0.284311 0.779734 0.014304
0.328850 0.779854 0.013973
0.375492 0.779983 0.013618
0.424150 0.780121 0.013238
0.474190 0.780267 0.012837
0.522918 0.780412 0.012438
0.569975 0.780555 0.012044
0.615341 0.780696 0.011657
0.658987 0.780834 0.011278
0.700876 0.780968 0.010908
0.740967 0.781099 0.010549
0.779205 0.781225 0.010201
0.815531 0.781347 0.009867
0.849870 0.781463 0.009547
0.882138 0.781574 0.009243
0.912229 0.781678 0.008957
0.940018 0.781775 0.008690
0.965347 0.781864 0.008445
0.988010 0.781944 0.008225
1.000000 0.782014 0.008031
1.000000 0.782034 0.007977
1.000000 0.782034 0.007977
1.000000 0.782034 0.007977
0.003064 0.812683 0.015474
0.005195 0.812688 0.015460
0.022057 0.812728 0.015349
0.043703 0.812781 0.015205
0.069312 0.812844 0.015032
0.098366 0.812917 0.014831
0.130510 0.812999 0.014604
0.165480 0.813091 0.014351
0.203071 0.813192 0.014074
0.243117 0.813302 0.013772
0.285482 0.813421 0.013445
0.330050 0.813549 0.013093
0.376720 0.813686 0.012717
0.425407 0.813832 0.012315
0.475477 0.813985 0.011894
0.524232 0.814137 0.011474
0.571315 0.814288 0.011062
0.616705 0.814435 0.010657
0.660373 0.814579 0.010261
0.702284 0.814719 0.009876
0.742394 0.814855 0.009502
0.780651 0.814986 0.009141
0.816994 0.815112 0.008794
0.851350 0.815233 0.008462
0.883632 0.815347 0.008147
0.913737 0.815455 0.007851
0.941539 0.815555 0.007575
0.966878 0.815647 0.007322
0.989551 0.815730 0.007094
1.000000 0.815803 0.006895
1.000000 0.815823 0.006838
1.000000 0.815823 0.006838
1.000000 0.815823 0.006838
0.004049 0.844339 0.014751
0.006181 0.844345 0.014736
0.023056 0.844388 0.014617
0.044717 0.844445 0.014461
0.070343 0.844513 0.014275
0.099418 0.844591 0.014060
0.131583 0.844679 0.013817
0.166575 0.844777 0.013549
0.204189 0.844884 0.013254
0.244259 0.845000 0.012935
0.286648 0.845125 0.012590
0.331241 0.845260 0.012220
0.377937 0.845404 0.011825
0.426650 0.845556 0.011404
0.476744 0.845717 0.010964
0.525524 0.845876 0.010527
0.572630 0.846032 0.010098
0.618041 0.846185 0.009677
0.661729 0.846334 0.009267
0.703659 0.846479 0.008868
0.743787 0.846620 0.008481
0.782060 0.846755 0.008108
0.818418 0.846886 0.007749
0.852788 0.847010 0.007407
0.885084 0.847128 0.007083
0.915201 0.847239 0.006777
0.943014 0.847342 0.006494
0.968364 0.847437 0.006233
0.991046 0.847522 0.005998
1.000000 0.847597 0.005793
1.000000 0.847618 0.005735
1.000000 0.847618 0.005735
1.000000 0.847618 0.005735
0.005036 0.873906 0.014028
0.007169 0.873912 0.014012
0.024054 0.873958 0.013885
0.045728 0.874018 0.013720
0.071370 0.874090 0.013522
0.100460 0.874173 0.013295
0.132643 0.874266 0.013039
0.167655 0.874369 0.012757
0.205288 0.874481 0.012448
0.245379 0.874603 0.012113
0.287790 0.874734 0.011753
0.332404 0.874874 0.011367
0.379123 0.875024 0.010955
0.427858 0.875183 0.010519
0.477975 0.875349 0.010062
0.526776 0.875513 0.009609
0.573901 0.875675 0.009165
0.619331 0.875833 0.008731
0.663037 0.875987 0.008308
0.704984 0.876136 0.007896
0.745127 0.876281 0.007498
0.783416 0.876421 0.007114
0.819787 0.876555 0.006745
0.854170 0.876683 0.006394
0.886478 0.876804 0.006060
0.916606 0.876918 0.005747
0.944429 0.877024 0.005456
0.969787 0.877121 0.005189
0.992477 0.877208 0.004948
1.000000 0.877285 0.004738
1.000000 0.877306 0.004679
1.000000 0.877306 0.004679
1.000000 0.877306 0.004679
0.006000 0.901248 0.013321
0.008134 0.901254 0.013304
0.025028 0.901303 0.013171
0.046713 0.901366 0.012998
0.072367 0.901441 0.012791
0.101473 0.901527 0.012553
0.133671 0.901624 0.012286
0.168699 0.901732 0.011991
0.206350 0.901849 0.011669
0.246459 0.901975 0.011321
0.288888 0.902111 0.010947
0.333521 0.902256 0.010548
0.380259 0.902411 0.010122
0.429013 0.902575 0.009671
0.479150 0.902747 0.009200
0.527970 0.902916 0.008733
0.575113 0.903082 0.008276
0.620560 0.903245 0.007830
0.664282 0.903403 0.007395
0.706243 0.903556 0.006973
0.746400 0.903705 0.006564
0.784701 0.903848 0.006171
0.821086 0.903985 0.005793
0.855480 0.904116 0.005433
0.887798 0.904240 0.005092
0.917936 0.904357 0.004772
0.945768 0.904465 0.004474
